/* XPM */
static char *e02e4ddded174d42e684b47d768e06723cvYUkVEjdIcr71C[] = {
/* columns rows colors chars-per-pixel */
"500 500 256 2 ",
"   c None",
".  c #030202",
"X  c #0A0504",
"o  c #0B0906",
"O  c #060608",
"+  c #090708",
"@  c #070809",
"#  c #0B0A0A",
"$  c #060807",
"%  c #120603",
"&  c #130A05",
"*  c #1B0C05",
"=  c #130D0B",
"-  c #1A0D0A",
";  c #190603",
":  c #15110D",
">  c #1B130C",
",  c #1C1308",
"<  c #140F10",
"1  c #151312",
"2  c #1B1513",
"3  c #1D1915",
"4  c #1D1B1A",
"5  c #1B1718",
"6  c #0E100F",
"7  c #230D06",
"8  c #23140C",
"9  c #24190D",
"0  c #2B1B0C",
"q  c #281407",
"w  c #341B0A",
"e  c #221612",
"r  c #231B14",
"t  c #2B1D14",
"y  c #231D1A",
"u  c #2A1D19",
"i  c #331D14",
"p  c #2F0D0A",
"a  c #39230D",
"s  c #2C2115",
"d  c #26211C",
"f  c #2C231C",
"g  c #2B251B",
"h  c #332314",
"j  c #3B2513",
"k  c #33251B",
"l  c #34291D",
"z  c #3B2B1C",
"x  c #3B2818",
"c  c #382C18",
"v  c #2B2522",
"b  c #2E2923",
"n  c #272322",
"m  c #342B23",
"M  c #3A2D23",
"N  c #352B27",
"B  c #3D3125",
"V  c #3C332B",
"C  c #373129",
"Z  c #3D3332",
"A  c #301C27",
"S  c #46270B",
"D  c #432B15",
"F  c #432D1B",
"G  c #482A15",
"H  c #45321D",
"J  c #4B331C",
"K  c #4A3317",
"L  c #56381B",
"P  c #552C0F",
"I  c #663A17",
"U  c #422D23",
"Y  c #443324",
"T  c #4B3523",
"R  c #4D3A25",
"E  c #43352A",
"W  c #45392C",
"Q  c #4C3B2C",
"!  c #493729",
"~  c #533B24",
"^  c #5A3E23",
"/  c #523D2B",
"(  c #563926",
")  c #453B32",
"_  c #4B3D32",
"`  c #433832",
"'  c #533D33",
"]  c #542931",
"[  c #69372E",
"{  c #491C16",
"}  c #6C461B",
"|  c #5C4225",
" . c #54412D",
".. c #5B442C",
"X. c #5A452A",
"o. c #4D4134",
"O. c #4D4339",
"+. c #544333",
"@. c #5A4533",
"#. c #5D4935",
"$. c #53453A",
"%. c #5C4B3B",
"&. c #57483A",
"*. c #534532",
"=. c #634425",
"-. c #62462B",
";. c #644A2C",
":. c #6B4C2C",
">. c #6A4825",
",. c #744C28",
"<. c #74522D",
"1. c #7B542B",
"2. c #634C34",
"3. c #6A4E33",
"4. c #624D3A",
"5. c #654935",
"6. c #6C5234",
"7. c #65513C",
"8. c #6B543B",
"9. c #695439",
"0. c #735434",
"q. c #7B5A34",
"w. c #72563B",
"e. c #745A3C",
"r. c #7B5C3B",
"t. c #795734",
"y. c #704F30",
"u. c #7D613C",
"i. c #5C411D",
"p. c #63364F",
"a. c #5C4E42",
"s. c #645343",
"d. c #6B5642",
"f. c #6C5945",
"g. c #745C43",
"h. c #7A5E42",
"j. c #745C48",
"k. c #704A4C",
"l. c #7C6244",
"z. c #7C644B",
"x. c #77634A",
"c. c #7C6753",
"v. c #6E604D",
"b. c #7C496B",
"n. c #85582A",
"m. c #835C34",
"M. c #855C38",
"N. c #925432",
"B. c #84623C",
"V. c #8B643C",
"C. c #8A6538",
"Z. c #966939",
"A. c #986B34",
"S. c #A66A38",
"D. c #A7743B",
"F. c #B37237",
"G. c #975825",
"H. c #90504A",
"J. c #A75854",
"K. c #836443",
"L. c #8B6B44",
"P. c #846A4C",
"I. c #8B6D4B",
"U. c #866746",
"Y. c #936C43",
"T. c #956C48",
"R. c #8D714B",
"E. c #94734C",
"W. c #9B754C",
"Q. c #997548",
"!. c #846C52",
"~. c #896D52",
"^. c #8C7253",
"/. c #8B745A",
"(. c #937553",
"). c #9C7B54",
"_. c #957A5B",
"`. c #9B7D5B",
"'. c #967755",
"]. c #996854",
"[. c #A67948",
"{. c #B67B46",
"}. c #A27D55",
"|. c #AE6C4B",
" X c #8C4F75",
".X c #987D61",
"XX c #94676A",
"oX c #B0676B",
"OX c #C57B4B",
"+X c #C2736E",
"@X c #9B513B",
"#X c #9D815C",
"$X c #9F8055",
"%X c #9C8443",
"&X c #AA824B",
"*X c #B7864A",
"=X c #A3835C",
"-X c #A98557",
";X c #B68A57",
":X c #BA925A",
">X c #9C8263",
",X c #9C8570",
"<X c #A38563",
"1X c #A98A65",
"2X c #B89468",
"3X c #B89874",
"4X c #B18E67",
"5X c #BEA272",
"6X c #C78849",
"7X c #D5944D",
"8X c #C78A55",
"9X c #C99557",
"0X c #D89957",
"qX c #CF8F4D",
"wX c #DDA25A",
"eX c #D1A458",
"rX c #E2A45B",
"tX c #E7A75B",
"yX c #EAB45C",
"uX c #CB9767",
"iX c #DBA666",
"pX c #D0A771",
"aX c #E7AA65",
"sX c #ECB46A",
"dX c #F4B66B",
"fX c #EAB775",
"gX c #F6BA74",
"hX c #EDAC6B",
"jX c #E39B5F",
"kX c #FBC279",
"lX c #F2CE77",
"zX c #BB823C",
"xX c #935488",
"cX c #B86DAD",
"vX c #AA6391",
"bX c #C573B3",
"nX c #C7788D",
"mX c #CB7CC1",
"MX c #CB8AB7",
"NX c #E5AA94",
"BX c #F9CC87",
"VX c #D790CC",
"CX c #E49CD7",
"ZX c #E8A6DA",
"AX c #EDB2D7",
"SX c #F6B8E9",
"DX c #F4B1EB",
"FX c #DFA1D5",
"GX c #F8C7E9",
"HX c #FEC9F8",
"JX c #FED6F9",
"KX c #FAD2EC",
"LX c #FFE7FB",
"PX c #FEF0FD",
"IX c #F5C8DC",
"UX c #BC86A9",
/* pixels */
"                                                                                                                                                                                                                                                                                                                                                                                                                                                                                                                                                                                                                                                                                                                                                                                                                                                                                                                                                                                                                                        ",
"                                                                                                                                                                                                                                                                                                                                                                                                                                                                                                                                                                                                                                                                                                                                                                                                                                                                                                                                                                                                                                        ",
"                                                                                                                                                                                                                                                                                                                                                                                                                                                                                                                                                                                                                                                                                                                                                                                                                                                                                                                                                                                                                                        ",
"                                                                                                                                                                                                                                                                                                                                                                                                                                                                                                                                                                                                                                                                                                                                                                                                                                                                                                                                                                                                                                        ",
"                                                                                                                                                                                                                                                                                                                                                                                                                                                                                                                                                                                                                                                                                                                                                                                                                                                                                                                                                                                                                                        ",
"                                                                                                                                                                                                                                                                                                                                                                                                                                                                                                                                                                                                                                                                                                                                                                                                                                                                                                                                                                                                                                        ",
"                                                                                                                                                                                                                                                                                                                                                                                                                                                                                                                                                                                                                                                                                                                                                                                                                                                                                                                                                                                                                                        ",
"                                                                                                                                                                                                                                                                                                                                                                                                                                                                                                                                                                                                                                                                                                                                                                                                                                                                                                                                                                                                                                        ",
"                                                                                                                                                                                                                                                                                                                                                                                                                                                                                                                                                                                                                                                                                                                                                                                                                                                                                                                                                                                                                                        ",
"                                                                                                                                                                                                                                                                                                                                                                                                                                                                                                                                                                                                                                                                                                                                                                                                                                                                                                                                                                                                                                        ",
"                                                                                                                                                                                                                                                                                                                                                                                                                                                                                                                                                                                                                                                                                                                                                                                                                                                                                                                                                                                                                                        ",
"                                                                                                                                                                                                                                                                                                                                                                                                                                                                                                                                                                                                                                                                                                                                                                                                                                                                                                                                                                                                                                        ",
"                                                                                                                                                                                                                                                                                                                                                                                                                                                                                                                                                                                                                                                                                                                                                                                                                                                                                                                                                                                                                                        ",
"                                                                                                                                                                                                                                                                                                                                                                                                                                                                                                                                                                                                                                                                                                                                                                                                                                                                                                                                                                                                                                        ",
"                                                                                                                                                                                                                                                                                                                                                                                                                                                                                                                                                                                                                                                                                                                                                                                                                                                                                                                                                                                                                                        ",
"                                                                                                                                                                                                                                                                                                                                                                                                                                                                                                                                                                                                                                                                                                                                                                                                                                                                                                                                                                                                                                        ",
"                                                                                                                                                                                                                                                                                                                                                                                                                                                                                                                                                                                                                                                                                                                                                                                                                                                                                                                                                                                                                                        ",
"                                                                                                                                                                                                                                                                                                                                                                                                                                                                                                                                                                                                                                                                                                                                                                                                                                                                                                                                                                                                                                        ",
"                                                                                                                                                                                                                                                                                                                                                                                                                                                                                                                                                                                                                                                                                                                                                                                                                                                                                                                                                                                                                                        ",
"                                                                                                                                                                                                                                                                                                                                                                                                                                                                                                                                                                                                                                                                                                                                                                                                                                                                                                                                                                                                                                        ",
"                                                                                                                                                                                                                                                                                                                                                                                                                                                                                                                                                                                                                                                                                                                                                                                                                                                                                                                                                                                                                                        ",
"                                                                                                                                                                                                                                                                                                                                                                                                                                                                                                                                                                                                                                                                                                                                                                                                                                                                                                                                                                                                                                        ",
"                                                                                                                                                                                                                                                                                                                                                                                                                                                                                                                                                                                                                                                                                                                                                                                                                                                                                                                                                                                                                                        ",
"                                                                                                                                                                                                                                                                                                                                                                                                                                                                                                                                                                                                                                                                                                                                                                                                                                                                                                                                                                                                                                        ",
"                                                                                                                                                                                                                                                                                                                                                                                                                                                                                                                                                                                                                                                                                                                                                                                                                                                                                                                                                                                                                                        ",
"                                                                                                                                                                                                                                                                                                                                                                                                                                                                                                                                                                                                                                                                                                                                                                                                                                                                                                                                                                                                                                        ",
"                                                                                                                                                                                                                                                                                                                                                                                                                                                                                                                                                                                                                                                                                                                                                                                                                                                                                                                                                                                                                                        ",
"                                                                                                                                                                                                                                                                                                                                                                                                                                                                                                                                                                                                                                                                                                                                                                                                                                                                                                                                                                                                                                        ",
"                                                                                                                                                                                                                                                                                                                                                                                                                                                                                                                                                                                                                                                                                                                                                                                                                                                                                                                                                                                                                                        ",
"                                                                                                                                                                                                                                                                                                                                                                                                                                                                                                                                                                                                                                                                                                                                                                                                                                                                                                                                                                                                                                        ",
"                                                                                                                                                                                                                                                                                                                                                                                                                                                                                                                                                                                                                                                                                                                                                                                                                                                                                                                                                                                                                                        ",
"                                                                                                                                                                                                                                                                                                                                                                                                                                                                                                                                                                                                                                                                                                                                                                                                                                                                                                                                                                                                                                        ",
"                                                                                                                                                                                                                                                                                                                                                                                                                                                                                                                                                                                                                                                                                                                                                                                                                                                                                                                                                                                                                                        ",
"                                                                                                                                                                                                                                                                                                                                                                                                                                                                                                                                                                                                                                                                                                                                                                                                                                                                                                                                                                                                                                        ",
"                                                                                                                                                                                                                                                                                                                                                                                                                                                                                                                                                                                                                                                                                                                                                                                                                                                                                                                                                                                                                                        ",
"                                                                                                                                                                                                                                                                                                                                                                                                                                                                                                                                  # o o # # = # # # # # # = = = = - - = = = = = = = = = = 1                                                                                                                                                                                                                                                                                                                                                                                                                                             ",
"                                                                                                                                                                                                                                                                                                                                                                                                                                                                                                                    # o + X X . . . . . . . . . . . . . . . . . . . . . . . . . . . . . . . O O O + + o o o                                                                                                                                                                                                                                                                                                                                                                                                                             ",
"                                                                                                                                                                                                                                                                                                                                                                                                                                                                                                          = # + O O . . . . . . . . . . . . . . . . . . . . . . . . . . . . . . . . . . . . . . . X X X . X 2 N                                                                                                                                                                                                                                                                                                                                                                                                                         ",
"                                                                                                                                                                                                                                                                                                                                                                                                                                                                                                    2 = + + O . . . . . . . . . . . . . . . . . . . O + + + o o # = = = = = = o o o o o X . . . X X X O X . O # = # + + O #                                                                                                                                                                                                                                                                                                                                                                                                             ",
"                                                                                                                                                                                                                                                                                                                                                                                                                                                                                        + + o o # # + . . . . . . . . . . . . . . . . . . . . . + = 3 n v v b V _ O.O.O.O.O._ N k k l d r * & o o X X X X X X X X X X X o o = = 1 1 < = -                                                                                                                                                                                                                                                                                                                                                                                               ",
"                                                                                                                                                                                                                                                                                                                                                                                                                                                                                  = . + X . . . . . . . . . . . . . . . . . . . . . . . . + + # = 2 v C C M B +.s.s.s.s.s.s.s.Q Q W W B z l h s s 9 9 9 9 t t t t t s f k k 8 X X . X X X X r                                                                                                                                                                                                                                                                                                                                                                                           ",
"                                                                                                                                                                                                                                                                                                                                                                                                                                                                            # + + + . + . . . . . . . . . . . . + o # 2 4 4 4 5 5 3 4 y y f b N N V ` ) ) _ W @.s.f.f.f.f.f.f.f.f.f.s.s.s.s.s.s.s.s.s.s.f.f.j.c.c.c.c.c.c.c.#.U v u - ; % X O o + <                                                                                                                                                                                                                                                                                                                                                                                     ",
"                                                                                                                                                                                                                                                                                                                                                                                                                                                                    # # = # O . . . . . . . . . X + + o # # = = : 3 v b N C C C C C V Z ) ) O.O.$.&.$.$.&.a.a.s.f.v.x.x.x.x.x.x.x.c.c.c.c.c.c.x.x.z.c.!.!./././._._..X.X/./.!.x.v.s.k ; % X X . . o - & = % +                                                                                                                     KXKXKXKXKXKX                                                                                                                                                                                                                                          ",
"                                                                                                                                                                                                                                                                                                                                                                                                                                                              O O . O . . . . . . . . . . + # = 1 5 4 y y y n v v b C N N N V V V V ) ) _ O.O.$.$.$.&.%.%.s.s.s.d.g.v.x.x.x.z.z.z.z.!.!.!.!.!.P.P.P.!.~.~.^.^.'._._._._._././.^.!.z.( j i u r > : r u 2 + . + 1                                                                                                       GXGXKXJXJXLXLXLXJXJXJXKXKX                                                                                                                                                                                                                                        ",
"                                                                                                                                                                                                                                                                                                                                                                                                                                                          # + O O . . . . . O # = = # # 1 4 y v v v v v b N N C N V V V V V V V V V ) _ o.o.+.&.&.&.%.4.4.f.f.f.f.x.x.x.z.!.!.!.!.^././././.'.'.'.'.'.'._._.`..X>X>X>X>X>X>X>X>X`._.~.c.c.c.x.d.4.4.s.o.: + X o y 2 ;                                                                                             IXGXKXKXJXLXLXLXLXLXLXLXLXJXJXJX                                                                                                                                                                                                                                      ",
"                                                                                                                                                                                                                                                                                                                                                                                                                                                    1 + + O . . . . . O O # 5 y d d y y v b N N N N N N C Z Z Z V V V V V V V V V V ) o.$.$.$.&.&.&.s.s.f.f.j.j.x.x.x.!.!./././..X.X.X.X.X.X.X.X.X.X`.`..X>X>X>X<X<X<X<X1X1X1X1X<X<X>X>X.X.X.X'.^.I.z.f.g * & - > - % 8                                                                                         GXGXKXKXJXLXLXLXLXPXPXLXLXLXLXLXJXJXKX                                                                                                                                                                                                                                  ",
"                                                                                                                                                                                                                                                                                                                                                                                                                                                = = # . . . . . O O # : 1 4 v b b b N b b m N C V V V V V V V V V V V V V V V E E W o.$.$.%.&.a.a.s.s.f.f.j.x.x.c.!.!.!././..X.X.X.X.X.X.X.X>X>X.X.X.X.X.X#X>X<X<X<X<X<X1X1X1X1X<X<X<X>X>X.X`.`.).).^.z.#./  .@._ k 8 t E u                                                                                 GXGXGXGXKXJXLXLXLXPXLXPXPXPXLXLXLXLXJXJXJXKX                                                                                                                                                                                                                                ",
"                                                                                                                                                                                                                                                                                                                                                                                                                                            = + O O . . . . . + # 2 y d d v N N N N N N N N M C V V V V V E E E V V V V V V E ) W _ +.&.&.&.%.a.s.s.s.f.f.j.x.x.c.!.!.!.!./..X>X>X>X.X.X>X>X>X>X.X.X`.`..X>X>X>X<X<X<X<X1X1X1X<X<X<X>X>X>X>X>X#X#X`.`.'.P.l.h.h.j.%.Q W M - - v                                                                           GXGXGXKXKXJXJXLXLXLXPXPXPXPXPXPXLXLXLXLXJXJXJXKX                                                                                                                                                                                                                              ",
"                                                                                                                                                                                                                                                                                                                                                                                                                                      # # # + O . . . . . X O # 4 v b b b b N N N N N N N N M M V V V V V V V E V V E E E V W ) _ _ $.&.&.&.%.a.s.a.s.s.d.f.g.x.x.z.z.z.!./._..X.X.X.X.X`._._._._._._._.`.>X>X>X<X<X<X<X1X1X1X<X<X<X>X>X>X>X#X#X#X`.`.'.I.L.L.L.U.h.g.f._ - o 2 v                                                                       GXGXGXKXKXKXJXLXLXLXLXPXPXPXPXPXPXPXLXLXLXJXJXJXJX                                                                                                                                                                                                                              ",
"                                                                                                                                                                                                                                                                                                                                                                                                                                  + + + O + : # + X . . + + O 1 n b N N N b N N N N N N N m m m M C M V V V V E E E E E E E W W Q ' +.&.%.%.%.4.s.a.s.s.7.d.8.8.g.z.P.!.!./..X_.'._._._.'.~.^.I.I.I.(.'.`.#X=X<X<X<X1X1X1X1X<X<X<X<X<X>X#X`.`.`.`.`.`.`.(.(.W.W.(.L.K.z.a.b = + + =                                                                   AXGXGXGXKXKXJXLXLXLXLXPXPXPXPXPXLXLXLXLXLXLXJXJXJXJXKX                                                                                                                                                                                                                            ",
"                                                                                                                                                                                                                                                                                                                                                                                                                              + . . O # # # 2 2 # + O X o : 1 4 v b b b b b N N N N N N N m m m M M V V V V V V E E E E W W W Q +.%.%.%.4.4.4.4.4.7.7.7.8.d.d.8.g.z.!.!.!./._._.'.'.'.'.'.^.I.I.I.E.(.`.>X=X=X<X<X<X<X1X1X1X1X<X<X<X=X#X#X`._.(.I.K.K.K.L.W.}.}.).E.K.l.@.f o . . +                                                                   IXGXGXGXGXKXJXKXLXLXLXLXPXLXLXLXLXLXLXLXLXLXJXJXJXJXJXKX                                                                                                                                                                                                                          ",
"                                                                                                                                                                                                                                                                                                                                                                                                                        + O O . . . + 1 2 4 4 2 : = 1 1 1 4 d n b b b b b b N N N N N N m m m N M V V V V V V E W W ) _ _ _ o.&.%.4.s.4.4.4.4.4.9.9.7.8.8.d.d.e.g.z.P.!.!./.'._._.'.'.'._.'.(.`.`.`.`.<X<X<X<X<X<X1X1X1X1X1X1X1X<X<X=X#X#X^.e.2.9...2.w.g.~.`.`.`.(.r.w.@.b = . . % e                                                               AXGXGXGXGXKXKXKXJXJXJXLXLXLXLXLXLXLXLXLXJXJXJXJXJXJXJXJXKXGX                                                                                                                                                                                                                        ",
"                                                                                                                                                                                                                                                                                                                                                                                                                    = O . . . . . . = 4 4 y y y 4 3 4 d d n n n b b b b N N N N N N N N N m M C V V V E E E ) ) _ o.o.o._ o.&.4.s.f.j.s.d.8.9.9.9.9.7.8.8.8.8.e.e.l.z.U.P.^.'._._.'.'._.>X`.'.#X<X<X<X<X1X1X1X1X1X1X1X1X1X1X1X1X1X<X=X).).!./ 0 r r h z z / 2.2.;.:.6.g.&.v < O X o ; e                                                             AXGXGXGXGXGXKXKXKXKXKXJXJXJXJXKXJXJXJXJXJXJXKXJXJXJXJXJXJXKX                                                                                                                                                                                                                        ",
"                                                                                                                                                                                                                                                                                                                                                                                                                + 1 # O . . . O O + 2 4 4 4 y 4 4 4 y d d n v v b b b b N N N N N N N N N N M V V E E W ) ) ) ) _ O.O._ _ $.a.s.f.j.j.f.j.g.8.8.9.9.8.8.9.6.6.6.w.h.l.K.P.^.'.`.'.'.^.'.#X<X`.#X<X<X<X<X<X1X1X1X4X1X1X1X1X1X1X1X1X1X#X0.K F = . . . . . . X X % % j j.c.$.r # + + + X -                                                             GXGXGXGXGXGXGXGXKXKXKXHXHXHXGXGXGXHXHXHXGXHXKXKXKXJXJXJXJXKX                                                                                                                                                                                                                        ",
"                                                                                                                                                                                                                                                                                                                                                                                                            + . . . . O O O O + 6 1 4 4 4 4 4 4 4 4 y d d f v v b b b N m N N m m m N N N N V V V E W W ) ) _ ) W Q _ W Q +.a.s.d.j.g.g.j.x.g.8.8.8.8.6.w.w.e.h.K.P.I.^.'.`.`.`._.'.'._.<X1X<X<X1X1X1X1X1X1X4X4X4X1X4X1X`.#X`.).=X#X/./ * + . . . . . . . . . . . > M V r - # + + O O =                                                           AXSXSXSXSXSXGXGXGXGXGXGXHXHXSXSXSXSXSXSXSXSXSXGXGXKXKXJXJXJXKX                                                                                                                                                                                                                        ",
"                                                                                                                                                                                                                                                                                                                                                                                                        + O . . . . . O O + # 1 5 4 4 4 4 4 4 4 4 y y y d f v b b b b N N N N N m N N N V V V V V E E W ) ) _ _ W W W _ _ Q +.#.4.j.j.g.z.z.z.w.g.g.g.g.l.P.I.^.'._._.`.`.#X<X>X`.`..X>X1X4X1X1X1X4X4X1X4X4X4X4X4X4X4X1X_.'.I.| | ~ B > + . . . . . . . . . . . . . . X X X O O O O O <                                                         FXZXAXAXDXDXDXSXSXDXDXDXDXDXDXDXDXDXDXDXDXDXSXDXSXSXGXJXKXJXJXKX                                                                                                                                                                                                                        ",
"                                                                                                                                                                                                                                                                                                                                                                                                    + . . . . . . . . . + # 4 4 4 4 4 4 5 1 4 4 4 y y y d f v b b b b N N N C C N N C C V V V V V ) E E W W ) _ W _ o.$.+.+./ / #.j.j.g.z.!.z.g.g.l.l.l.K.I.(.).`.`.`.`.#X=X<X<X=X<X<X1X1X4X4X4X4X4X4X4X1X1X1X1X1X4X4X.Xl./.j.h 7 & X X . . . . . . . . . . . . . . . . . . . . . O O <                                                         FXFXZXZXZXZXZXZXZXZXZXZXZXZXZXDXDXDXDXDXDXDXDXDXDXDXSXHXJXJXJXJX                                                                                                                                                                                                                        ",
"                                                                                                                                                                                                                                                                                                                                                                                                # # O . . . . . . . O O # 4 4 4 4 4 4 1 5 4 4 4 y y y y d d v b b b b b m N C C C C C C V Z ` ` ) ) ) E W W V W o.a.a.&.$.+.' Q #.j.j.d.j.z.z.g.h.l.U.K.K.I.'.#X`.=X=X=X=X<X<X<X<X<X1X1X1X1X4X4X4X1X1X1X<X=X=X=X).`.>Xg.w h 2 = o + O X . . . . . . . . . . . . . . . . . . . . . . O <                                                       FXZXZXZXZXCXCXVXVXVXCXCXZXZXCXZXDXDXDXDXDXDXDXDXDXDXDXSXGXKXJXJXHX                                                                                                                                                                                                                        ",
"                                                                                                                                                                                                                                                                                                                                                                                            O + O . . . . . . . . O + 6 1 4 4 4 4 4 5 4 4 4 4 4 4 y y d d d d n n n n v v b C C C C C V V ) ) ) ) ) ) ) o.) M M _ &.a.+.$.$.+.+.%.4.4.3.g.j.g.d.g.h.z.U.K.E.).#X}.=X=X=X=X<X1X1X1X1X1X1X1X1X1X1X1X1X<X=X=X#X#X#X`.R.!.4.8 . . . . . . . . . . . . O . . . . . . . . . . . . . . . . + <                                                     MXVXVXZXZXZXCXVXVXCXVXVXCXDXDXDXDXDXDXDXDXDXDXDXDXDXDXDXDXSXGXKXGXAX                                                                                                                                                                                                                        ",
"                                                                                                                                                                                                                                                                                                                                                                                        + + . . . . . . . . . . . O # 1 4 4 4 4 4 4 1 4 4 4 4 4 4 4 5 1 1 1 1 1 1 2 5 4 y d b b N N N N V ) ) ) ) ) ) ) o.O.V M Y W W W W +.&.%.%.@.4.2.8.d.d.d.w.g.l.P.U.E.).#X`.}.=X=X=X<X<X<X<X<X1X1X1X=X=X=X=X=X=X#X)._.^./.g.Y t - + . . . . . . . O + O . . X O + + O O . . . . . . . . . . . +                                                       MXcXbXbXMXVXVXmXVXCXCXZXDXSXSXSXSXSXDXSXDXDXDXDXDXDXDXDXDXDXSXSXAXAX                                                                                                                                                                                                                        ",
"                                                                                                                                                                                                                                                                                                                                                                                      # O . . . . . . . . . . . O O # 1 4 4 4 4 4 4 4 4 4 1 1 6 6 # # + + + + + + + # # 1 5 y d y y f N N V ) ) ) ) V V E ) O.W B M B Y W _ $.&.&.@.@.#.4.8.7.8.8.d.g.P.K.I.).`.`.#X=X=X<X1X1X=X).).=X<X=X=X=X=X=X=X=X=X'.!.2.T s % . . . . . . . . + = 1 1 : # # : 5 4 4 3 = . . . . . . . . . . + X                                                     MXcXvXcXcXcXcXcXbXmXCXDXSXSXHXHXHXHXSXSXSXSXSXSXSXDXDXDXDXZXDXDXZXZXAX                                                                                                                                                                                                                        ",
"                                                                                                                                                                                                                                                                                                                                                                                    + O . . . . . . . . . . . . O O + 1 5 4 4 4 4 4 4 4 4 # O O @ @ O O O O O O O O O + # : 2 4 r r f N m N ) ) V V V m m W $.$.Y l M E _ _ +.&.$.+.' ' #.#.@.#.#.8.g.P.K.K.R.(.'.`.`.`.`.=X<X=X).#X<X1X=X=X=X=X=X=X=X=X/.7.0 * X . . . . . . X : 2 r f b f d 3 d N b b b v 3 o . . . . . . . . . = e                                                   MXMXcXcXcXcXcXcXbXbXVXCXSXHXHXHXHXHXHXHXHXHXHXHXHXHXSXDXDXDXDXDXZXZXDXSXAX                                                                                                                                                                                                                      ",
"                                                                                                                                                                                                                                                                                                                                                                                    O . . . . . . . . . . . . . O + # 1 4 4 4 4 4 4 1 # + O O O O O O O O O O O O O O + # : 1 2 3 3 v N b m V ) V V B m l W $.&.o.E E Q o.o.' _ W Q Q ! Q Q  .@.#.4.8.l.e.e.r.r.l.K.K.K.K.U.R.'.#X1X1X=X$X$X=X=X-X=X#X_.j.M * X . . . . . X y N V E W W W W V V V V V V V N b u 2 > 3 2 = . . . O r                                                     cXcXcXcXbXcXcXVXCXCXZXSXHXHXHXHXHXHXJXJXHXHXHXHXHXHXHXSXSXSXSXDXZXSXSXSXSX                                                                                                                                                                                                                      ",
"                                                                                                                                                                                                                                                                                                                                                                                    . . . . . . . . . . . . . O O + # 1 4 4 4 4 4 4 4 + O O O O O O O O O O O O O O O + + = : 2 2 3 v N b b N V V m m m m V ) o.o.o.W Y W o._ M M Y W W W W Q +.+./ @.8.6.6.0.0.6.0.0.t.w.r.U.R.`.<X=X=X).).=X-X-X-XI. .d o . . . . . . # 2 V O.O.$.$.$.$.$.o.o.o._ _ ) ) E V C N m N d = X X X + <                                                   UXvXcXcXbXbXcXcXVXDXSXHXHXHXHXJXJXJXJXJXJXJXJXJXJXJXHXHXSXSXSXDXZXZXSXHXSXSX                                                                                                                                                                                                                      ",
"                                                                                                                                                                                                                                                                                                                                                                                    O . . . . . . . . . . . . O o + # 1 # 6 # # # 1 1 O O O O O O O O O O O O O O O O O + # = 1 2 2 y v v v f b b f f b m m m M E ) V m M E V m m M E V E E ) _ E B E 2.2.6.w.w.0.w.r.l.l.l.P.^.`.=X=X).).$X&X-X-X<Xc.d + . . . . . O 2 V V ) $.&.&.&.@.@.@.$.$.o.o._ _ _ W E E V C N f - = = + . o                                                 cXcXvXcXbXbXcXcXcXVXDXHXHXJXJXJXJXJXJXJXJXJXJXJXJXJXJXHXHXHXSXDXDXDXDXDXZXZXAXDX                                                                                                                                                                                                                    ",
"                                                                                                                                                                                                                                                                                                                                                                                    + X . . . . . . . . . . . O + # + # + # O O O O O . . . . O O O O . . . O O O O O O + + = 1 1 2 4 n v f u u f f f m N C M N V ) E m m m m m k m N N N V V V N m B @.7.f.g.l.e.l.P.!.^.^.'._._.#X=X=X=X-X-X-XE.g._ = . . . . . # d m _ o.o.$.&.&.&.@.@.@.@.+.+.+.+._ _ _ Q Q ) ) W M k b y : . X                                                 vXvXvXcXbXbXcXcXcXVXSXHXJXJXJXJXJXJXJXJXJXJXJXJXJXJXHXHXHXHXHXSXDXSXSXZXMXcXVXZXAX                                                                                                                                                                                                                  ",
"                                                                                                                                                                                                                                                                                                                                                                                      o + . . . . . . . . . . O @ + + + @ @ O O O O . . . . . . . . . . . . . . . . . O + + # = 1 2 4 y n d f u f b N N M V V V ) V V V m f d d d d d d v v v b b f l Q #.8.g.g.e.g.!././.^.^.I.I.(.$X=X=X;X-X1XP.j - . . . . . . 1 b b W o.+.@.@.#.#.#.@. . ./ / +.+._ Q o.o.o.o.o.o.) ) Z N 4 X =                                               vXxXxXvXcXbXbXcXmXVXVXSXHXJXJXJXJXJXJXJXJXJXJXJXJXJXHXHXHXHXHXHXHXHXHXHXDXbXcXMXVXFX                                                                                                                                                                                                                  ",
"                                                                                                                                                                                                                                                                                                                                                                                        1 + . . . . . . . . . . . . O O . . . . . . . . . . . . . . . . . . . . . . . O O + # = 1 2 4 n v v f f b V C M N V V ) V V V V m d d r r r y 3 3 y y d d d g !  .#.4.2.2.9.g.l.z.g.h.l.K.I.).=X-X=X(.z.f.u + . . . . . . + 1 3 B E W +.@.+.#.4.#. .~ R R +.+.+.+._ o.o.+.+.o._ ) ) N 3 # - e                                             xX XxXvXcXbXmXVXZXDXDXHXHXJXJXJXJXJXJXJXJXJXJXJXJXHXHXHXHXHXHXHXHXHXHXHXSXVXcXcXcXVXZX                                                                                                                                                                                                                ",
"                                                                                                                                                                                                                                                                                                                                                                                          # . . . . . . . . . . . . . . . . . . . . . . . . . . . . . . . . . . . . . O O O + = 1 1 5 y v v v N C V V M C V ` V N m m V f r 3 2 2 2 2 2 2 2 3 y d b N W +.@.#.2.2.2.2.2.8.e.l.K.K.(.).=X-X).;.t > = + . . . . . . O O # r r t M W E Q #.#./ R ~ / @.@.+.+.+.+.+.+.+.$.$.O.O.Z b 3 - -                                           vX X XxXvXcXbXmXVXSXHXSXSXHXJXJXJXJXJXJXJXJXJXJXHXHXHXGXHXHXHXHXHXHXHXHXHXSXVXVXVXcXVXFX                                                                                                                                                                                                                ",
"                                                                                                                                                                                                                                                                                                                                                                                            . . . . . . . . . . . . . . . . . . . . . . . . . . . . . . . . . . . . . . . O + # 1 2 5 y v v N N C V C M N V V C m g f b 3 > : = : > 2 2 1 2 5 y f N V Q @.%.%.4.2.2.2.2.2.g.P.I.I.'.`.).E.`.2.& . . . . . . . . . X X $ : o X 8 t i F  .@./ ..4.8.8.4.+.+.+.+.+.+.+.&.&.$.O._ ` b 2 -                                            X XxXxXvXcXbXcXVXDXHXSXSXHXJXJXJXJXJXJXJXJXJXJXHXHXSXSXSXHXHXHXHXHXHXHXHXDXCXCXFXmXcXVX                                                                                                                                                                                                                ",
"                                                                                                                                                                                                                                                                                                                                                                                              . . . . . . . . . . . . . . . . . . . . . . . . . . . . . . . . . . . . . . O + # 1 1 3 y f N N N N C N M N N N C N m b d > : : : : : : 1 1 1 5 r f C Z Q +.%.4.4.2.2.2.9.e.P.~.(.'._.^.^ j T i + . . . X 7 q q * X . . . X X o : > 9 z /  ...2.j.j.d.2.@.@.+.+.+.+.@.@.@.+.$.$.W M 8 7                                          X X XxXxXvXcXcXcXbXDXHXSXSXHXJXJXHXJXJXJXJXJXJXHXHXHXSXSXHXHXHXHXHXHXHXHXHXDXCXCXCXcXxXvXUX                                                                                                                                                                                                              ",
"                                                                                                                                                                                                                                                                                                                                                                                                + . . . . . . . . . . . . . . . . . . . . . . . . . . . . . . . . . . . . . O # 1 1 3 y v m N N M N N C M M m M M N v y 2 : : : : : 1 1 1 1 3 3 d C W o.%.4.9.9.7.4.2.8.l.P.P.I.(./.@.* X X . . . . X a :.t.y.L a q 8 = + X + : 3 3 g Q +.@.5.d.g.4.#.@.@.+.+.+.@.+.+.@.@.+.%.$._ f 8 v                                        Xb. XxXxXvXcXcXcXcXZXSXDXDXHXJXJXHXHXJXJXJXJXJXHXHXHXHXHXJXJXJXHXHXHXHXHXHXDXCXCXFXcXxXxXcX                                                                                                                                                                                                              ",
"                                                                                                                                                                                                                                                                                                                                                                                                  O X . . . . . . . . . . . . . . . . . . . . . . . . . . . . . . . . . . . . # 1 1 4 n b N C M M N M M M M m C V N y 2 1 1 : : : : 1 1 1 1 2 3 f C ) +.7.8.8.8.9.9.9.g.l.U.U.l.6.+.3 X + + O . X & * D <.n.m.1.,.<.r.#.q X & r 3 : 9 l E  .#.7.9.....#.+.+.+. .+.+.+.&.&.&.%.%.&.E l V                                        Xb. X XxXvXcXcXcXcXZXSXDXZXHXJXHXHXHXHXJXJXJXJXHXHXHXHXJXJXJXJXJXJXHXHXHXSXDXZXCXCXcXxXxXMX                                                                                                                                                                                                              ",
"                                                                                                                                                                                                                                                                                                                                                                                                    $ O . . . . . . . . . . . . . . . . . . . . . . . . . . . . . . . . . . . + 1 4 4 v N N M N N N M M N N M M V f 3 1 1 1 1 : : 1 1 1 1 1 3 r g B Q @.d.g.e.8.9.8.e.l.z.z.x.d.h o . O O . O X 7 j J i.1.C.C.C.C.C.Y.t.w q J ..m & & 2 v m W &.+.R  .*.+. . . ./ ' @.%.%.%.%.%.%.$.) ` N                                   b.b.b. X XvXvXcXcXcXcXZXSXDXFXSXHXHXHXHXHXHXHXHXJXHXSXGXHXJXJXJXJXJXJXHXHXHXSXDXZXCXCXcXxXxXcXMX                                                                                                                                                                                                            ",
"                                                                                                                                                                                                                                                                                                                                                                                                      # . . . . . . . . . . . . . . . . . . . . . . . . . . . . . . . . . . . $ 6 5 d b N C C C M N N N N N N N N d > : 6 : : : : 1 1 1 1 5 3 d l E Q @.8.g.g.8.9.8.g.l.g.w.c.s.* . . . . . % 0 :.B.B.C.Z.Z.D.D.Z.Z.C.n.} ,.m.r.F % % - 3 : 3 g l z R +.+. . .R / +.&.%.%.&.%.%.a.&.) ` f                                   p.b. X XxXvXcXbXcXcXcXCXSXDXZXZXAXHXHXHXHXHXHXHXHXHXSXHXJXJXJXJXJXJXJXHXHXHXHXDXZXCXFXcXxXxXxXxX                                                                                                                                                                                                            ",
"                                                                                                                                                                                                                                                                                                                                                                                                        O . . . . . . . . . . . . . . . . . . . . . . . . . . . . . . . . . . X # 3 f N N C V C C N N N N N N b v r : = 6 = : 1 1 1 1 1 2 3 d f B W Q  .8.j.g.8.8.9.g.z.e.@.' m X . . . . + q J m.Z.Z.Z.D.S.S.A.A.A.A.Z.C.C.Z.C.=.D T l > o + o & t B  .#.#. .R Q Q +.+.' ' +.&.$.O.E C u                                 p.p.b. X XvXvXbXbXbXcXcXCXSXDXZXFXZXSXGXHXHXHXHXHXGXGXHXHXHXJXJXJXJXJXHXHXHXHXHXDXZXCXFXcXxXxXxX XxX                                                                                                                                                                                                          ",
"                                                                                                                                                                                                                                                                                                                                                                                                          O O . . . . . . . . . . . . . . . . . . . . . . . . . . . . . . . . O = r m N C C C N N N N N N N N v y 2 1 < < 6 1 1 1 1 2 5 3 r f N V ! Q / 4.g.g.8.9.9.e.w.4.z : O . . . . . % w I n.A.S.D.D.D.A.A.A.A.A.A.A.A.A.N.n.m.K.2.w ; & # = = k Q @.#. .! T T Q Q T T Q +.$.W m f e                                 p.] b. XxXvXcXbXbXbXcXcXCXDXDXZXZXZXAXSXSXGXHXHXHXSXGXHXHXHXHXHXHXHXHXHXHXHXHXSXDXZXCXVXvXxXxXxX XxX                                                                                                                                                                                                          ",
"                                                                                                                                                                                                                                                                                                                                                                                                            O O . . . . . . . . . . . . . . . . . . . . . . . . . . . . . . X o 3 f N C C C C N N N C C N N v y 3 1 1 < 1 1 1 2 1 2 2 1 3 d m B E ! ! R 2.d.9.3.6.6.8...h = . . . . . X ; a I n.G.D.{.{.{.D.D.S.S.S.A.A.A.G.G.G.S.D.[.C.I J k 1 + + > k ! +. .! T T Q Q T ! Q ' o.V r - - e                               p.] k. XvXvXbXbXbXbXcXcXCXDXDXZXDXSXSXAXAXSXGXHXHXSXHXJXJXKXHXGXGXGXGXSXSXSXDXDXZXZXCXVXvXxXxX Xb. X                                                                                                                                                                                                          ",
"                                                                                                                                                                                                                                                                                                                                                                                                              O . . . . . . . . . . . . . . . . . . . . . . . . . . . . . . + = f N N C C C N N N N N N N b y 3 2 2 1 1 2 2 2 4 4 4 5 : r g C W Q Q Q  .2.4.2.2.2.9.9.h X . . . . . & x L 1.[.;X8X0X0X0X9X9X8X8X8X8X8X6X6X*X*X6X8X9X9X*XD.U.' - . O = 8 m ! E Y R / / / / Q _ _ _ C y = + -                               p.] k. XvXvXbXbXbXbXcXcXCXDXZXZXSXSXSXSXGXGXIXGXGXGXJXJXJXJXHXHXHXSXSXSXSXDXZXZXZXCXVXVXvX X X Xb. X                                                                                                                                                                                                          ",
"                                                                                                                                                                                                                                                                                                                                                                                                                  O . . . . . . . . . . . . . . . . . . . . . . . . . . . + = d N N N C N N N N N N N N b y r 1 2 2 2 2 2 2 5 4 4 4 4 4 f C W o.$.$.+.@.2.2.2.3.9.%./ 9 . . . . . 7 J >.n.A.*X8X0X0XwXiXiXwXeX0X0XwXiXiXiX0XqX0X0X0X7X6XF.V.( * + O # = > t z E R / / / +.W E E V b 4 = + -                             b.p.] H.oXnXvXvXbXbXbXcXcXCXDXZXZXSXGXGXGXGXGXGXIXKXJXJXJXJXHXHXHXHXGXSXSXSXZXZXCXCXCXVXVXvX X X Xb.xX                                                                                                                                                                                                          ",
"                                                                                                                                                                                                                                                                                                                                                                                                                    + X . . . . . . . . . . . . . . . . . . . . . . . . . # 3 b N N N N N N N N N N b v y r 2 2 2 2 3 3 2 2 5 4 y y v b C Z _ o.$.@.+. .#.2.3.9.d.s.z % . . . > x L } n.A.{.6X8X0XaXaXiXaXiXwXwXwXwXaXaXaXwX0X0XwXaXaX0XqX:XL.G > # + + + - h E R R R / @.Q m f b n 1 # + -                             b.p.[ H.nXnXoXvXbXbXbXcXcXCXDXZXZXDXGXGXGXGXGXGXGXKXLXLXJXJXKXHXHXGXGXSXSXSXSXZXVXVXCXCXVXxX XxX Xb. X                                                                                                                                                                                                          ",
"                                                                                                                                                                                                                                                                                                                                                                                                                      O . . . . . . . . . . . . . . . . . . . . . . . . . o r N N N m N N N N N N N b d y 3 3 3 5 5 5 5 2 2 5 y y v N C V ) _ _ +.+.+.@.-.2.3.3.7.&.f + . . X J U.Z.A.S.{.*X8X9XiXaXaXaXaXaXaXaXaXaXaXaXaXaXaXaXaXsXhXgXgXfXpXK.J 8 o O O = t Y Q R R Q Q W k r 3 2 1 + + -                             k.p.[ H.+XnXoXvXbXbXbXcXcXCXDXZXZXDXGXGXGXGXGXGXGXKXLXLXJXKXKXHXGXGXSXSXSXSXSXZXVXVXVXVXVXxXb. Xb.b. X                                                                                                                                                                                                          ",
"                                                                                                                                                                                                                                                                                                                                                                                                                      O . . . . . . . . . . . . . . . . . . . . . . . O + # 3 v N N m m N b N b b v n y y 3 3 5 5 5 4 5 5 5 5 y v b N C V W ! Q Q +.@.@.2.2.3.-.z r = + o = ; ^ Q.D.{.{.*X6X9X0XaXaXaXaXaXaXaXaXaXaXaXaXaXaXaXaXsXsXsXdXgXgXiXY.=.F : + = > t z ! Q Q Y z m r 3 1 1 : # + -                           k.p.p.[ H.oX+XoXoXnXbXbXbXcXVXDXZXZXSXSXGXIXGXGXGXGXKXLXLXJXKXKXGXGXSXSXSXSXSXSXZXVXVXVXVXVXxXb.b.b.p.b.                                                                                                                                                                                                          ",
"                                                                                                                                                                                                                                                                                                                                                                                                                      O . . . . . . . . . . . . . . . . . . . . . O + # 1 y v b m m m b b b b b f d y y 5 3 3 5 5 5 5 5 5 5 4 y v b N N B V W Q /  .@.2.2.4.4.@.0 X . X 0 | >.V.[.D.{.{.{.8X9XiXaXaXaXaXaXaXaXaXaXaXaXaXaXaXaXaXsXsXsXdXgXdXwXA.y...l 3 y r t h Y E W M k f 3 2 : : 1 = o -                           p.p.[ [ H.J.J.J.+XNXMXbXbXcXVXDXDXZXSXAXAXGXGXGXGXGXKXJXLXLXKXKXGXGXSXSXSXDXDXDXCXVXVXVXVXmXxXb.b.b.p.b.vX                                                                                                                                                                                                        ",
"                                                                                                                                                                                                                                                                                                                                                                                                                      O . . . . . . . . . . . . . . . . . . . . O O 6 1 5 v N N N m m m b b b f d y y y 3 3 3 5 5 5 5 4 4 4 4 n b b m b l M Y Q / ..#.2.2.4.a.W r o . X D K.E.[.[.[.[.[.{.;X8X9XiXiXaXaXaXtXtXtXaXaXaXaXaXaXhXhXsXhXhXdXdXdXwXC.<.2.Y b v f t t h M M C N d 2 1 : = : = o                             ' [ [ k.H.J.J.J.+XNXNXNXnXvXbXDXDXDXSXAXSXGXGXGXGXKXKXKXLXLXKXKXHXGXSXSXDXSXSXDXZXVXVXVXVXbXxXb.b.p.p.b.vXvX                                                                                                                                                                                                      ",
"                                                                                                                                                                                                                                                                                                                                                                                                                      O . . . . . . . . . . . . . . . . . . . O # 1 4 n n b C N m m m m b b f d y y y 3 3 3 3 5 5 5 5 4 4 y 4 y d d d f g l z T / @.2.2.2./ M - o O . . q -.1.m.V.C.m.n.n.n.C.A.A.D.9XiXwXwXtXaXaXaXaXaXaXhXhXhXhXhXsXdXdXdXiXA.,...B k v u > - 9 k M N b y 2 = = = = = =                             ] ] [ H.H.J.J.J.oXpXNXNXUXvXvXMXVXVXAXSXGXGXGXGXGXKXKXJXLXJXJXKXKXHXSXDXZXDXDXDXDXVXVXVXVXcXxXb.b.b.b.b. Xb.                                                                                                                                                                                                      ",
"                                                                                                                                                                                                                                                                                                                                                                                                                      O . . . . . . . . . . . . . . . . . . X : 4 b C C C C N m g g b b b f d d y y 4 3 3 3 3 3 5 5 5 4 y y 4 4 y r t f h z E R  .#.4.9.e.~ 8 . . . . . . * w L r.t.<.,.,.,.,.} ,.n.A.A.D.F.9XiXaXaXaXaXaXaXaXaXhXhXsXdXdXdXiXn.L T k > > = X X > k V N y y 2 = = = = = &                             U ] [ H.H.J.oXJ.oX+X+X8XuXUXnXvXxXcXZXSXGXGXKXKXKXGXKXJXJXJXKXAXZXZXZXZXZXZXDXDXZXCXVXMXMXcX X X X X Xb.p.p.                                                                                                                                                                                                      ",
"                                                                                                                                                                                                                                                                                                                                                                                                                      O . . . . . . . . . . . . . . . . o : r b N C C C C C N m b f g f b f d y y y 4 3 3 3 3 3 2 5 5 4 y n 4 3 y y u h z T /  ...2.9.6.f. .= . . . . . . X % w -.3.-.^ X.( J K L L L S S } A.*X9X0X0XeXwXwXrXaXhXhXsXdXdXhXuX,.K z g : X . . X = d V b y 3 1 # # = = - -                             i ] [ H.H.J.oXoXoX+X|.OX8XuXnXvX XvXVXFXAXIXIXIXGXKXKXKXKXKXGXMXvXMXCXZXZXCXZXCXVXVXVXcXvXxX X XXXXXXXb.p.]                                                                                                                                                                                                       ",
"                                                                                                                                                                                                                                                                                                                                                                                                                      O . . . . . . . . . . . . . . . X : d b N C V V C C C N m b f d f b f d y 4 4 5 5 5 5 5 5 2 1 1 4 d n y 4 y y f z ! /  ...2.2.#.J k > O . . . . O . . . X x J F q 8 , - 7 q 0 a a w 6.L.C.S.{.6X6XqX7XqXwXhXhXdXdXdXsXuX3.F k r = X . X o = d N b y 2 : + O # - 8                             i t { ] k.J.J.oXoXoX+X|.{.OX8X+XoX XxXvXvXnXMXAXAXGXKXKXGXGXKXGXMXcXVXZXZXZXCXCXVXbXMXMXxXb.b.p.b.XXXXXXk.Z Z p.                                                                                                                                                                                                    ",
"                                                                                                                                                                                                                                                                                                                                                                                                                      O . . . . . . . . . . . . . . . + 3 f b b N N N N m m b b f f f f f f d y 4 5 5 5 5 5 5 2 2 1 1 5 4 n y y y f M Q  .@.2.9.2.#.W 8 X . . . . . o o O . . . > t t X X X . . X X o & 7 F K P I n.A.D.*X6X6X0XhXhXdXdXdXfX2X-.i > o X . . O = > y b f y 3 : + X . +                               u 8 i ] H.J.J.oXoXoX+X|.OXOXOXoXXX X X X XoXUXAXKXKXKXKXGXGXGXGXAXZXZXZXZXZXCXCXMXbXMXMXxXp.p.p.b.XXXXXXp.A ` p.                                                                                                                                                                                                    ",
"                                                                                                                                                                                                                                                                                                                                                                                                                      O . . . . . . . . . . . . . . . o 3 b b b b b b f g g m N m m m b b f y y 4 4 5 5 5 5 2 2 1 1 1 1 4 y y r s l !  .#.2.6.e.2./ r + . . . . # r t 8 + . . O + > > . . . . . . . . . . X X % 7 a I n.N.*X*X0XhXsXdXdXsXpX(.h ; X . . . . X = > r f b d y 1 O . . +                               e e i { H.J.J.J.oXoXJ.|.OXjX8XH.H.H. XH.H.+XNXAXKXKXGXAXAXGXGXSXAXAXAXZXZXCXCXMXvXvXMXMX Xp.p.p.k.H.H.H.p.A Z p.                                                                                                                                                                                                    ",
"                                                                                                                                                                                                                                                                                                                                                                                                                      O . . . . . . . . . . . . . . X o 4 N N b v f f f f f m m m m b f f y y 3 4 4 5 5 5 5 2 2 1 1 1 1 2 3 r s B E  .#.2.6.6.6.8.Q # . . . . . u Q T F 8 X . . . O . . . . . . . . . . . . . . . X 7 w P [.*X0XsXsXdXgX9Xn.K & . . . . . . . + = 2 d b d y 2 O . . +                               e - p { H.J.J.J.oXoXJ.J.OXjX8X|.H.H.H.H.J.uXuXUXNXIXAXFXAXAXSXSXSXAXZXFXVXVXMXvXp.p.XXoXk.] [ k.H.H.H.b.p.A A p.                                                                                                                                                                                                    ",
"                                                                                                                                                                                                                                                                                                                                                                                                                      O . . . . . . . . . . . . . . X o 2 N N b m m m m f f m m b b f d y y 4 4 5 2 5 2 2 2 2 2 1 1 1 1 2 r f M  .@.#.8.8.8.2.( Q r . . . . . X h / ( ..z = O . . . . X O . . . . . . . . . . . . . % 7 w D.9XwXsXdXdXgXuX>.x # . . . . . . . . o > y d y y 2 X . . +                               - & p { [ H.J.J.J.J.J.J.|.OXqX8XpXoXH.J.+XuX|.oXnXNXAXAXAXAXAXZXFXVXVXVXVXMXvXb.] ] H.XXH.H.k.H.].oXXXb.b.` A p.                                                                                                                                                                                                    ",
"                                                                                                                                                                                                                                                                                                                                                                                                                      O . . . . . . . . . . . . . . . O = N N N N N N m g f b b b b f y y y 4 4 5 2 2 2 1 2 1 1 1 1 4 d b N W E #.4.9.r.r.e.2.h > X . . . . . X 0 ~ ..-.( v 1 + X . O X X O . . . . . . . . . . X X w G P *XaXaXdXdXdXgX2X .b + . . . . . . . . + = 2 2 : : = X . . +                               - + 7 { [ H.J.J.J.J.J.J.|.{.OXjXhX{.N.H.|.+X].H.oXUXAXAXFXMXMXbXcXcXMXFXVXMXvXp.] k.oX+X].].].].oX+XH.p.p.Z A ]                                                                                                                                                                                                     ",
"                                                                                                                                                                                                                                                                                                                                                                                                                      + . . . . . . . . . . . . . . . . # C V N N N N m m f f b f b f y y 3 2 2 2 1 2 2 2 1 1 2 y v C V ) ) W Q @.2.8.r.r.g.f.k . . . . . . * q a ^ -.>.>.^ K K ~ 8 O O O O . . . . . . . . . . O 8 >.[.*XrXsXsXdXdXdXfX=Xh # . . . . . . . . . X O o # + o # . . . +                               % X - t { [ J.oXJ.J.J.J.J.|.{.OX8X{.N.N.N.T.N.N.H.oX+X+XoXvXvXcXbXbXVXCXVXVXUXxX] H.4X}.].].].].}..X[ A A A A Z                                                                                                                                                                                                     ",
"                                                                                                                                                                                                                                                                                                                                                                                                                      + . . . . . . . . . . . . . . . . : V Z N f N N b b m b b b b y r 3 2 2 1 1 1 2 2 2 2 2 5 d N V E _ ! ! Q @.2.6.w.w.d.s.u . . . . . % F ~ K >.,.1.C.Q.S.;X2X-.& . . . . . . . . . . . . X * p n.7XtXyXyXhXsXdXdXfX).7 . . . . . . . . . . . . O # + X + . . . +                               % + & - p ] J.oXJ.H.H.H.J.J.|.S.{.0X0X0X8XuX8X|.|.].H.N.H.oXnXMXVXVXFXCXCXVXFXUXk.k.].].M.N.H.M.H.~.' A A A A                                                                                                                                                                                                       ",
"                                                                                                                                                                                                                                                                                                                                                                                                                      O . . . . . . . . . . . . . . O o : C V N b C N b m N N b b f r 3 2 1 2 1 2 1 1 1 5 4 4 r d m V W _ Q Q / @.9.w.w.8.@.E = . . . . X - ^ :.>.n.C.A.D.0X0XrXiX[.^ 8 . . & z i i 8 X . . . q >.N.6XtXtXyXhXhXsXsXsXfX).7 . . . . . . . . . . . . X o O O O . . . %                               % + + X ; { H.H.N.N.H.H.H.J.J.N.S.0XhXdXdXgXhXiXuX;XS.N.J.J.oXMXMXcXbXMXMXMXMXvXp.[ y.N.,.y.H.H.M.H.k.A A A A                                                                                                                                                                                                       ",
"                                                                                                                                                                                                                                                                                                                                                                                                                      . . . . . . . . . . . . . O $ # : > b C N V V N b b N N v v y 3 3 3 2 2 1 2 2 2 5 4 y y y g M W ! ! ! Q @.2.w.g.g.8.! = . . . . % - q L ,.,.n.S.S.F.0XaXtXaXiX:X3.; % F L.M.t.( ; . . % J uXiXaXyXyXyXhXhXsXhXsXfX).7 . . . . . . . . . . . . . . X X O . . . +                               X X X X X p { { [ [ N.H.H.J.J.N.N.{.7XtXyXdX0XOXF.S.S.|.|.J.H.H.H.p.b.oXvXvX Xb.] [ [ H.H.y.H.N.N.H.k.A A A ]                                                                                                                                                                                                       ",
"                                                                                                                                                                                                                                                                                                                                                                                                                    . . . . . . . . . . O O $ + + # = : 3 b V V V Z N v v v v y y 5 3 3 3 2 2 2 2 2 5 4 y y f f h M ! Q T ~  .@.8.g.e.8.f.M + . . . X t D w L ,.,.n.D.zX6XiXaXaXaXaXiX}.P S ,.[.S.|.t.q X # ; ,.iXaXaXyXyXyXhXhXsXdXdXfX`.8 . . . . . . . . . . . . . . . X . . . . %                               X X X X . + ; p [ [ [ H.H.J.H.N.,.N.F.7XtXyX7XzXF.F.F.OXOX|.N.[ [ [ [ H.J.J.k.] [ [ N.H.N.N.N.N.N.H.5.A A ' ]                                                                                                                                                                                                       ",
"                                                                                                                                                                                                                                                                                                                                                                                                                    . . . . . . . . . . O @ # # 6 1 1 : d C O.Z C C b n y y 4 4 2 2 5 2 2 2 2 2 5 4 4 d v b m M M ! +...( -.6.6.w.e.8.#.Q u X . . X 8 R =.L } C.G.A.*XqX7XrXaXaXaXaXaXiX*X*XuX9XqX*XW.D > 3 w n.hXaXyXyXyXyXdXhXdXdXhXfX'.8 . . . . . . . . . . . . . . . . . . . . %                                 = + O O + & e ] [ [ N.H.H.H.N.[ [ n.F.tXdXdXtX7XrXjXhXhXhXuX|.J.N.H.J.J.J.H.[ ,.N.H.N.N.,.[ [ H.H.k.U Z k.                                                                                                                                                                                                        ",
"                                                                                                                                                                                                                                                                                                                                                                                                                    O . . . . . . . . . O + # # # = = : r V O.Z b d y 4 5 5 2 2 2 2 2 2 2 2 2 3 4 d n v N V E Q Q +.@.2.-.6.r.e.w.w.8.T * + . . . & q ~ :.} n.D.D.F.6X0XrXaXaXaXaXaXaXaXaXaXwX0X7X9X-XD > 9 a n.aXaXaXyXhXhXhXhXdXdXdXaXP.- . . . . . . . . . . . . . . . . . . . . %                                 r + + O O X - U { { [ N.H.H.N.[ [ I G.rXdXdXhXdXdXgXgXdXgXNXNXhXuX8X8XOX+XuXoX|.J.J.H.H.N.N.[ k.k.[ U ] k.                                                                                                                                                                                                        ",
"                                                                                                                                                                                                                                                                                                                                                                                                                  = O . . . . . . . . . O + + # # # = = = r d d 3 2 2 2 2 2 2 2 3 5 5 5 4 4 4 d n v v b C E Q +.@.2.2.6.y.t.K.l.w.8.f.M X . . . & t w S ,.} n.F.F.F.qX0XaXaXaXsXhXaXaXaXaXrX0X0X7X9X{.L w S } [.hXhXhXhXhXhXhXhXsXdXdXaXU.* . . . . . . . . . . . . . . . . . . . X &                                 u & + . . X - u p p ] N.H.H.N.M.t.I I |.qX7X7X7XtXdXhXhXhXjXjXjXjXjXjXjXjXjX8X|.|.J.N.N.H.H.[ k.k.] U U p.                                                                                                                                                                                                        ",
"                                                                                                                                                                                                                                                                                                                                                                                                                  = O . . . . . . . . . O + + # # # = = = = : : : : : 1 1 2 3 5 4 y y y y d d n v b b N M Q Q ..2.6.6.t.q.q.K.l.8.#.s.y . . . . s @.~ I n.n.G.F.6XF.6XrXaXaXaXsXsXsXsXsXhXhXaXrXrXaXiX:X[.;XuXaXhXsXhXhXhXsXsXsXsXdXdXfXU.* . . . . . . . . . . . . . . . . . . . X -                                 t - + + . X - - - 7 p G [ [ [ M.M.I { I G.{.zXzX7XtXtXjXjXOXOXqXjXhXhXhXaXjXOXS.@XN.N.N.H.H.[ k.k.] U ]                                                                                                                                                                                                           ",
"                                                                                                                                                                                                                                                                                                                                                                                                                  O O O X X . . . . . . @ + + + # # # = = = : : 1 2 2 2 2 5 r y d d n n n d v v b m N B Y Q R  .2.6.0.u.r.r.K.U.f.! k + . . . . k 4.;.<.Y.Z.S.qX0XqX7XaXaXaXaXaXsXhXhXsXsXhXhXhXdXdXdXdXsXhXhXdXdXdXsXsXsXsXsXsXsXdXdXfXU.* . . . . . . . . . . . . . . . . . . X + =                                 e * + X . X - - & % X 7 { { { P [ P { I N.F.F.F.7XtXaXhXjXOXOX0XaXhXhXaXaXjX8X|.J.N.N.N.H.H.k.k.k.] ] ]                                                                                                                                                                                                           ",
"                                                                                                                                                                                                                                                                                                                                                                                                                . X . . O O . . . . . O O + + + + # # = = : : 1 2 2 2 3 y d y y f g f f f g b b N C V V ! Q R X.6.w.t.r.r.r.M.K.j.l = . . . . . t / ^ >.V.Z.F.0X0X0X0XaXaXaXaXsXsXsXgXgXgXgXgXgXdXdXdXdXhXhXdXdXdXdXdXsXsXsXsXsXsXdXdXfXT.q X X . . . . . . . . . . . . . . . . . + =                                   - + . . . & = % + X 7 w i i w { I [ N.@XS.F.OX0XtXhXhXjXqX7X0X0XqXqX7X7XqXOX|.J.H.N.N.H.H.k.[ [ ] p.                                                                                                                                                                                                            ",
"                                                                                                                                                                                                                                                                                                                                                                                                                . . . . . . . . . . . O + + + + # # # 6 : : 1 5 3 3 3 y d f d d g g f f g g b m N V V E Q R  .2.6.r.r.r.r.r.r.h.s.u X . . . X X 7 a S P n.N.A.9X0X0XwXrXaXaXaXsXsXgXgXgXgXgXgXgXgXdXdXdXdXgXdXdXdXdXdXdXdXsXsXsXdXdXdXhXL.p X . . . . . . . . . . . . . . . . . . =                                     * + . . . + & + + X 7 w j i w P N.|.|.|.|.F.{.7XjXjXjX0X0XqXOXF.F.F.F.F.|.@XN.N.N.J.H.H.[ [ ] ] ]                                                                                                                                                                                                               ",
"                                                                                                                                                                                                                                                                                                                                                                                                              . . . . . . O O O O O O @ + + + + # # # 6 1 1 2 3 4 y y d d f g d f g m m m b b m V W ) ! Q  ...6.w.r.r.r.r.r.r.6.' > . . . : t s F J P I M.Z.S.0X0X0XwXwXrXaXaXaXhXgXgXgXgXgXgXgXgXgXgXgXgXgXgXgXgXgXgXdXdXdXdXdXdXdXdXhX[.G q X . . . . . . . . . . . . . . . . . = r                                   - # . . . X + + + % 7 D G i { [ S.{.F.F.S.S.S.OXqX6XOX{.OX{.S.S.{.{.{.F.D.N.N.N.J.J.J.H.[ ] ] ] ]                                                                                                                                                                                                               ",
"                                                                                                                                                                                                                                                                                                                                                                                                              . . . . . O O O + + + + + # + # # # # 1 1 1 5 4 4 y y d d f v f f b m N m m b g f m V ! Q  ...2.6.w.w.t.r.r.r.r.@.t + . . . t ! T ( ^ L ,.Z.S.F.0X0X0XwXwXrXaXaXaXhXgXgXgXgXgXgXgXgXgXgXgXgXgXgXgXgXgXgXkXkXkXkXkXgXgXgXgXiX-Xg.t . . . . . . . . . . . . . . . O O + o                                     2 . . . . X + % - 0 ~ =.J S n.S.F.S.G.G.G.G.F.{.S.@XG.G.S.G.G.S.S.S.F.{.|.Z.T.|.|.H.k.] ] ] ' p.                                                                                                                                                                                                              ",
"                                                                                                                                                                                                                                                                                                                                                                                                            . . . . . . O O + + + + + + # # # # 6 6 1 1 2 5 4 y d d d d f b N N N N N m l g g l C V W Q  .2.6.6.w.0.0.r.r.r.e.@.& . . . X i / J L L L } Z.D.F.0XwXwXwXwXwXaXaXaXaXhXgXgXgXgXgXgXgXgXgXgXgXgXgXgXgXgXgXkXBXkXkXkXkXkXkXgXiX2X(.k . . . . . . . . . . . . . . . O + + X                                     r X . . . . + - 8 0 ( 5.( { I S.zXF.F.F.F.F.OXqXOXS.S.S.S.S.S.S.S.G.F.{.|.Y.|.|.T.[ ] U U ' k.                                                                                                                                                                                                                ",
"                                                                                                                                                                                                                                                                                                                                                                                                            . . . . . . O O + + + + + # # : # 6 1 1 1 2 3 4 4 y y y d y d b N N N N m m l l l V W _ _ +.@.2.2.6.6.0.w.w.r.9.T k + . . . + i ( J L L L } Z.D.F.0XwX0XwXwXwXrXaXaXaXhXhXsXgXgXgXgXgXgXgXkXgXgXgXgXgXgXgXkXkXkXkXkXkXkXkXgXaX8XK.0 . . . . . . . . . . . . . . . O + O o e                                     . . . . . + 8 9 0 ( -.J w P Z.{.zXOX6X6X7X7XjXjXqX8XqX6X{.F.*XF.G.S.{.|.T.].H.,.L G U U [ k.                                                                                                                                                                                                                ",
"                                                                                                                                                                                                                                                                                                                                                                                                          + . . . . . O O $ + + + + # = : 1 1 1 1 2 2 4 y y y y y y y r r f m N B m l l M B B W Q _ o.@.#.@.5.3.6.0.w.w.e.+.: X . . . . X i J K ~ ~ L I Z.D.F.0XwX0XwXwXwXwXrXaXaXaXhXsXgXgXgXgXgXgXkXkXkXkXkXkXgXgXgXgXkXkXkXkXkXkXkXgXaX9XK.> . . . . . . . . . . . . . . O @ + O + 2                                     + X . . X & t h w ~ y.>.G L >.n.G.F.qX7X7XjXjXjX0X7X0XqX6X{.6X6XF.S.D.Z.H.H.[ ] ] ] ] ] 5.                                                                                                                                                                                                                  ",
"                                                                                                                                                                                                                                                                                                                                                                                                          O . . . . O O $ + + + # # : 1 2 5 4 4 4 y d d d d d d d d d d d g m m M m l z E W Q Q Q o.Q  .#.#.-.3.6.w.e.w.g.&.# . . . . . X w K G L L P I S.*X6X0XwXwXwXwXwXwXwXaXaXhXsXsXsXsXgXgXgXgXkXkXkXkXkXkXkXkXkXkXkXkXkXkXkXkXkXgXrXuXP.> . . . . . . . . . . . . . . O + # O O :                                       > + . X & k ! F J r.U.3.U w p P F.7X7XqX7X7X7XqX6X6XOXF.G.F.0XF.S.S.M.y.] { ] ] ] p.                                                                                                                                                                                                                      ",
"                                                                                                                                                                                                                                                                                                                                                                                                        . . . . . . O O O + + # : : 2 5 4 y d d n n v v v v f d d g d g f m m m M M M E _ Q Q Q Q Q Q  .2.5.6.w.t.r.h.-.Q N + . . . . X 7 G =.I >.1.n.G.*X9X0X0XwXwXwXwXwXwXwXwXaXaXhXsXsXsXgXdXdXgXgXgXgXgXgXkXkXkXkXkXkXkXkXkXkXkXgXgX9XY.4.- . . . . . . . . . . . . . . @ 6 + O O o :                                       o . . % t z x D =.w.( i 8 p S S.0X7XqXqXzXF.F.F.F.S.S.N.{.9XD.Z.Z.M.( { i i { ] [                                                                                                                                                                                                                       ",
"                                                                                                                                                                                                                                                                                                                                                                                                        . . . . . . O O O + # : 2 3 y d n v v v v v f f f f f f g b l m N V m m M B ! Q _ Q Q Q Q Q +.2.9.8.w.u.B.K.P.R - + . . . . . - F I 1.n.N.S.{.6X7XqXqX0X0XwXwXwXwXwXwXwXrXaXaXsXhXsXsXdXdXdXgXgXgXgXgXgXkXkXkXkXkXgXgXgXgXdXhXiXV.G e X . . . . . . . . . . . . . . @ 6 6 + O o =                                       + X X X - 0 j i D G D 0 > 8 w Z.qXqXqXqXF.F.{.{.{.|.Z.n.T.}.m.,.,.-.G i i { ]                                                                                                                                                                                                                           ",
"                                                                                                                                                                                                                                                                                                                                                                                                      . . . . . . . O O + + : 2 3 y f v b b b b v v f d d d f b N N N V B B B B B W _ _ _ Q W Q Q +.7.e.e.u.B.L.L.L.~.U X . . . . . . - G P ,.n.G.F.6XqX7X7XqXqXqXwXrXwXwXrXwXwXwXwXaXhXsXhXsXsXdXdXgXgXgXgXgXgXgXgXgXgXgXgXgXgXdXtX9X&XF X . . . . . . . . . . . . . . . . # 1 1 # O + =                                       % X X X * 0 F F F D i t u i { Z.qX6X{.{.F.{.6X6X8X{.N.P G G w p w w 7 u i U                                                                                                                                                                                                                             ",
"                                                                                                                                                                                                                                                                                                                                                                                                      . . . . . . . O O # # : 5 r y d f b b b b v f d d d f b b m m N m m m B M E W W W W W Q ! Q 4.j.g.l.U.I.T.Q.T./.z . . . . . . . % i S I n.G.F.6XqX7X7X7XqXqX7XrXrXrXrXwXwXwXwXrXaXhXhXsXsXsXgXgXgXgXgXgXgXgXgXgXgXdXgXgXdXhX9X&X2.o . . . . . . . . . . . . . . . . . # 1 1 # O + =                                         % X + % h @.@.( T F k k T I |.9X{.S.[.D.{.8X8X8X8XZ.S 7 7 - ; % % ; t U                                                                                                                                                                                                                               ",
"                                                                                                                                                                                                                                                                                                                                                                                                    + . . . . . . O + # : 2 y y d f f f f b b v f d d d f b f f f f l l l m M M M E W W W W Q ' %.f.j.g.l.L.E.W.Q.L.!.k . . . . . . . + u w P n.G.F.6XqX7X7XqXqXqX7X0XrXrXrXrXrXrXrXrXrXaXsXhXsXsXsXgXgXgXgXgXgXgXgXgXdXgXdXaX0XuXY.| 9 . . . . . . . . . . . . . . . . . . # 5 5 # O + =                                           & X X t &.%.( U z i j ( 0.[.;X[.T.Y.Z.{.8X9X0XuX4X3.l f > - & ; % i                                                                                                                                                                                                                                 ",
"                                                                                                                                                                                                                                                                                                                                                                                                    . . . . . . . + = 2 y v b f b f f f f f f f f f d f m N N m m m l l M B E E Y Y W W W W  .#.4.f.h.r.B.E.W.W.E.K.4.> . . . . . . X : > p L M.G.F.qXqX7X7XqXqXqXqX7X0XrXrXrXrXrXrXrXrXrXaXsXsXsXsXgXgXgXgXgXdXgXdXgXgXgXhXuXC.;.j 7 X . . . . . . . . . . . . . . . . . . 6 4 4 6 + + =                                           > X X & h l i F F i w L :.M.[.W.Y.V.Z.Q.[.{.{.;X4Xe.! N e - ; 7 i                                                                                                                                                                                                                                   ",
"                                                                                                                                                                                                                                                                                                                                                                                                  + . . . . . . O # y f f b N b g f g g d d f f f b N N V V V B B B m M B ! _ _ Q Q Q Q Q +.#.4.8.g.h.r.B.W.W.).(.j.l . . . . . + = 1 y e 7 D 3.} S.8X9XqX7XqXqXqXqX7X0XrXrXrXrXrXrXrXrXrXtXaXhXsXsXsXgXgXgXgXgXgXgXgXgXhXiXpX0.q o X . . . . . . . . . . . . . . . . . . . 1 n 4 1 + + o                                             X . X % * q G [ 5.0.y.y.m.V.Y.V.M.V.m.,.L P >.M.;.U i 8 - ; 7 U                                                                                                                                                                                                                                   ",
"                                                                                                                                                                                                                                                                                                                                                                                              + O . . . . . . . O = v m N m b f f g d d g f k m m N V V V ) ) W V B z B Y ! Q o.Q +.+.+.+.#.7.f.g.g.h.B.L.}.[.W.~.$.+ . . . . . # r y y r - 8 w S n.[.*X9X7XqXqX7X7X7X0XrXrXrXrXrXrXrXrXrXrXaXhXsXsXsXgXgXgXgXgXgXgXgXgX9X&X<X..o . . . . . . . . . . . . . . . . . . . . . 1 n n 1 + X +                                             X . . X + 7 G :.L.}.].0.t.M.K.L.L.L.K.^ w 0 L h.5.x e e 8 8 i                                                                                                                                                                                                                                     ",
"                                                                                                                                                                                                                                                                                                                                                                                            O . . . . . . . . . X # d f f f d f f s g f k l m m M B V V V W W W E B z B ! Q +.+. .+.@.#.4.7.d.j.g.e.r.T.W.[.[.L.d.M . . . . . . # 3 y u r > & % ; S P n.*XqXqX0X7X7X7X0XwXrXrXrXrXrXrXrXrXrXtXaXhXdXgXgXgXgXgXgXhXhXsXiXG.} r.x X . . . . . . . . . . . . . . . . . . . . . 1 v n 1 + . +                                             + . . . X - J y.m.T.M.5.:.t.M.M.K.h.r.2.Q E ' &.! u r e i U ]                                                                                                                                                                                                                                     ",
"                                                                                                                                                                                                                                                                                                                                                                                        . . . . . . . . . . X + + + r u r 9 t g l k m m N B B B B B B E E E E E E E E ! Q R +.@.#.#.2.9.7.8.d.e.e.w.L.W.[.}.W.w.Q 8 . . . . . . o > e r r 8 * & - t w i.{.8X9X0X7X7X7X7X0X0XrXrXrXrXrXrXrXtXtXrXhXdXhXhXhXhXhXsXhXtXaXiXD.A.E.F . . . . . . . . . . . . . . . . . . . . . . 2 v v 3 + O O                                             & . . . X - U 9.y.K.y.[ [ 3.y.:.-.^ L ^ / k i u e - - 8 i ! '                                                                                                                                                                                                                                     ",
"                                                                                                                                                                                                                                                                                                                                                                                      . . . . . . . X X . . + > > = > t s k l M B B E E E W W W Y Y Y Y E ! ! ! ! Q Q  . .R  .#.2.2.9.8.8.8.8.8.0.t.L.Q.W.W.(...8 X . . . . . . + : > r r r 9 r y f q D y.n.D.8X0X7X0X0X7X0XwXrXrXrXrXrXrXrXrXtXtXaXtXtXaXaXaXaXtXrXtXaX0X9X2X2.+ . . . . . . . . . . . . . . . . . . . . . y V V v 2 # . =                                           & . . . + = 2 k F [ 5.[ [ 3.y.:.=.L K =...D q q * * 7 q 8 M                                                                                                                                                                                                                                       ",
"                                                                                                                                                                                                                                                                                                                                                                                    X . . . . . . + : > & X > t t t t l M B Y Y E ! W W Q W Q Q ! Y E ! ! ! ! Q Q Q  . .R R @.7.9.9.8.8.8.8.w.0.0.q.V.Q.W.R.!.Y X . . . . . . . + = - e r r t k m f 8 q j w } *X9X0X0X0X0X0XwXrXrXrXrXrXrXrXrXrXrXrXrXtXrXrXrXrXtXtXtXtXwXwXuX0.+ . . . . . . . . . . . . . . . . . . . . O f ) ) N y : O + +                                         & . . . . + . . % p G ( 5.w.r.t.M.r.t.K.P.e.5.' R U i 7 7 p                                                                                                                                                                                                                                       ",
"                                                                                                                                                                                                                                                                                                                                                                                  O . . . . + = 1 : d l s k M M M M B Y Y E Y Y E E ! Q Q Q R R R R R R R R R R /  .+.+.@.#.4.9.9.9.8.8.8.w.0.r.U.L.L.Y.L.2._ 3 . . . . . . . . = > : 8 t f k l m m k m M k i.-X2X9X9X0XwXwXwXwXwXrXrXrXrXrXrXrXrXrXrXrXrXtXtXtXtXtXtXtXrXwXuXw.X . . . . . . . . . . . . . . . . . . . . + k _ E t 2 : O o +                                         - X . . + # # + % 7 w L 0.r.r.M.W.[.Q.W.}.E.K.h.d.4.U q * ;                                                                                                                                                                                                                                       ",
"                                                                                                                                                                                                                                                                                                                                                                                + . . . O = y v b d g M B W W W Y Y Y Y Y Y Y Y Y Y ! ! R R R  . . . . . . . . . . .@.#.4.7.7.9.9.9.8.8.w.0.0.u.R.E.E.L.h.k # . . . . . . . . X y f f f N M M B B Y E E U k a ^ >.,.S.8X7X7X0X0XwX0XwXwXwXwXwXwXrXrXrXrXrXrXtXtXtXtXtXtXrXwXuX3.X . . . . . . . . . . . . . . . . . . . X X k @.W t r 3 # X . X                                       & X X X # - = = 0 J =.y.r.M.M.M.&X:X-X[.[.W.K.M.w.3.Y * % %                                                                                                                                                                                                                                       ",
"                                                                                                                                                                                                                                                                                                                                                                              O . . . X # 4 v N m N N V V W E M l k l k h h h s s h h h h h k l x H J  .....X.X.....@.#.4.7.8.9.6.9.8.8.w.0.<.K.I.T.(.e.%.y . . . . . . . . . + k M M M E E M U E Q / ( R z 9 9 q S C.*X6XqX0X0X0X0X0X0X0X0X0X0XwXrXrXrXrXrXtXtXrXtXtXtXtXrX9X;.. . . . . . . . . . . . . . . . . . . X + o l @.Q k d y 1 . . .                                       % X X X & > > & x 6.r.M.M.M.M.M.&X2X;X}.[.W.L.r.6.2.x % X %                                                                                                                                                                                                                                       ",
"                                                                                                                                                                                                                                                                                                                                                                          o X . . X o 1 d n b N V m B V V N d > - - - = = = & & o o & & & o + o & s z  .#.%.@.......@.#.4.4.9.6.6.6.6.6.e.K.K.L.B.B.h.j > o . . . . . . . . . X w D F D F D D D J ( ......~ s 3 9 0 =.m.C.D.*X6XqX7X7X7X7X7X7X7X0XwXrXrXrXtXtXtXaXhXhXhXtXrXuX:.. . . . . . . . . . . . . . . . . . . X & * z  .Q M f b 3 . . .                                       % X X X = > > * j 3.r.M.B.V.m.M.[.;X[.Z.V.B.0.-.X.Q t X X %                                                                                                                                                                                                                                       ",
"                                                                                                                                                                                                                                                                                                                                                                        X . . . X # 2 d n v b N b r r 2 2 = + + + O O O . . . O . . . . . . O + = r d B _ Q Q / +. .#.2.9.2.2.6.6.6.6.w.K.(.).I.B.M.3.* . . . . . . . . . . . % J -.=.=.=.=.=.>.>.-.:.:.3...H 0 9 0 q 0 w K } n.D.6X7X7X7X7X7X7X0XwXrXtXtXaXaXsXsXdXdXhXaXiX;X( . . . . . . . . . . . . . . . . . . . & k M Q +.Q M b v 5 . . X                                       % X X X - 8 > * i ;.r.M.B.C.m.C.[.D.Z.n.,.=.L K F l > X X -                                                                                                                                                                                                                                       ",
"                                                                                                                                                                                                                                                                                                                                                                      # . . . . X # 1 2 2 3 y y 1 o X . . . O . . . . . . . . . . . . . . . . . . . X o = = & > 0 Y 7.2.2.8.9.8.8.8.e.w.r.I.E.E.L.L.8.& . . . . . . . . . . . - -.0.q.m.m.m.m.M.M.M.M.m.M.0.X.D a c > : e t | V.D.8X0X0X7X7X7X7X0X0XrXrXtXaXaXaXhXhXhXhXpXW.2.q . . . . . . . . . . . . . . . . . # = t +.&.@.@. .M b v 5 . . .                                       & X ; & 7 0 t t h | 0.w.r.B.Z.Z.;X:X;XQ.m.,.J j x t & X X -                                                                                                                                                                                                                                       ",
"                                                                                                                                                                                                                                                                                                                                                                    + X . . . . . + o # # # + # + X . . . . . . . . . . . . . . . . . . . . . . . . . . . . . . o s @. ...8.e.e.e.e.g.w.w.K.E.(.E.^.f.= . . . . . . . . . . . % x L ,.n.n.n.n.m.B.V.Y.V.V.M.w.:.| T 9 2 2 - j ^ >.n.[.[.F.F.*X6X6X6XqX7X0XrXtXtXtXrXtXiX=XD & X . . . . . . . . . . . . . . . . X d l E #.+.+.@. .M N b 4 . . X                                       * % - - 8 i h M Y J ~ =.>.<.Y.{.9XpXpX-XZ.r.( j z e + X X -                                                                                                                                                                                                                                       ",
"                                                                                                                                                                                                                                                                                                                                                                    . . . . . . . . . X . . . . . . . . . . . . . . . . . . . . . . . . . . . . . . . . . . . . . = t h Y s.8.g.l.g.e.w.w.K.E.(.E.(.s.& . . . . . . . . . . . . % 7 L 1.<.1.1.n.m.m.V.V.V.M.r.r.t.0.T k r - - 7 q a L I I n.S.S.F.F.F.zX7X7X0XwXwXwX0XuX(.- . . . . . . . . . . . . . . . . . . X l W ' #. .@.@.+.M m b 4 . . X                                       & % - - 8 i M ! T D w S S I Z.;X9XiXpX-XQ.r.( a h - + X X -                                                                                                                                                                                                                                       ",
"                                                                                                                                                                                                                                                                                                                                                                  . . . . . . . . . . . . . . . . . . . . . . . . . . . . . . . . . . . . . . . . . . . . . . . . X X X 2 C B  .6.e.w.w.r.B.Y.E.E.^.&.o . . . . . . . . . . . . . X U w.0.1.1.n.m.m.M.M.M.m.M.m.m.M.0.J 0 - > > - q k F S r.W.Y.[.{.{.*X9X9X9XiXiXiXuXuXd.X . . . . . . . . . . . . . . . . . . * E ' +.@. .@.#.@.B b v 5 . . X                                       & % - - 8 i l ! T D a P I ,.[.;X8XuX2XY.m.:.T 0 8 = . . X -                                                                                                                                                                                                                                       ",
"                                                                                                                                                                                                                                                                                                                                                                  X . . . . . . . . . . . . . . . . . . . . . . . . . . . . . . . . . . . . . . . . . . . . . . . . . . + 1 & h X.g.r.h.r.B.Y.E.Y.R.7.= X . . . . . . . . . . . . . & 0 J <.n.n.n.q.q.m.m.q.m.m.q.M.t.L D a s r & & > - * h D K L L P ,.m.m.m.Y.Y.C.1.6.z . . . . . . . . . . . . . . . . . X + q !  ./ ~ / #.%.&.V b b 5 . . X                                       & + - & 8 t h F F J ^ 0.L.W.;X;X*XuX;XV.y.( R M u # . . X -                                                                                                                                                                                                                                       ",
"                                                                                                                                                                                                                                                                                                                                                                  O . . . . . . . . . . . . . . . . . . . . . . . . . . . . . . . . . . . . . . . . . . . . . . . . . . . . . : z 7.l.K.B.B.L.I.I.I.z.R z > . . . . . . . . . . . . . X 0 :.1.n.1.1.1.1.1.1.1.1.1.m.t.>.-.( Q z > X + . . . X X X % % 0 H a a J J G a q o . . . . . . . . . . . . . . . . . X * 0 T / / ~ ~ @.&.&.V v n 2 . . X                                       - + & ; 8 t i x D J 0.L.W.;X:X8X8XuX4XT.w.( _ _ V 1 . . X -                                                                                                                                                                                                                                       ",
"                                                                                                                                                                                                                                                                                                                                                                  X . . . . . . . . . . . . . . . . . . . . . . . . . . . . . . . . . . . . . . . . . . . . . . . . . . . . . . o M f.w.r.B.L.L.I.I.L.K.x.E X . . . . . . . . . . . . . * T -.y.<.0.<.y.<.1.1.1.n.m.m.q.q.0.2./ j 8 = . . . . . . O + = t u t M M N f : . . . . . . . . . . . . . . . . . . = t x R / / / / +.' E b y 5 # . . X                                       & + & > e t j F D ~ t.C.Z.;X:X;X8XuX-XU.w.~ U M N = . . X -                                                                                                                                                                                                                                       ",
"                                                                                                                                                                                                                                                                                                                                                                + . . . . . . . . . . . . . . . . . . . . . . . . . . . . . . . . . . . . . . . . . . . . . . . . . . . . . . . . - z J 0.L.E.I.I.L.V.L.P.Q & + . . . . . . . . . . . . . , q J 0.0.y.,.y.<.q.m.Z.V.M.M.m.t.:.| J F 0 & . . . . . . . . . X X + + + $ . . . . . . . . . . . . . . . . . . . r ! Q / / / / Q Q E k 3 2 1 + . X X                                       & X & v k k ! T T ..t.,.n.[.;X*X{.;XW.>.^ H h 8 - . . . X -                                                                                                                                                                                                                                       ",
"                                                                                                                                                                                                                                                                                                                                                                . . . . . . . . . . . . . . . . . . . . . . . . . . . . . . . . . . . . O O . . . . . . . . . . . . . . . . . . . . X & H X.6.K.L.V.L.I.P.2.D k X . . . . . . . . . . . . X X * K >.<.,.,.<.m.V.Q.Q.Z.Z.V.m.0.>.=.( j - + . . . . . . . . . . . . . . . . . . . . . . . . . . . . . . . . . s Q R R T T T T U k r 2 < = + X =                                         % . & N M M ' @.-.3.t.,.n.[.*X[.[.[.V.L G D z e % O . . X -                                                                                                                                                                                                                                       ",
"                                                                                                                                                                                                                                                                                                                                                                . . . . . . . . . . . . . . . . . . . . . . . . . . . . . . . . O O O O O O O . O . . . . . . . . . . . . . . . . . . X & * h 8.u.B.K.L.I.r.w.9.: . . . . . . . . . . . . . . . w >.m.m.n.1.n.C.Q.Q.Z.Z.Z.m.q.0.3.-.T x 2 . . . . . . . . . . . . . . . . . . . . . . . . . . . . . . . . . t Y T ~ ~ T T F M f 3 : # + + &                                           X . & i i j Q @.w.M.M.m.C.&X*X[.[.T.M.L D F ! i X . . . X -                                                                                                                                                                                                                                       ",
"                                                                                                                                                                                                                                                                                                                                                                . . . . . . . . . . . . . . . . . . . . . . . . . . . . O O O O O O O O O O O O O O O . . . . . . . . . . . . . . . . . X X > T | w.r.K.L.L.L.0.q % X . . . . . . . . . . . . . 0 3.L.Y.Z.C.n.n.Z.Y.Z.C.C.M.m.t.y.3.;.-.W = . . . . . . . . . . . . . . . . . . . . . . . . . . . . X X X & k D J ^ -.2.@.Y m v 3 = + + %                                           8 % X % 7 q w J ^ r.Y.Z.Z.[.;X*X[.[.Z.B.3.X.%.s.W & . . . X *                                                                                                                                                                                                                                       ",
"                                                                                                                                                                                                                                                                                                                                                                  . X . . . . . . . . . . . . . . . . . . . . . . . O O O O O @ @ @ + + + + O + O @ @ O O O . . . . . . . . . . . . . . . . . X 0 7.l.K.K.L.Y.r.L J Y 8 X . . . . . . . . . . . & x ^ 1.Z.Z.A.C.C.Z.S.Z.Z.C.m.1.1.,.<.0.4.e . . . . . . . . . . . . . . . . . . . . . . . . . X . X t Y z x ../ ~ ..8.d.4.E f r 2 = + X                                             i ; % ; 7 0 F T L L.}.[.[.[.;X*X{.[.M.t.L ..f.v.a.2 . . . X &                                                                                                                                                                                                                                       ",
"                                                                                                                                                                                                                                                                                                                                                                  X + X . . . . . . . . . . . . . . . . . . . . . . . . . . O @ @ # # # # # # + # # 1 6 + O @ @ + + O . . . . . . . . . . . . . = g x J w.K.L.M.1.<.w.~ h d O . . . . . . . . . . . X w q.Q.D.D.S.D.{.[.[.Z.M.m.1.1.1.m.f.r . . . . . . . . . . . . . . . . . . . X O O X . : l q q T @.~ ( 4.2.( @.@.&.$.l > & = + =                                               t * ; 7 p i F U K T.2XuX;X;X;X&X[.Y.m.>.S J &.a.E - . . . =                                                                                                                                                                                                                                         ",
"                                                                                                                                                                                                                                                                                                                                                                    o + . . . . . . . . . . . . . . . . . . . . . . . . . . O O + # # 6 1 1 1 1 1 1 4 1 1 # 1 1 1 2 6 O . . . . . . . . . . . . . X X 7 J ^ >.<.1.1.,.L K M o . . . . . . . . . . . . * 6.Y.[.[.{.{.{.{.[.[.Z.m.n.m.m.r.4.: . . . . . . . . . . . . . . . . . . O O o o + X 9 ! T T ..2.....4.#.Q Q ! M m e - & - =                                               9 7 8 8 p 0 i z k w :.T.[.[.[.Q.Z.Z.V.m.t.=.( +.E e + . . X f                                                                                                                                                                                                                                         ",
"                                                                                                                                                                                                                                                                                                                                                                      + . . . . . . . . . . . . . . . . . . . . . . . . . . O O O + # 6 1 1 4 4 4 4 4 4 4 4 5 5 1 1 = O . . . . . . . . . . . . . . . X 8 a ~ ;.:.<.>.I =.^ D 0 - X . . . . . . . . . X 0 T V.[.*X{.*X{.{.[.[.M.n.M.M.2.z o . . . . . . . . . . . . . . . . . O + + & : & ; D ( ....2.2.5.5.4.%.! M k > o X X % -                                               - ; ; 8 t 0 0 i k t 7 w S S G P P I ,.1.q.t.:.( U e + . . . X                                                                                                                                                                                                                                           ",
"                                                                                                                                                                                                                                                                                                                                                                      + . . . . . . . . . . . . . . . . . . . . . . . . . . . . . O @ + # # 1 1 1 5 4 4 4 4 4 4 2 1 = # + # # # # = = # O X . . . . . . X 8 z H L | >.,.n.m.<.y.^ w 7 % . . . . . . . . . % i.[.;X*X{.{.*X{.[.n.n.M.r.a X . . . . . . . . . . . . . . . . . O + # & g W T G ^ -.-.-.-.;.;.2.@.+.U u e + . . . X                                                 * % * 8 t t t i i u - % ; 7 7 p S I 1.M.t.:.;.F 0 - X . . . %                                                                                                                                                                                                                                           ",
"                                                                                                                                                                                                                                                                                                                                                                      + . . . . . . . . . . . . . . . . . . . . . . . . . . . . . . . . . . @ # 1 1 4 4 4 4 4 4 4 3 2 3 3 4 3 4 4 y n 3 = # X . . . . . . X % % 7 w =.m.m.n.n.M.t.:.>.L x * . . . . . . . X a q.}.{.{.{.{.{.[.n.n.m.0.0 X . . . . . . . . . . . . . . . . . O # = 8 E 4.2.2.;.;.-...| ....@.W h e - = + . . X %                                                 % % * 8 t t t t i t 9 U ^ ^ =.>.<.<.q.M.0.| / z e - + X X & *                                                                                                                                                                                                                                           ",
"                                                                                                                                                                                                                                                                                                                                                                      + . . . . . . . . . . . . . . . . . . . . . . . . . . . . . . . . . . . + 1 1 2 4 4 4 4 4 4 4 3 3 4 y y y y y n y 2 > o o X . . . . . . + + 8 / w.<.n.n.N.M.M.C.m.0.j & X X . . . . . & 0 -.Z.[.{.{.[.[.n.1.m.0.0 . . . . . . . . . . . . . . . . . . O = : q T 2.;.;.;.;.-...X./ / Q M r = + + . . X X                                                   % X * q 0 t t i i k j w.).&X&X[.Y.m.m.r.| H Y t - = + X > k                                                                                                                                                                                                                                             ",
"                                                                                                                                                                                                                                                                                                                                                                      + . . . . . . . . . . . . . . . . . . . . . . . . . . . . . . . . . . . O + # # = 1 1 1 1 1 2 y y 4 y y y y y d f r r r d r 2 = + . . . . . + r h D ,.C.N.C.Z.C.C.M.3./ Y E b o . . . . . 8 L m.[.[.[.[.C.n.n.3.8 . . . . . . . . . . . . . . . . . . + 1 e q T ..;.....| | ( ~ / T z t - + . . . . =                                                     X X * q 0 t 0 0 u k D 0.[.*X;X*XQ.C.M.t.D 0 t - + + X X 8                                                                                                                                                                                                                                               ",
"                                                                                                                                                                                                                                                                                                                                                                      + X . . . . . . . . . . . . . . . . . . . . . . . . . . . . . . . . . . . . . . . . . O O O = 3 y y y y r y y f N f f g m m d r > = + . . . . . . * =.Z.Z.Z.Z.C.V.V.K.h.e.f.&.t X . . . . O % D L.[.{.[.Z.n.m.3.> . . . . . . . . . . . . . . . . . . + 2 r q ! #.....( ~ ~ T R F 0 * & + . . . . X                                                       X X & 8 t t t 9 0 z H L 1.C.S.[.Q.Z.Y.r.D q 8 = + X X X *                                                                                                                                                                                                                                               ",
"                                                                                                                                                                                                                                                                                                                                                                    = + . . . . . . . . . . . . . . . . . . . . . . X X . . . . X . . . . . . . . . . . . . . . . O # 5 4 y r r y d m N m N N N m f d d r 2 # + X X X X X j ,.n.Z.Z.Z.Z.L.V.V.K.h.w...J x t + . . . = ..T.[.[.C.n.Z.K.8 . . . . . . . . . . . . . . . . . . + 3 r 0 Q #.+. ./ T T Q E k * % > 3 1 # :                                                         & X X & 0 h k t q 0 T J P P I } m.V.m.m.w.D i k 2 + X . %                                                                                                                                                                                                                                                 ",
"                                                                                                                                                                                                                                                                                                                                                                  o X . . . . . . . . . . . . . . . . . . . . O O O # = : : = # # + O . . . . . . . . . . . . . . . X # 1 3 y d d d N V B B B B M m m f d r > > : = + . o * q L M.V.M.V.Y.V.V.V.M.K.l.l.g.@.t = . . . - J L >.V.Z.Q.I.t . . . . . . . . . . . . . . . . . . + 4 r r l z z H Y Y E ' +.W l f N N n 2                                                           & X X & h M ! U i a | 6.t.n.1.,.n.1.} L L J H W N = X -                                                                                                                                                                                                                                                   ",
"                                                                                                                                                                                                                                                                                                                                                                + . . . . . . . . . . . . . . . . O O O O O O + + + # 1 5 4 4 5 2 1 1 : = = + X . . . . . . . . . . . + o + # : 2 d V V V E E E B B m k f r r y f f y y y = % h J >.M.V.V.V.V.V.C.C.B.K.K.w./ h : = + X & 7 ^ W.[.}./.k . . . . . . . . . . . . . . . . . . . = 1 = = = % & i ! ' &.&.$._ V V C 4 # =                                                         & X . & l Y Q / J K :.m.T.[.[.Z.C.1.I P L K F _ ) 2 X u                                                                                                                                                                                                                                                   ",
"                                                                                                                                                                                                                                                                                                                                                              & + . . . . . . . . . . . . . O O O + + # + + + + 1 # # : y v v v v v b b b N b f d r : & X . . . . . . . . . X X + e E _ o.o.o.Q Q W B m b f m m B V ) O.Z 4 6 = % j t.L.L.B.B.C.B.B.B.C.B.u.r.6...+.m o . X h -.6.R./.N . . . . . . . . . . . . . . . . . . . . . X X % & q Q s.s.s.a.O.E M N v = . .                                                         % X X : r h Y ..X.=.q.V.T.[.[.A.A.C.M.M.U...j M V 2 ;                                                                                                                                                                                                                                                     ",
"                                                                                                                                                                                                                                                                                                                                                              X . . . . . . O O O O O O O $ + + + # : : = = 1 1 2 4 4 y v N b N N N N C C M M V V V M f e = X X X X . . . . X . X = f M E W ! W o._ ) V N m m N B V W O.O.Z g 3 o q L ;.>.t.q.q.m.m.B.B.B.B.K.L.K.l.s.s . . X % * c Q r . . . . . . . . . . . . . . . . . . . . X o * 0 h H %.7.4.%.$.E M f r 2 o . . +                                                       X X + = & - a T J J -.<.1.n.N.Z.A.Z.Z.Q.^...0 8 e & ;                                                                                                                                                                                                                                                     ",
"                                                                                                                                                                                                                                                                                                                                                            + X . . . . . X X O X O o + o # # # # # : : : : y d d b N N C N N N N M M V V B B Y W ! W W Y z z h t 2 = + X X X . . . X & > r r t V ) ) W V C N m B B E o.o.Q V l 9 q 0 q a ~ | 6.B.B.C.B.B.K.B.L.L.K.z.F % X O O O o o O . . . . . . . . . . . . . . . . . . X & 9 x ! R  . ./ R T ! z h 0 9 > : + . . X >                                                     X . . . X % q D j D G S S P I n.n.n.n.q.w.! t - = % %                                                                                                                                                                                                                                                     ",
"                                                                                                                                                                                                                                                                                                                                                        = X . . . . . . . X X + X + + + # # # = # # : : > r f N N V V Z V V M M M M V E W W W Q / / +.@.&.&.@.R W V N u - & X . . . . . . X X + y V Z V Z ) V B B B Y o.o. .Q ! B k h k k 9 - ^ P.Y.V.V.C.B.B.V.B.u.r.^ w * + . . . . . . . . . . . . . . . . . . . . . . % r B  .#.8.8.9.2.~ a q q q 7 9 t r 2 + . . . X +                                                   X . . . . X 0 F x F D w w w P 1.n.,.^ L G h 3 # + X %                                                                                                                                                                                                                                                     ",
"                                                                                                                                                                                                                                                                                                                                                      . O . . . . . X X O X X X + + o # = = : : : : : 3 r d l N V V V ) ) ) ) W W W _ o.+.@.@.#.#.#.4.7.d.f.4. .Q W _ ` u e - . . . . . . . X X # : 2 > g V ) W B M Y  . . .*.Q Y M Y  .E r X j 6.l.B.C.C.V.V.V.q.t.h.e.2..._ f # . . . . . . . . . . . . . . . . . . X - k Q @.@.#.6.6.6.2...( J H F x h h f d o . . . . .                                                   X . . . . X t H H T X.6.<.>.,.1.<.=.L D a 8 # . X X -                                                                                                                                                                                                                                                     ",
"                                                                                                                                                                                                                                                                                                                                                      . . . . . . X O O O O O O + + o # = : 1 1 : 2 d d f f b N V V ` _ _ _ o.o.o.o.+.+.@.#.#.#.2.2.2.9.9.7.9.4.@.&.a.&.Q W M e & + . X X X . X X X X o r V ) o.W W W  . .+.#.&.+.Q +.#.+.z g H c h D u.E.T.Y.m.<.0.K.I.(.>X,Xc.u + . . . . . X = > r : . . . . . > z U R / / ~ ~ | =.-.6.0.u.z.z.l.g.#.z s g r o X . . . X                                                   X . . . . X t H J L ;.B.W.W.Q.V.,.L L L D t # . . % 8                                                                                                                                                                                                                                                     ",
"                                                                                                                                                                                                                                                                                                                                                    O . . . . . . . O O X X O + + + + = : 1 2 5 3 d d f b b m N V V ` ) _ _ _ _ o.o.+.+.@.#.2.2.2.2.2.2.9.9.9.9.7.7.f.f.d.4.%.+.W M u e - X . X X X X o 3 b C V W o.O.o.Y Y  .%.s.s.s.8.9.2.9.@.s : 9 7.l.I.Y.T.E.L.L.Y.).=X.Xj.t > o X + o & 8 Y o.&.W > . . X X Y d.j...x x J ^ ;.6.t.B.U.R.R.R.P.l.8. .z m > + . . . X X                                                   X . . . . X 0 H i.} ,.n.Z.[.[.Z.B.q.r.r.4.V = . X %                                                                                                                                                                                                                                                       ",
"                                                                                                                                                                                                                                                                                                                                                    . . . . . . . . O O O X O O + + # 1 2 5 4 y y d d b N m m M V V E W W _ _ Q Q Q  .+.#.#.2.2.2.2.2.2.2.9.9.8.g.g.z.!.z.x.j.f.s.@./ ! t X X . . . . X o # : > r M O.o.M l Q 4.f.f.j.f.g.e.w...x d 3 f k 6.Q.[.}.T.Y.T.T.V.3.H k s q h E _ l h o.&.&.o.> . X % 7 @.z.g.J q 0 j =.P.'.(.(.E.R.R.R.I.P.x.4.&.W > X . . X X X                                                   X . . . . X 9 x 6.V.C.Z.D.[.[.[.V.B.K.L.d.E # . X X                                                                                                                                                                                                                                                       ",
"                                                                                                                                                                                                                                                                                                                                                  . . . . . . . . . O O X X X O O o = 1 2 5 4 y d d d f m N N C V V E E W Q Q Q Q / /  ...2.2.2.2.2.2.6.6.6.8.8.g.z.!.^.!.P.l.z.x.8.9.@.z t 9 : o . X . O . X X o : N O.O.o.&.%.%.@.@.2.g.z.h.e.f.a.3 O X x L.[.}.W.W.W.Y.t.^ J T T J -.g.j.E k _ o.$.W : . X l @.f.z.6.D w i a =.`.1X1X.X'.~.I.I.I.I.c.8.4.o.t X . . X X :                                                   X . . . . + & 0 y.Q.Q.[.[.[.[.Q.m.t.r.0.+.m + . X %                                                                                                                                                                                                                                                       ",
"                                                                                                                                                                                                                                                                                                                                                  X . . . . . . . . O O O X X O o # 1 2 3 4 y d d d d d m m M M M B B V W W W W Q Q Q Q / @.4.2.2.2.2.6.6.9.8.8.g.z.P.I.I.P.l.l.z.z.z.z.g.f.d.4.B > o . . . . X X X > V V B E W ! E R ..8.g.g.z./.v.h & = h ^ r.W.}.}.W.Y.t.=.~ ..3.:.0.g.+.8 u ) W Q W g : r s.v.2...~ R T T K ^ !..X/./.!.P.l.l.z.c.c.f.%.Q l > o . X X                                                     X . . . . X . % D y.1.m.C.V.C.m.} I <.:.Y r X O X %                                                                                                                                                                                                                                                       ",
"                                                                                                                                                                                                                                                                                                                                                  . . . . . . . . O O O O X O O o = 2 3 4 4 d d d d d d m m M M M B B Y W Q Q Q Q ! R /  .@.2.6.6.6.8.8.8.8.e.e.g.l.U.U.P.U.l.l.P.I.I.^.I.P.l.g.#.R M y + . . . . . X = o = : s M Y Q @.4.2.5.8.g.8...4.a.Q 0 G K.}.[.[.Y.q.;.^ | t.q.r.2.8 . - r k B E ) E W s.4.F h h Q &.#.+. .#.#.#.7.8.8.8.8.d.f.s.*.o.W V V 2 X X o                                                     X + . . . . . X 0 G S P P I I L L >.r.g.@.y . . X %                                                                                                                                                                                                                                                       ",
"                                                                                                                                                                                                                                                                                                                                                  X . . . . . . . X O O O X O o # : 2 5 4 y v b v f d f m m M B B Y Q Q  .@.#.#.%.#.2.8.f.g.z.P.I.I.I.I.P.U.l.l.l.K.U.U.U.P.P.I.R.^.R.R.R.I.L.U.l.g.v.a.e . . . . . . . . X X = r t M _ ' /  .@.-.6.l.!.x._ 8 0 J :.C.Y.T.r.0.^ L q.B.r.T X . . X > l B ) W V B l 0 8 - k _ %.a.&.+.+.+.&.a.s.a.@._ +.Q x z W Z C 2 o X %                                                     X + O . . . . X i ^ ^ ^ ^ =.^ L | | ....Q 3 . . X X                                                                                                                                                                                                                                                       ",
"                                                                                                                                                                                                                                                                                                                                                  . . . . . . . . X O O O X + + # 1 2 2 3 3 f N N b f f m V V Y ! Q  . .2.7.8.e.g.g.h.l.P.^.'.`.`.`.`.#X`._.(.I.U.U.P.I.I.R.R.^.'.'.'.'.'.(.E.(.R.I.!.j.u . . . . . . . . X . X o = t M E Q  .@. .#.g.g.f.4.&.Y q a 0.I.Y.K.j.J a >.B.B...u + . + r f N V V m s > > > * > t M o.o.o.$.&.&.a.s.a.W M M M k s g r : o o o &                                                       = . . . . . X j 0.K.K.M.M.:.L | H a x h & . X X X                                                                                                                                                                                                                                                       ",
"                                                                                                                                                                                                                                                                                                                                                  O . . . . . . . . X X O O + + = 2 2 > 2 > r f k k k k z Y ! E Q  . ...;.6.8.w.e.h.l.K.K.U.E.`.`.`.#X`.`.).).(.'.'.'.'.(.'.'.'.#X#X#X).).).(.(.E.U.l.6.a * % X X . . . . . . . . X : t M Y Q ' Q T ..#.4.f.x.#.a L l.L.V.K.s.t * J q.B.l.f.d . o 3 f m N N f 8 & & - - = & - f B W _ $.$.+.) M k t t t 9 8 > & X X = :                                                         2 . . . . . X D 0.M.B.B.m.>.K R Y l l 8 X . . X %                                                                                                                                                                                                                                                       ",
"                                                                                                                                                                                                                                                                                                                                                  o . . . . . . . . X X X + # = 1 2 2 > 8 8 8 t k h h j x T T T ~ ....=.:.6.0.e.r.r.K.K.B.K.I.).`.`.).).).).).).).).).).).#X#X=X#X#X#X#X).).).).).R.U.K.6.2.#.*.! r X . . . . . . . o - t M Y Y z F T T  .8.g.e.0.r.P.K.u.8.Y X X 0 L >.q.z._ X . = f m N N k t : & - = o + + > k M m l l s r r e 8 8 > > * : & X o & t                                                         1 . . . . . % J t.q.B.B.q.-.D M m f r o . . . X                                                                                                                                                                                                                                                         ",
"                                                                                                                                                                                                                                                                                                                                                    . . . . . . . . . . . + : 2 3 3 r r t t h x Y Y Y H T ~ ( ( ( -.-.;.y.0.w.r.r.u.B.K.B.B.L.E.).).).).).).).).).).).).#X#X=X=X#X#X#X#X=X=X=X=X=X).(.'.^.^.!.!.c.&.& . . . . . . . X X 2 N M M z z U ! / #.6.6.w.h.l.9.X.H 9 . X = 8 D <.P.&.o . o y N N M M M k > = = = + # > r d r r r 8 8 8 > > > : : = - & o o & r                                                         = . X . . . % J t.q.B.q.q.;.F t 1 # + . . . . %                                                                                                                                                                                                                                                         ",
"                                                                                                                                                                                                                                                                                                                                                    O O . . . . . . . . . + : 5 3 r u f k x F Q /  .X.X...;.;.-.=.3.6.y.0.w.r.u.u.u.u.K.K.K.L.E.E.E.E.E.E.E.E.).).).).).).#X=X#X#X=X#X=X=X<X=X=X<X<X).I.K.l.l.x.v.&.8 : # . . . . . O . 2 Z V V V E B _ @.%.2.#.X.2.2.T c h s > , o o q i.l.+.o . O r N V E ) _ E r & & # = 1 r f d r d s r > > - > > : : = - & o o & -                                                         = X O . . X * L q.q.B.u.q.0.@.k + . . . . . X                                                                                                                                                                                                                                                           ",
"                                                                                                                                                                                                                                                                                                                                                      O . . . . . . X X X o 1 3 r y f k x j J ~ X.-.-.-.-.:.:.-.-.6.0.0.t.w.r.u.u.u.r.K.K.K.B.L.I.I.E.E.Y.E.E.E.E.E.E.).$X#X#X#X#X#X`.`.`.`.`.'.'.'.P.r.6.;...#.#.R B V d o . . . . . . # d d y r > > M _ ' _ Y F Q ! z 9 0 ! +.Y s s c J X.h . . . = f V ) o.W m r & = = 3 d b d r 8 8 8 * % % & & - : : = - & o o & & - *                                                     : X O . X 8 j | q.q.B.C.B.P.c.Q + . . . . . +                                                                                                                                                                                                                                                           ",
"                                                                                                                                                                                                                                                                                                                                                    + . . . . . . X + o o # 2 y r f k z F D J ( ..-.-.-.:.:.:.:.:.0.t.w.t.w.w.r.u.u.u.l.l.B.B.L.E.E.E.E.E.E.E.E.E.E.E.(.R.R.P.P.U.l.l.l.h.e.w.6.6.6.6.6.2.#.@.@...+.Q _ V r & o # # O . O O . . . . . % e f t 9 t l M l t 0 R 8.3.| 8.g.X. .z o X . . X = 3 2 - f ) V r r d k N m l z M M k f 8 > 8 8 > - - - & & & o & * *                                                     = X X . X f ~ =.q.q.B.L.R.(./.E X . . . . . X                                                                                                                                                                                                                                                           ",
"                                                                                                                                                                                                                                                                                                                                                    O . . . . . . X + + # : 3 y d f k z H J ( ..;.;.;.;.:.:.:.6.6.0.w.e.w.w.w.w.e.e.e.r.t.q.r.U.R.E.E.(.(.R.R.I.I.R.I.P.l.8.8.2.2.9.3.3.2.;.;.;.;.;.;.........X..... . .! B l f N y + . . . . . . . . . + = - - 8 9 s h k x X.w.u.B.R.E.u.l.8.J 0 o . . . O + X > O.o.z z z z T Q @.%.7.s.s.&.R Y H k 7 * - * & & & % % & * 8                                                   = X + . X h ~ >.q.B.B.R.E.'.!.z X . . . . . X                                                                                                                                                                                                                                                           ",
"                                                                                                                                                                                                                                                                                                                                                  . . . . . . . . O o # = 2 r r f k k z Y J ( 5.2.2.2.2.2.3.3.3.3.6.6.6.6.6.3.6.6.8.8.6.6.6.0.h.l.l.l.l.l.l.h.h.h.l.h.e.8.8.4.2.2.2.3.3.;.;.;.;.;.;.;.;.;.;.;.;.;.;...#.@. .Q B V y + . . . . . . . . . . X > 8 9 s h j R 2.0.L.Y.Q.&X&X).=X=X_.f.l = + O O O O X - i ..j.g.8.9.9.8.8.e.e.d.9.2... .H 7 ; q 8 & % % % % % & - 8                                                 = X + . X t K i.q.V.L.E.).$X/.M X . . . . .                                                                                                                                                                                                                                                             ",
"                                                                                                                                                                                                                                                                                                                                                + . . . . . . . X + o # = 4 y t k l l z ! T ~ @.-...X.X.X.X.X.X.X.X.......@.#.2.4.8.d.8.8.8.w.g.w.3.3.3.4.2.@.....2.;.2.8.g.e.8.e.l.U.K.K.K.u.u.u.u.u.u.u.B.K.K.K.l.l.g.~ j h q > - + . . . . . : h k k u k M M M Y T J 6.K.1.Z.[.D.D.*X:X:X4X1X/.&.N > = o o % & * w 0.'.^.!.P.g.8.2.2.2.2.#.#.@... .H F +.W 8 & % % % % & & *                                                 : X + . X 0 S L <.B.Y.=X-X<X>X_ + . . . . .                                                                                                                                                                                                                                                             ",
"                                                                                                                                                                                                                                                                                                                                              + . . . . . . X X O o # = = 3 r d k l M M ! T T / / ( / / / / / / /  . . . . . ./ / +.#.4.7.8.4.8.8.9.9.8.4.2.@.........2.6.e.l.K.R.).).).).&X&X&X&X&X&X&X&XW.).W.).E.E.U.L S D j i t 8 - X . . X T 6.9.4./ Q Q ! ! T R K ,.W.A.&X:X*X9XeXpXuX-X=X(.9.Q h x  .9.9.9.w.t.M.M.u.l.e.8.9.2.2...#.#.#.2.9.9.7.7.d.+.0 * & % % % % % * 0                                               : + O X % h K i.q.L.E.).-X<X.X_ & . . . + 2                                                                                                                                                                                                                                                             ",
"                                                                                                                                                                                                                                                                                                                                            + . . . . . . O O X O o # = = : 3 r f k k l M U ! ! ! Q Q Q / / / / / / +./ Q Q Q Q Q / +.@.#.@...2.2.4.8.8.8.6.2.6.8.8.w.l.u.B.L.V.Y.W.[.[.&X&X-X-X&X&X&X&X&X[.[.[.W.Q.W.E.m.<.0.3./ T Y N y + . % -.M.r.h.-.T ! M U Y T K } -X:XiXiXiXiXiXfXuXZ.[.<XP. .x L z.'.K.(.=X}.Y.q.r.t.:.| ....| |  .X...#.2.2.2.2.9. .a q 8 * % % % % % q                                               > + + X = H ;.0.R.=X).C.C.R.P.Y = + . . +                                                                                                                                                                                                                                                               ",
"                                                                                                                                                                                                                                                                                                                                            + . . . . O O o o + o + # = = = 1 r y d f k l M E E ! ! W Q W W Q Q Q Y Y T Q R  . . ...@.#.9.2.2.6.6.6.6.w.e.u.u.U.I.R.E.E.E.E.Y.Y.T.Q.&X&X&X&X&X;X;X;X;X;X;X&X[.[.[.[.[.[.Y.V.B.r.-.T U V b < X 7 w.Y.Y.E.0.J i t t l z j i.-XpXfXfXfXfXfXfX9X[.:X2X(.8.~ K ..| P ,.}.[.Y.V.B.r.6.| | | | | X...X.X.| ..;.;.3.;.~ T E 0 * & & & & * 7                                             : + X . - ! 6.M.'.=XE.q.1.0.e.Y = o . . +                                                                                                                                                                                                                                                               ",
"                                                                                                                                                                                                                                                                                                                                          + O . . . X O o o + + + # # = = # = 3 y y u f k M E E W W W W W W Q Q Y x x H T R @.2.2.9.8.g.U.U.U.U.U.K.l.K.K.L.I.E.E.W.).}.}.}.}.[.W.&X;X;X:X:X:X;X;X;X;X;X;X;X&X&X;X;X;X&X[.T.V.K.4.i 8 r 1 # X h B.Q.[.[.<.D 7 * & = 2 , j Q.;XiXfXfXfXfXfXsXiXpX2X}.L.6.X.Y h 7 S A.D.Z.T.T.L.K.w.w.e.e.l.l.l.e.;.;.6.0.w.r.e.0.9.2.D 7 * & & & & *                                             = + . . & R w.B.E.).R.q.1.0.w.E = o . . X                                                                                                                                                                                                                                                               ",
"                                                                                                                                                                                                                                                                                                                                        + O . . . X X o o + # # # # = = 6 = = 1 3 r y u u t m M M M B B Y Q ! ! H H J ..#.@.5.2.3.6.w.l.P.^.^.I.I.P.L.E.E.E.Y.Y.W.}.-X-X-X-X&X[.&X;X:X:X:X:X:X:X;X;X;X;X;X-X}.-X-X-X-X-X).R.e.d._ - X . + + X x B.Z.[.[.1.L 0 & O . . X , >.n.*XsXsXfXfXfXfXfXfX*X[.).^.z.&.s 7 K Z.Z.Z.Y.Y.Y.L.L.U.U.I.^.'.'.^.U.K.P.U.L.U.K.l.u.w.~ Y l - & & * 7                                           - + + . . -  .e.L.E.E.Y.B.q.u.e.Y & O . X                                                                                                                                                                                                                                                                 ",
"                                                                                                                                                                                                                                                                                                                                      + . . . . O O O o # # 1 1 1 = = = = = 1 1 3 r r t u 8 8 h h h l k j z Y ~ ..#.2.8.g.8.6.6.6.6.0.r.K.K.K.K.B.M.B.T.W.).W.W.}.&X-X;X;X-X&X&X;X:X:X;X2X2X:X;X-X}.Q.Q.W.q.L ~ ^ ....X.~ T k u > X . . . . . 9 -.,.A.*XD.Y.g.B o O . . X  .R.:XaXsXsXfXfXfXfXfX*X&X-X=X^.s.r & H r.m.V.Y.Y.Y.Y.L.L.L.L.T.(.).).).(.E.E.E.L.K.K.K.l.8.%.W - & & * 7                                           & + + . . >  .u.I.E.Y.Y.C.B.B.e.z X . . &                                                                                                                                                                                                                                                                 ",
"                                                                                                                                                                                                                                                                                                                                      X . . . . O O O + # : 1 1 1 = = = < < 3 r r u 8 8 9 7 i ! Q T T H D J ( 2.9.8.8.8.w.8.6.6.:.6.6.<.0.q.r.r.q.r.B.E.).}.=X}.-X;X-X;X;X;X&X;X;X:X2X2X2X4X1X1X=X'.I.P.!.#.0 7 - & & & & o + . . . . . . . . % i P C.*X*X&X`.2.> O O . . c z.-XeXsXsXsXfXfXfXfXiXuXuX2X`.7.2 O 3 c K >.L.Y.Y.Y.Y.Y.L.Y.W.).}.).).W.E.E.Y.I.L.U.P.P.g.s._ * ; * * 7                                           - + . . . >  .e.I.Y.Y.Y.V.B.U.g.k X . .                                                                                                                                                                                                                                                                   ",
"                                                                                                                                                                                                                                                                                                                                    o . . . . O O $ o # # : 1 1 1 1 = = : 1 3 > 8 8 7 i k a H 4.8.8.9.2.3.5.3.w.6.0.0.6.0.6.6.6.:.6.6.y.0.r.K.B.B.U.I.).).}.}.&X-X-X-X&X&X&X&X&X}.}.E.L.K.6.^ ( T U h 0 s 2 + O . . . . . . . . . . . . . . . . X w q.[.{.;X-XB.w & O . X = h i.D.eXsXfXfXfXfXfXfXfXpXuX1X7.> @ o * 7 L P.R.Q.W.W.W.W.W.}.-X}.}.W.E.E.E.Y.R.I.I.I.P.j.d.! ; % * - 7                                           - + . . . >  .w.L.L.L.Y.L.V.I.z.k X X &                                                                                                                                                                                                                                                                   ",
"                                                                                                                                                                                                                                                                                                                                  # + . . . . O O + + # = : 1 1 1 1 : = : 2 r 8 > 7 0 x T J ^ ;.3.w.0.6.6.3.3.6.6.6.6.6.6.6.6.6.6.6.y.<.q.K.L.L.Y.T.W.).}.}.}.}.}.&X-X-X-X&XW.).K.0.J q * % X X . . . . . . . . . . . . . . . . . . . . . . . . . * L Z.D.*X:XQ.>. .m = . . o q i.&XiXsXfXfXfXfXfXfXpXuX1X8.: . . . X g @.6.u.E.W.}.}.}.}.&X&X).W.L.L.L.I.E.(.^.~.P.g.s.U % X % - q                                         q ; + . . . >  .6.K.L.L.Y.Y.Y.E.g.t X + 8                                                                                                                                                                                                                                                                   ",
"                                                                                                                                                                                                                                                                                                                                  . . . . . . O O + + # = = 1 1 1 1 : - > m Y z k z T ~ ..;.-.;.:.:.6.:.3.3.3.3.3.3.6.6.6.0.t.0.0.0.<.0.r.L.L.T.E.T.W.W.W.W.Y.L.M.0.3.3.0.r.6.2.R z r # . . . . . . . . . . . . . . . . . . . . . . . . . . . . . % L L.D.*X9X*X[.'.j.m 6 @ $ = c C.9XsXfXfXfXfXfXfXpX:X4Xx.> . . . . o > q K <.C.Q.[.[.[.[.[.}.W.M.t.m.B.L.P.l.e.8.7.&.h % X X & t                                         q % X . . . >  .6.B.L.L.E.W.W.).2.- X o                                                                                                                                                                                                                                                                     ",
"                                                                                                                                                                                                                                                                                                                                . . . . . . . O O + + # = : 1 1 1 1 > - q R #. . . .@...2.3.3.-.-.:.:.:.:.:.:.3.:.:.3.6.0.0.t.t.0.0.0.r.B.K.K.L.E.I.L.I.(.(.K.e.X.w * & * - * & X X O . . . . . . . . . . . . . . . . . . . O O O O . . . . . . . X j -.1.[.9X9X*X-XU.z : O . X 0 q.*XiXfXfXfXfXfXkXfX9X4Xc.2 . . . . . . X a >.1.Q.&X;X;X-X&X-X}.L.m.q.q.r.w...J T / W t X X . %                                           q % X . . . r +.6.K.L.L.E.-X2X1X~ % X +                                                                                                                                                                                                                                                                     ",
"                                                                                                                                                                                                                                                                                                                                . . . . . . . O O + + # = : 2 2 : = r t j .... .X...-.....;.;.-.| | ;.-.;.:.:.:.:.:.6.0.0.0.t.q.q.q.q.r.K.K.K.r.r.r.y.:.3.5.T x i & X . . . . . . . . . . . . . . . . . . . . . . . . + = 2 n v N v 1 X . . . . . . % ; a ,.;X9X9X9XZ.L D e O . o 6.-XpXkXfXfXkXfXkXfXuX2Xc.2 . . . . . . X z w.V.-X2X3XuX5X2X2X4X).E.I.l.w.3.( F j h f > . . . X                                           q X X . . . r  .6.I.R.L.E.-X2X1XR X X %                                                                                                                                                                                                                                                                     ",
"                                                                                                                                                                                                                                                                                                                              + . . . . . . . . O + + = : : d b s 9 z E T ....| ^ | ....^ ^ ^ ^ ^ | ;.;.3.:.:.0.0.0.0.0.0.<.<.q.q.r.r.l.U.z.z.8.8.3.~ G j 0 % X X . . . . . . . . . . . . . . . . . . . . . O X O O # 4 y d b V C y 1 = # # + . . . . O * K &XeXiXiX9XW.'.v.2 . . Y '.2XpXfXfXfXfXfXpXQ._.&.= . . . . . . X > x ~ 6.e.u.K.R.R.R.L.B.E.^.e.9.4./ U h - & + . . X %                                           q X . . . . t  .6.(.(.I.E.-X2X1XY X X &                                                                                                                                                                                                                                                                     ",
"                                                                                                                                                                                                                                                                                                                              + . . . . . . . . O + # = : > N ) E Y Q R ~ ..X.^ ^ ^ ^ | ^ ~ ^ L ^ =.0.w.6.6.y.0.0.0.r.r.q.0.0.t.e.9.( T F x h i h h 8 - & + . . . . . . . . . . . . . . . . . . . . + 2 y d d 2 : : 1 3 y y v b v 1 = r y y 2 # . . . O + j &XpXiXsXiX9X5X.Xr . . : T >.C.:XpXiXiXpX;XL D 8 . . . . . . . . . X X * 7 7 q 0 0 w w D h.~.8...R z z e & X . . . X                                             q X . . . X k ..6.E.'.E.).=X1X_.k + X *                                                                                                                                                                                                                                                                     ",
"                                                                                                                                                                                                                                                                                                                              + . . . . . . . . O + o = : 9 V _ ! Q R R ~ | | | ^ ^ ^ | ^ ~ ^ | >.y.w.r.0.0.0.0.0.0.r.e.3... . .Q M 8 & X X X X X X . . . O . . . . . . . . . . . . . . . . . . . . 1 b V V N f r r 3 r y u f f f u r y u u y 2 + . . . X 7 q.;X;X9XeX0XuX^.2 . . + : a >.).2X9X:X2X(.j * + . . . . . . . . . X . X o o % o X % % q d.c.9.@.Y 0 r = + . . . X                                               8 X . . . X k X.6.L.E.E.E.).}.w.q + X *                                                                                                                                                                                                                                                                     ",
"                                                                                                                                                                                                                                                                                                                            # . . . . . . . . . O + + & > s B W E R R T ~ ^ | | ^ L ^ | ^ ^ -.3.0.q.r.u.r.w.w.h.e.e.g.2.h & % % & + . . . . . . . . . . . . . . . . . . . . . . . . . . . . . . . . 2 v N N N f d d d d f k k k m M N m b f f u o . . . . X w =.,.D.9XeX9XE.j * * + + e  .l.h.0.;.3.! * = 6 # X X % X + . . . . . . . X + + o + X : E #./ +.E u : o . . . X                                                 - X . . . % U ..y.M.L.L.V.).}.| & + + *                                                                                                                                                                                                                                                                     ",
"                                                                                                                                                                                                                                                                                                                            X . . . . . . . . + + X & r k z z Y T R ~ T L | | | ^ L L | -.-.3.0.r.r.r.w.3.../  .@.@.&._ : . . . . . . . . . . . . . . . . . . . . . . . . . . . . . . . . . . . . o y v v f m g g m m m m N m k m V V M k f k l r = O . O O - ~ y.Z.*X8X9X2X).I.#.8 o + 8 q & X X X X . O 6 y U ..-.' m + . . . . . . . . O O O . . X & & > 2 1 # O . . . :                                                 - X . . . & Y ;.r.I.E.I.I.=X4X9.% + o &                                                                                                                                                                                                                                                                     ",
"                                                                                                                                                                                                                                                                                                                          X . . . . . . . O = 2 3 r f l B M x F T T ~ L L | -.-.-.=.=.-.-.:.6.w.e.w.8.8./ t & & & & = = X . . . . . . . . . . + = # o O O + # + @ . . . . . . . . . . . . . . . + 1 d v v f b m m m N m N M M k m V V B k s h k M m r # @ O X j 2.u.C.A.[.9XuX5X/.h = # = = + X . . . X X & 8 ~ K.U.z.&.= . . . . X = & X + . O . . . . . . X . O . . . .                                                   * + . . X & H 6.U.=X=XE.E.1X4Xg.% + X &                                                                                                                                                                                                                                                                     ",
"                                                                                                                                                                                                                                                                                                                          X . . . . . . O + 1 y f k M M M Y F H T L ~ ^ ^ >.:.:.0.3.:.:.:.-.=.-.R z k m u # O . . . . . . . . . . . . X . + 2 y b b n 2 1 1 1 1 # @ . . . . . . . . . . . . . . # 3 d v b b m N m N N N N M M m M E W E z k 0 h  .%.o.g o . . X h J =.} C.*X;X;XP.F u e > r 3 = o X * h z z q S 0.K.l.d.8 . . . X - ! ! q 8 = + X + . . . . . . . . . . .                                                   * + + . X 7 T 6.I.=X=X).).-X1X9.% + X                                                                                                                                                                                                                                                                       ",
"                                                                                                                                                                                                                                                                                                                        = . . . . . X + # : y f b m z z Y Y T R  . .| -.-.:.0.q.r.r.6...X.D w h 8 X . . . . . . . . . . . . . . + + X + + 2 b N N N v y 2 1 # 6 # + . . . . . . . . . . . . . X = 3 d f b m m C M M M M m m M M B _ o.! B z i j 7.j.f.+., X . . . % i | C.[.[.[.q.~ U h s l M z k a J l.'.^.:.L t.0.l.f.8 . O X X 7 #.3.L X.T 0 - + . . . . . . . . . . .                                                   - & + . X q ~ 6.I.=X=X=X=X-X`.@.X . X                                                                                                                                                                                                                                                                       ",
"                                                                                                                                                                                                                                                                                                                        & . . . . . O # 1 y f m M M M Y H J T ( X.;.:.6.0.r.r.r.r.w.2.x q & X X X . . . . . . . . . . . . o 2 v C v u u r v N N N b y 4 2 = = = # + . . . . . . . . . . . . . # 3 y d d f f m V V B M M M M B E Q $.$.W B z a K e.l.g.7.! l = . . . X T L.Y.Z.Y.q.>...^ D x F T ~ L } Y.-X;X;X&X=XU.x.f.> . . . . - ~ 0.1.r.w...z - X . . . . . . . . . .                                                 t - & + X % a  .6.U.}.-X=X=X-X`.R . . X                                                                                                                                                                                                                                                                       ",
"                                                                                                                                                                                                                                                                                                                      + X . . . . X + = 3 u m M M Y T T J T ~ | -.:.0.0.e.l.l.r.w.6./ 8 X . . . . . . . . . . . . . . = r b Z a.a.a._ ` V V V M N f 3 2 1 = = = # + O . . . . . . . . . . . O 2 d f d y d f m V E B M M M M E o.&.&.@.Y z R J | 0.r.e.g.9. .t o . . . 8 ..0.q.C.<.>.0.0.L D G ~ 3.t.m.[.:X:X9X2X2X'.e.#.: . . . X * J 0.B.B.r.w.@.k X . . . . . . . . . . 1                                               e * & + X ; j ;.6.M.Y.W.).}.}.^.M . . X                                                                                                                                                                                                                                                                       ",
"                                                                                                                                                                                                                                                                                                                    . . . . . . . + = > e u l z z Y R ~ ~ | | | -.3.6.;.( #.@.T x h 8 X . . . . . . . . . . . + : 3 r d M V V ) $.O.) E V V V V N v 4 2 1 = = = # + . . . . . . . . . . . O # y f b d y d f M ` ) V B B M B E o.#.%.+.Y H 8.w.0.q.m.q.l.w.2.#.E : . . X & 8 D >.,.,.q.B.>.K L :.B.T.W.;X:X9X9X;X-XK.@.B o . . . . & J 0.q.m.r.w.%.l & . . . . . . . . . . =                                               e * = + X 7 K 6.r.B.Y.W.).).W.z.k . . X                                                                                                                                                                                                                                                                       ",
"                                                                                                                                                                                                                                                                                                                    . . . . . X . o : 2 r t h h x T / X...;.;...-.2.9.H q 8 8 * X X X . . . . . . . . . . . . > f V Z V E W E W _ _ ) E M M M C N d 4 2 1 = = = # + . . . . . . . . . . O # 1 y v b f f d f M ) ) W E B B B Y o.&.#.@.Y J e.K.C.Y.Y.Y.I.K.l.P.v.g O . . . . 8 G ^ 1.C.C.<.>.y.q.Y.[.-X;X:X:X:X[.B...z 8 + . . . . % D :.q.q.0.3./ f = . . . . . . . . . . o X                                             e - - + X 0 L 6.u.B.T.}.}.).E.2.8 . X *                                                                                                                                                                                                                                                                       ",
"                                                                                                                                                                                                                                                                                                                  + . . . . . . . + > r f M M x F / @.-...;... .T H ! k - & + + + X . . . . . . . . . . . X = f N ) _ _ _ _ ) _ _ _ _ E M M V V f y y 4 2 = # # # + . . . . . . . . . . + 1 1 y v g g f d f M ) ) W E Y B B E  .@.#.#.Y D e.V.C.Z.[.W.E.L.K.P.x.z + + . . . = q G M.Z.n.Y.}.W.W.[.Q.[.&X;X:X:XE.L x t - y = . . X & a | q.r.-.J z f 1 . . . . . . . . . . + X                                             r - - % % a ^ w.K.B.W.-X=X).I.@.& . &                                                                                                                                                                                                                                                                         ",
"                                                                                                                                                                                                                                                                                                                  X . . . . . + + = r g z E Q T R @.4.2.-.X.T B 9 X % X X X . . . . . . . . . . . . . + > r f V ) _ _ _ _ _ _ _ _ _ _ W E E E V f 4 y 4 1 # + # # + . . . . . . . . . . + 1 2 y b b l k f k M W W W Y z z B ! +.+.@. .z D t.C.C.Z.[.Q.E.B.q.w.6.R z d X . . + + 0 h.W.Z.[.-X[.[.[.Q.Z.Q.[.&X-Xw.0 9 r y v 4 + X # * w | q.t.| D z M 3 X . . . . . . . . . . X                                             r - - - ; j ^ e.K.B.W.-X-X).K. .o . &                                                                                                                                                                                                                                                                         ",
"                                                                                                                                                                                                                                                                                                                + . . . . . + : 3 f N M H Q / R / +.#.#.#./ k t = . . . . . . . . . . . . . . O O + = 2 f m V W _ _ _ _ _ Q _ _ _ _ _ W W W E V b d n 4 1 # + # + O . . . . . . . . . . # 1 2 d b m m m M M V W W ! Y z z z ! $.+. .~ j S t.C.C.Z.[.[.W.B.y.>.=.2.#.Y & . X X . o  .w.0.M.C.Z.A.Z.Z.C.C.Z.Z.B.( % o = = 1 # O + # * q ^ q.0.X.D x M r O . . . . . . . . . X X >                                           r = - - 7 G | e.K.B.W.=X=XY.e.E X . &                                                                                                                                                                                                                                                                         ",
"                                                                                                                                                                                                                                                                                                                . . . . . . : f N V ) W ! R  .R Y z z z M l - X . . . . . . . . . . . . O # 1 1 : 3 y f b m V ) o.O._ +.+.+._ _ _ _ _ W W W E V N v n 4 1 # # # + O . . . . . . . . . O # 2 4 d b N m M V E W ) W ! E z z ! o.#. .~ L K P B.Z.C.Z.[.[.W.B.y.=.| -.@.F 7 X X + X . & - - w L C.Z.Q.Q.Q.).W.K.3.T & X . X . . X O O & 7 L r.w...D x M r O . . . . . . . . . X X 2                                         8 - X + * w ~ | w.h.K.'.=X'.B.8.M X . %                                                                                                                                                                                                                                                                         ",
"                                                                                                                                                                                                                                                                                                              X . . . . . X 2 f N V V W V E o.o.l & X . . . . . . . . . . . . . X O + 6 # 1 n y r f N N C V ) _ o.O.$.a.a.a.&.@.o._ _ _ W W E V N b n y 1 # # + O . . . . . . . . . O O = 4 4 v b N N M V V E W W Q Q Q  .+.#.#.| L =.1.n.Q.Q.Z.Z.[.[.W.B.<.-.^ ^ ..~ J j i t > = o O O * L L.E.q.q.U.^./.s.j 8 - = + O X . X . . X * J h.e.;.J F U u o X # # = 2 = . . . . X & >                                     * % X X X % F ..| 6.u.K.(.(.h.../ d X . %                                                                                                                                                                                                                                                                         ",
"                                                                                                                                                                                                                                                                                                              . . . . . X = > 3 r r r 3 : : 3 3 : O . . . . . . . . . . . . . . X O : y 4 3 b b f m V W ) _ _ o.o.$.a.a.a.s.s.a.&.o._ _ ) W E V N b v n 1 + + + O . . . . . . . . . O @ 6 4 4 v b N N V V V Y W ! Q +.+.@.#.@.#.| L <.W.[.[.[.Q.[.[.[.Q.m.0.0.-.=.=.^ ..-./ T M t = . + % h  .| S a j D F t & X & > 2 : # O X . . . % H h.r.:.^ T ! k & & b Z Z ) V 2 = + . . . X                                   8 X X X X X & F ..^ 3.h.K.I.U.2.D 0 = . . &                                                                                                                                                                                                                                                                         ",
"                                                                                                                                                                                                                                                                                                            o . . . . . o 3 3 3 > : = o o O O O O . . . . . . . . . . . . . X o o o > v y y N V B V W o.O.O.o.o.O.$.a.a.a.s.s.s.a.+.o.o._ E V N b b n y 1 O O O . . . . . . . . . . O + 6 2 y f b N N M V V B Y Q o.+.@.#.+.R  .| L n.[.[.D.[.&X;X;X&XQ.B.M.M.r.0.:.=.>.>.^ T W k : X & - - q k k i q - - 8 t > r f y r : + . . . . X D w.r.6.^ ~ Q M t h W $.$.O.) N f = . . . . *                           i D ^ G i 0 7 * % * J ^ L ;.e.h.K.e.~ 7 % + . . &                                                                                                                                                                                                                                                                         ",
"                                                                                                                                                                                                                                                                                                            # . . . . . + y n d d 3 : # + + O O . . . . . . . . . . . . O # : 3 r > r m f f m B B Y W _ o.o.o.o.O.$.a.a.%.a.s.s.a.o.o._ W M k f d d 4 4 6 O O . . . . . . . . . . . O + = 2 y f m m m M B B M Y W +.@.@.&.+.F H =.} A.*X{.[.*X*X;X;X&XQ.Z.V.Y.L.K.r.,.>.=.^ / W f # . # r > * k V r & % * t B M l l d r 3 # . . . . % D r.r.6.| ^ R Y z ! +.+._ W Y z N 1 . . . . -                         * * w q.;X;X-XE.K.8.e.K.G D L ..;.3.;.j % X O . . &                                                                                                                                                                                                                                                                         ",
"                                                                                                                                                                                                                                                                                                          + O . . . O O + y b b v y 2 = + O O O . . . . . . . . . . O + # 1 y v N N M V B B Y Y Y Y Y W _ _ _ o.O.$.$.%.a.a.s.s.&.o.o._ E m f u r 4 4 4 # O . . . . . . . . . . O O + + = 3 y f m m m m M M z Y Q @.@.&.&./ j D <.n.D.*X*X*X*X;X:X;X*X[.Q.W.[.W.M.t.y.y.:.=./ W d X . = r 8 & r N = X % * s W _ B m k d r = O . . . % J r.r.0.=...R z Y @.@.+.Q M z z V 2 . . . . & u                     7 % % 7 C.fXsXfXfXfXfXNXuXS 7 w K L L J 7 X X O . . & B                                                                                                                                                                                                                                                                       ",
"                                                                                                                                                                                                                                                                                                          X . . . . O O O # 1 1 1 = + + O O O O O O . X . . . . X + # 1 4 y f N ) $.&.&.+._ Q ! ! Y Y E W W _ O.O.O.$.$.%.a.s.s.&.+.o.o.o.E m f d d y 4 # O . . . . . . . . . . O O + + 1 4 y b m m m k l M M W +.&.+.+.&.+.j S B.D.[.;X:X;X:X:X9X9X;X[.[.[.-X).} P ^ =.^ ^ R E e . O 1 r t 9 s B t 8 8 0 z ! _ W B l s r = X . . . % F 0.q.q.:.-.T s z +.@.' W W Q Q _ y . . . . X &                   i q a K } *XsXdXdXdXdXdXfXiXn.J ^ | ;.6.6.T 7 * & ; % % t z                                                                                                                                                                                                                                                                     ",
"                                                                                                                                                                                                                                                                                                        = . . . . . . X O O O O O O O O O O O + # + + + + + : 2 r r y b N N N ) $.%.a.%.%.&.&.+.o.o.Q ! E Y W _ _ W _ $.&.a.s.s.a.$.$.$.O.) N d r d y 4 # . . . . . . . . . . . O O + + 1 y d b m m m l l M W +.&.+._ E ! Y a L Z.[.&X*X*X*X;X;X:X:X;X&X[.&X;X-X>.S L L L L H s o . O : r t h Y 7.%.@./  .+.&.$.Q E l s r # . . . . % j >.q.B.0...z 8 0 ! +.Q Q Q / +.&.m X . . . . X %               r 7 w V.;X0XaXgXdXdXdXdXdXgXfXpX2X}.0.y.r.U.h.-.^ ..( F i r e t                                                                                                                                                                                                                                                                   ",
"                                                                                                                                                                                                                                                                                                        o . . . . . . . . . . . O . O O O + + # # # # # # = y f b m f N V V ) O.a.%.a.&.%.%.&.@.@.%.%.o.W B B B l l U _ &.a.s.a.a.$.$.&.O.) V f y y 4 4 # . . . . . . . . . . O O O + + 1 y v b N M M M M Y _ @.@._ _ i 0 i a P Z.{.*X*X*X*X[.*X*X;X*X&X[.&X;X-X>.S ^ =.^ -./ 9 X . o > r t j X.z.P.z.g.8.7.4.+.Q W M k d = . . . . % j >.m.C.q.2.z : ; h ! E Y E Q +.&.B X . . . . . %           l : + % S *XiXtXhXdXdXdXdXgXgXgXkXkXfX2Xm.1.C.W.T.K.M.V.Y.Y.P.a.M m S                                                                                                                                                                                                                                                                 ",
"                                                                                                                                                                                                                                                                                                      + O . . . . . . . . . . . . . O O O + # # # = # = = = 3 d f f f m B V E _ &.&.&.&.&.&.@.+.&.s.s.&.o.Q ! B z B W o.&.a.a.a.a.$.$.$.O.) V N v y 4 2 + . . . . . . . . . . O O + + # 2 d f f m M M B Y W _ +.+._ V 8 7 q w S C.[.&X*X*X*X[.[.[.[.[.&XQ.Z.C.V.,.I <.<.>.9.@.r . X = t k k F ..l.P.P.l.8.7.7. .Q Q Y m f : . . . . & D ;.m.C.q.e.Q & % t z x x M W ' @.M % . X X . . %       8 f f + . % S 6XrXtXsXsXsXdXdXdXdXgXkXkXkXiXD.Z.[.[.[.[.[.*X*X9XuX<X^ p p U                                                                                                                                                                                                                                                               ",
"                                                                                                                                                                                                                                                                                                      . . . . . . . . . . . . . . . O O + # = = = : : : 1 = 2 d f f k l M B B E _ +.&.&.&.&.+.+.&.a.a.&.+.o.o.o.o.o.&.$.$.$.$.$.$.$.O.O.O.V N b n 4 1 = O . . . . . . . . . X O O + + 6 4 v f k M M M Y Q ' ' +.Q _ C - - a S P n.D.*X*X&X[.D.Z.Z.Z.Q.).Y.} P ,.M.V.L.q.>.T M > X & r m M Y T ;.l.P.P.l.e.g.e.#. .Q Y M N 1 O . . . & H ;.m.C.q.l.%.2 + r M z F ! _ +./ D 7 & + X X . X       X X X . . % P 6XaXhXaXaXaXsXsXdXdXdXkXkXkXfXiX9XuXiXiXiXaXsXdXdXsXiXZ.,.G w                                                                                                                                                                                                                                                               ",
"                                                                                                                                                                                                                                                                                                    . . . . . . . . . . . . . . . O O + + # = 1 1 1 1 1 1 > r f b g m m M B B Y Y W o.@.@.+.Q _ $.a.a.&.$.o.o.$.$.&.&.$.O.O.O.O.O.$.$.O.) V b n 5 = o + . . . . . . . . . . O O O + # 1 y v b m B B Y ! +.&.+._ V m m r i | 1.1.A.[.&X*X[.D.Z.C.m.m.B.L.B.I P ,.L.V.V.t.~ 0 & X X > k B Y T J ;.U.R.^.P.z.l.g.4.#. .E B V 2 O . . . * H >.M.C.1.h.%.2 + u Y Y J T / 2.6.6.;.Y r = X . X -   & . . . . X q } 7XhXhXaXtXrXtXtXaXaXsXdXgXkXkXgXfXfXgXgXdXdXdXdXdXdXgXaXfX`.J j                                                                                                                                                                                                                                                             ",
"                                                                                                                                                                                                                                                                                                    X . . . . . . . . . . . . . O O O + + # = 1 1 2 1 1 1 2 y f m m m M B B Y E M k W +.+.+._ +.$.a.a.%.%.&.&.&.$.$.o.O.o.O.O.O.o.O.$.O.) N f y = X X . . . . . . . . . . . X O O + # 1 y v b N E ! _ _ +._ W E f - > 0 a B.&X[.&X&X&X[.D.A.C.C.C.M.M.C.M.1.<.B.B.1.:.;.Y 8 + . & s B Q R / X.6.I.'.'.R.P.z.l.8.8.#.! B V 4 O . . . & j i.V.C.1.w.Q - % t T ~ ^ | 6.r.B.L.R.7.l 9 : X X X X . . . . X w L A.rXtXhXaXrXwXwX0X0XrXaXsXdXgXkXkXgXgXgXgXdXgXdXdXdXdXgXgXkXpX=.a                                                                                                                                                                                                                                                             ",
"                                                                                                                                                                                                                                                                                                    . . . . . . . . . . . . . . O O + + + # # 1 2 3 y y r r d f m m m V E E E E z h Y +.+.+.+.$.&.%.a.s.s.a.a.$.$.o._ ) ) ) ) V N V ) ) V b y 5 # X . . . . . . . . . . . . O O O + # 1 y v v N E _ +._ W W B m r & 9 c K Z.;X*X*X[.[.A.n.n.1.n.V.T.W.W.T.Y.V.M.:.K a i > = = X , B +.@.2.8.e.P.`.#X#X^.K.l.l.e.f.%.! Y V 1 . . . . X q i.Z.C.<.w.! & % i / ;.3.0.r.B.V.T.R.6.x 0 > X X X . . . . . * =.m.*XrXtXrXrXwX0X0X7X7X0XrXtXaXfXkXkXgXgXgXgXgXgXdXdXdXdXkXgXkXpX:.a j                                                                                                                                                                                                                                                           ",
"                                                                                                                                                                                                                                                                                                  o . . . . . . . . . . . . . O + + + + + + # : 3 3 y b b f f f m m N ) ) W E Y k s W $.+.o.o.o.$.$.&.a.s.s.a.&.o._ ) W V V C d r N V V C f : 6 o . . . . . . . . . . . . . O O O + # 1 y v N C ) _ +.Q W M m m r * q  .1.&X9X;X*X[.A.n.n.n.,.,.C.Y.Z.V.C.m.1.<.;.F - X . X : t z +.#.9.g.h.K.'.=X=X#X(.K.l.l.g.f.%.Q E V 1 . . . . . ; I W.Z.,.-.F % % x 5.w.r.K.K.V.Z.W.E.8.H c 8 X X X . . . . . 7 1.A.qXtXrXwX7X7X7X0X0X0X7XwXwXwXaXfXkXgXgXgXgXdXdXdXdXdXdXkXkXkXfXL.^ G                                                                                                                                                                                                                                                           ",
"                                                                                                                                                                                                                                                                                                  + . . . . . . . . . . . O O + + + + + # = > 3 y d f N V N f d f m V ) _ W Y B s s Y o.o.o.o.o.o.o.Q o.&.a.&.$.o.) ) E V V m r d N C C N 3 : + O . . . . . . . . . . . . . O O O + # 1 y v N M W _ _ W E k r r 2 - j <.C.*X:X*X*X&XD.D.D.A.Z.C.V.C.1.,.,.>.=.^ ! s X . . . > W %.7.4.8.e.r.P.).=X=X#X(.U.P.l.g.f.2.R ! V 1 . . . . . ; i.[.Q.,.=.U & - ~ e.h.K.L.L.B.C.W.'.l.R ! t X O X . . . . . q C.F.7XtXrX0XqXqX7X0XaXaX0X0X0X0XiXhXgXgXgXgXgXgXdXdXdXdXkXkXkXlXfX&X6.J                                                                                                                                                                                                                                                           ",
"                                                                                                                                                                                                                                                                                                X . . . . . . . . . . . O O + + # # = 1 1 d N N B B V E V m f d t f M ) ) W B l 0 s ! o.o.o.o.o.o.o.Q Q o.o.O.o._ ) ) Z V N f y b C C N v : # + O . . . . . . . . . . . . . O O O + # 1 y v b b M E W W E r & = 8 0 | V.A.{.*X*X*X*X*X:X*X;X&XC.m.1.,.>.i.L H h > X . . . X > Q s.7.9.w.e.l.(.#X=X=X#X^.P.P.l.g.g.2.R ! V 2 . . . . . ; } [.[.,.;.+.t t 2.r.K.L.L.V.B.V.E.'.z.R ! t X O O . . . . . 7 n.*X0XrXwXqXzX*X6X9XiXaXwXwXwX0X0XiXaXgXgXgXgXdXdXdXdXdXkXkXkXkXfX2XU.G                                                                                                                                                                                                                                                           ",
"                                                                                                                                                                                                                                                                                                . . . . . . . . . . . O O + + + # = 1 2 r N ) _ _ _ W W E M k t 9 r m E ) W B l s h Q $.o.o.o.o.o.o.Q Q _ _ _ _ ) ) ) V V N d d b N N b d # + O . . . . . . . . . . . . . . O O O + # 1 y d f d k M W W V > + 8 Y L 0.Q.A.D.*X*X*X*X*X9X9X:X&X1.} ,.>.=.L J c & . . . . o > 0 H ..9.e.l.I.'.#X=X=X=X#X^.P.U.l.e.e.4./ ! V > . . . . . ; } [.W.1.6.4.m j 6.M.V.V.C.C.Q.).'.I.9.h r > X O O . . . . . ; I A.F.6X8X*XF.D.D.{.8X9X9X0XiXiX0X0XaXhXdXgXdXgXdXdXdXdXdXgXkXkXfX:XK.G                                                                                                                                                                                                                                                           ",
"                                                                                                                                                                                                                                                                                              . . . . . . . . . . . O O + + # = 1 2 4 4 r V o.o.o._ W ! B z l t 9 r m E ) W W E z l Y o.$.o.o.o.o.o._ _ _ _ W E E V V N N v y d f v d d 2 + O O . . . . . . . . . . . . . . O O + # 1 2 y y f d g z Y ! E r + s 2.0.C.Z.A.A.&X:X:X*X*X*X*X:X[.} i.=.L | ( H > X . . . . > B x H ~ 6.P._._.#X=X=X<X<X#XR.l.l.l.w.e.4. .! B > . . . . . ; } [.[.t.w.%.M a 0.L.V.Z.Y.Q.W.).R.e.Q * X X X X X . O . . . ; P } n.G.A.S.F.D.n.n.G.D.{.*X9X0X0XwXaXsXdXgXgXdXdXdXdXgXgXdXdXgXsX&X0.G                                                                                                                                                                                                                                                           ",
"                                                                                                                                                                                                                                                                                              . . . . . . . . . . . O + 6 1 1 1 2 3 y d f V o.o.o. .Q Y z x z h s l B W _ _ o.o.W B Y Q _ W E E E W W W W E V B M M m b v y y y y y 4 2 # o O O . . . . . . . . . . . . . . O O + 1 1 4 4 y f d k z B ! E r - h :.<.B.C.n.n.Z.[.[.Q.Q.D.[.*X[.q.:.^ D a a q o . . . . . : M z J ..g.^.`.`.#X=X=X<X<X`.I.l.l.e.8.8.2.R ! B > . . . . . % } [.Q.q.w.@.t w w.W.W.[.[.[.Z.B.w.X.l = . . X O X . O . . . 7 >.C.A.S.F.F.F.D.} L } N.[.S.*X9X9XiXaXhXgXgXgXgXdXdXdXdXgXgXgXgXkX;X;.i                                                                                                                                                                                                                                                           ",
"                                                                                                                                                                                                                                                                                              . . . . . . . . . X O o # 1 1 1 1 5 y f b m W o.$.+.+. .! H F z x z B Y Q o.+.@.&.o.E E _ ) M l l l m m m m M M M N N b v v y 4 4 4 2 1 # o O O O . . . . . . . . . . . . . . O O # 1 4 4 3 y d d g l M B l > > x ;.6.<.,.I P L L K K K } C.&X-XE.P.#.i ; % X . . . . X X > z F T 9.I.(.`.#X#X=X=X<X<X>X^.l.l.g.8.8.#.R ! V 2 . . . . . % } [.Q.1.w.' r i t.).[.[.&XW.B.6.T h r # X X & = : = . . . . q C.*X*X*X6XF.zX*XB.>.^ ,.M.m.Y.&X;X9XuXiXiXsXgXgXfXgXgXgXgXfXfXfXNXE.a 7                                                                                                                                                                                                                                                           ",
"                                                                                                                                                                                                                                                                                            + . . . . . . . . . O + # 6 1 1 1 1 5 f N V V W Q _ +.@.@.#.#.#.#.@. . . .+. .+.+.@.Q Y E W V g f f d g g f k m m N N N v v n y 2 1 6 # + + O O O O . . . . . . . . . . . . . . O O # 1 4 4 r r r r r d d s 9 & * h Q T G S w w w w q q q w =.q.q.6.4.W 8 X X . X . X > s t k +...2.z.^.'.`.#X#X#X#X<X>X>X^.l.l.g.8.9.#./ Q W 3 . . . . . % } [.D.1.6.W > w t.}.[.[.&XE.6. .h % o o o , z _ O.N . . . . a Z.:X*X8XqX6X6X:X).w.^ P <.,.I ,.,.n.A.D.D.D.*X*X{.{.F.F.{.[.Q.Z.u.x X ;                                                                                                                                                                                                                                                           ",
"                                                                                                                                                                                                                                                                                            . . . . . . . . O O + + # : 1 1 1 1 3 b V W W E ! W / +.#.f.x.c.c.c.c.x.v.f.f.7.#.@.Q E V V N d d f g g s t t d d f N N v y y 2 = # + + O O O O . . . . . . . . . . . . . . . O O O # : 2 4 3 y d d r 3 > > : o o & 8 7 w I ,.,.>.:.y.| K K D j 0 7 > < & X X o > : & r B k / x.x.l.P.^._.#X#X#X#X#X>X>X>X^.P.P.l.8.9.#./ _ ) 3 . . . . . % } [.A.1.3.M = 0 r.&XQ.Z.W.B.^ H 9 X X > q j  .7.f.O.= . . . 8 <.Y.A.F.qX7X7X8XB.J S P 1.,.P I } n.A.A.A.A.G.G.n.G.n.n.n.<.L S q X . X                                                                                                                                                                                                                                                           ",
"                                                                                                                                                                                                                                                                                          . . . . . . . . . X O o + # = 1 2 3 r d N V W W E Y Q +.@.2.j.c.!.!./.^.^.!.!.c.f.7.%.&.o.W V m d s t t s r 8 9 r r d m N d 3 1 = + + + + O O . . . . . . . . . . . . . . . . . . O O # 6 2 4 4 y f d r : o : = o o = - 7 S A.*X;X&X&X&XQ.q.;.T q o X . O . . # 2 k M h z +./ 8.!.I.P.P.R.).#X#X#X#X#X#X>X.X/.I.P.l.8.9.#./ _ ) 3 . . . . . & i.[.Z.,.-.l + q t.&XD.Z.E.6.0 : = + X t E ~  .+.&.W > > > X X 0 S P G.6X7X7X8X,.w S } C.D.A.[.:X9X9XuXuX9X9X;X{.[.D.A.Q.T.w.L q X . X                                                                                                                                                                                                                                                           ",
"                                                                                                                                                                                                                                                                                          . . . . . . . . . X O o o + + 1 y b b m C B E E Y Y Q @.#.%.d.g.g.z.z.z.z.z.c.x.d.7.%.%.&.$.o._ E z h t t 8 8 8 8 r r r d 2 = # # + + O O O . . . . . . . . . . . . . . . . . . O O O + # 2 4 y d f d r = X : > & : k T K I A.zX*X*X&X&XZ.C.w. .: X . . . . + 2 r h Y Y / s.f.x.!.I.P.L.R.'.`.`.#X#X#X#X>X.X/.I.P.l.8.4.#.R _ ) 3 . . . . . & I [.Y.} K 8 X 7 y.W.Q.Q.(.@.* . X X X h R  . .T H h k _ Q & . & j P G.6X7X7X9X1.S P n.[.*X9XiXaXfXfXfXBXBXBXBXfXfXiXiXiXuX;XW.( > X X                                                                                                                                                                                                                                                           ",
"                                                                                                                                                                                                                                                                                        = O . . . . . . . O O O + + + + 1 v b N m m M M B M Y Q &.%.%.@.@.#.2.9.7.8.d.f.f.s.7.s.s.s.s.f.j.f.s.%.&.W z h t 9 9 r > > = o + + + + O O O . . . . . . . . . . . . . . . . . O O O O $ + 1 5 4 d f d 3 = X r m s h  .0.q.n.A.D.A.A.n.n.1.,...E = . . . . . o d s 0 H +.#.j.c.c.!.^.R.^.'.`.`.`.#X#X#X#X>X.X/.I.I.l.8.4.#.R _ ) 3 O . . . . % L W.Z.I w % . 7 :.W.Q.Q.I.! % . . . o l Q  . .~ H h E %.#.> . % i L G.6X7X7X8XC.P I n.F.qX0XwXaXhXaXfXgXBXBXBXBXgXgXfXaXeX9X*Xy.w * %                                                                                                                                                                                                                                                           ",
"                                                                                                                                                                                                                                                                                        1 O . . . . . . X O O O O + + # 2 f b m m m l m M M B W +.+.+.Q Q / +.+.@.#.%.7.7.7.s.s.f.f.j.x.c.c.c.!.c.c.f.@.W Y M m f f > o + + + O O O . . . . . . . . . . . . . . . . . . O O O O O O # 1 5 d v d > = o d V z H | y.q.m.C.C.n.,.} } L K z s o . . . . . X k M z / 7.d.j.!.c.!./.^.^._._.`.`.#X#X#X#X#X`.^.P.I.l.8.2.@.R o.o.3 O . . . . % L Q.Z.I w % . q <.Q.Y.Z.l.M X . . . o h R  .X./ R ! Q %.@.8 X - j L 1.{.qXqX9XT.I } G.*X7XjXrXaXhXaXaXhXgXgXBXgXgXfXfXaXiX0XF.,.S 0 7                                                                                                                                                                                                                                                           ",
"                                                                                                                                                                                                                                                                                        # . . . . . . X O O O O + + # = 3 b m m m m m m M M V E _ W ! ! ! Q / ' +.+.@.&.%.4.4.7.7.f.j.c.c.x.c.!.!.!.x.f.s.%.&.o.) Z r : = + O O O X . . . . . . . . . . . . . . . . . X O O O O O + 5 4 n v b 3 = : : r B T J K K L L L i.i.} y.;.D q > o . . . . . + & k W +.%.s.7.f.x.P.!.!.^.^.^._.`.`.`.#X#X#X#X`.^.P.I.z.8.2.@.R o.o.3 O . . . . % L Z.Z.,.L i * w q.Z.V.m.3.k . . . . o s ! ~ ~ ~ ~  .+.%.+.i 0 J 2.^ L Z.6XD.Z.M.,.n.D.6XrXtXaXhXhXaXaXhXhXfXfXfXfXhXhXaXaXiX0X[.K 0 0                                                                                                                                                                                                                                                           ",
"                                                                                                                                                                                                                                                                                      # O . . . . . . O O O O o + + = = 3 v N N N N m b m M M V V E E E Y ! Q Q Q  .+.@.&.%.%.%.%.4.f.v.c.c.c.!.!.c.x.j.f.f.%.+.o.) d 2 1 + O O . . . . . . . . . . . . . . . . . . . X O O O O @ + 1 4 y v b 3 : : : 9 M +. .F j j c j a a a j h > % X . . . . . = y m W _ &.4.7.9.8.l.z.!.^.R.I.^._.`.`.`.#X#X#X#X#X^.P.I.l.8.2...Q o.O.3 O . . . . % S m.m.,.2.! - S B.Q.C.q.-.k X . . . X q Y ~  ./ /  .+.#.@.F J 6.U.^ w } [.m.I >.1.A.F.qXtXtXhXhXhXhXhXhXhXhXhXfXfXhXhXhXaXaXhX;XJ q i                                                                                                                                                                                                                                                           ",
"                                                                                                                                                                                                                                                                                    X X . . . . . . . O O O O + # 6 2 3 3 v N N M N b f t f k m M M E M z z M Y Y Y Q $.&.&.%.%.%.%.s.f.f.x.c.c.!.c.j.j.j.j.4.@.&.o.l y 2 O O O . . . . . . . . . . . . . . . . . . . . O O O O + + + + : 4 d 3 : > 2 > m &.&.z 9 9 > > & % % X X . . . . . . . = d E ' +.+.%.4.7.9.8.e.l.P.I.I.~.^._._.`.`.#X#X#X#X#X^.P.!.l.8.2...! _ ) 3 O . . . . % S 1.m.,.3.W > S B.Q.V.q.-.M X . . . X , k J ~  .@.#.+.+. .T J q.R.~ % q G S p S } Z.A.6XwXrXtXaXhXhXhXhXfXhXhXfXhXhXhXaXaXaXaX4XJ q j                                                                                                                                                                                                                                                           ",
"                                                                                                                                                                                                                                                                                    . . . . . . . . . O O O o + # 6 2 y d v v b V m d 8 > e r r u k l k t i h k k z ! &.&.&.&.%.%.a.s.s.%.d.j.x.c.x.f.f.j.j.s.%.a.$.m v 4 . . . . . . . . . . . . . . . . . . . . . . . O O O O @ + + + + : > : : 2 1 + = r r = . . . . . . . X . . . . . . X & r m W ' +.+.%.4.7.7.8.f.g.z.P.I.I.^._._._.`.#X#X#X#X#X^.P.I.l.9.2...T W ) 3 O . . . . X w ,.n.<.6.! & w q.Q.Z.1.^ k X . . . X & q j ~ @.#.#.+. ./ Q T 0.~.T . X X % ; w L ,.n.F.6XqX7X0XjXrXaXhXhXfXgXgXfXhXhXhXhXaXiX4XJ 0 F                                                                                                                                                                                                                                                           ",
"                                                                                                                                                                                                                                                                                    . . . . . . . . X O O O @ + # = 3 y v b f f B m t 8 8 e > > 8 e u u u t k l l l V $.&.&.&.&.&.%.%.%.+.+.%.7.f.f.f.f.f.f.s.%.%.o.m v 2 . . . . . . . . . . . . . . . . . . . . . . . . O O O O O + + # # o = 5 : + . . X X X X X X X X X . . . . . . . o & > d l W +. . .@.#.#.4.8.g.j.z.z.l.U.~._._.`.`.#X#X#X#X>X^.P.P.g.9.4. .! Q Z : X . . . . . w } 1.<.6.z o w q.Q.V.<.T u + . . . . X , x @.7.9.#./ R / _ T ..l.X.0 8 - % ; j K L ,.A.*XqX7X7X7X0X0XwXaXfXBXBXBXgXgXgXfXfXfX3XD q                                                                                                                                                                                                                                                             ",
"                                                                                                                                                                                                                                                                                  o . . . . . . . X O O O O @ + # = 1 y u v u f M l k l M m t t t r t f k k m M M m V O.$.$.$.$.$.&.$.o.Q Q +.#.%.s.s.f.f.f.s.%.&._ m y 1 . . . . . . . . . . . . . . . . . . . . . . . X O O O O O + $ + + X # n 1 X X + + X = > * & - = X . . . . . . o 2 r f k l E  ./ /  .@.#.2.8.j.g.j.l.h.h.I._.`._.#X#X#X#X#X`.~.z.z.f.4.%.+.R _ V o . . . . . . w } 1.y.3.z X q <.Q.V.,.D r X . . . . X * x #.8.8.2./ Q Q ! T J 6.w.w.3.U & % t D G } N.{.0X0X0X0X0X0X0XiXfXBXBXBXBXBXBXfXfXpX.Xj 7                                                                                                                                                                                                                                                             ",
"                                                                                                                                                                                                                                                                                  # . . . . . . . X O O O O @ o + = = 2 e u f f l l B o.$.o.W B B M z B E W ! W W Y E W ) ) ) W W W W ! E W Q +.+.&.%.s.s.s.a.&.O.V d y = . . . . . . . . . . . . . . . . . . . . . . . O O O O O O O O O O . + r s c z Y k 0 h x j 0 h s - . . . . + + : N V M m l Y R / /  .@.#.2.8.g.j.g.g.g.g.P._._.`.#X#X>X#X`.'.P.l.g.8.%.%.+. .$.V o . . . . . . w ,.1.,.-.k X q <.Q.V.y.x = . . . . . . X q F ..9.4...Q T ! ! F | r.).<Xf.& . & i S } n.S.qX0X0X0XjXrXaXaXhXfXaXaXiXiXiXuX}.M.J 7 7                                                                                                                                                                                                                                                             ",
"                                                                                                                                                                                                                                                                                1 # . . . . . . . X O O O $ @ o o & - e u u k l l x Q &.4.%.+. .+.+.+.$.&.&.@.@.+.Q Q E B M g s k M B E W W W W Q Q W _ &.$.) V V m > 1 # . . . . . . . . . . . . . . . . . . . . . . . O O O O O O O + + + X & 8 c 6.u.e.| K J ~ D j z M 2 O . . X # < y V V V B B !  . ...+.&.#.2.8.g.j.g.g.l.l.I.'._.'.'.#X>X>X`.^.P.g.f.9.#.%.#.@.&.B o . . . . . . w ,.1.>.-.s . q <.Y.V.r.x X . . . . . . . X 7 R 8.f.#.R Y Y z h H y.Y.=Xg.& . X i L ,.n.A.7XjX0XjXrXrXaXaXaXiXiXiXiX0X9X-Xt.p ; * 7                                                                                                                                                                                                                                                             ",
"                                                                                                                                                                                                                                                                                X . . . . . . . . . O O O O O o # - r u f k M E E Q +.%.4.4.#.@.#.@.#.7.7.7.d.d.d.d.7.%.+.B t 9 0 M V E E E W W W ! Y E _ _ M k f r = # . . . . . . . . . . . . . . . . . . . . . . . . . . O O O O O + X & t z H ^ u.B.q.y.:.:.-.~ j k k = X . . O = 5 f N V E W W +.#.#.#.#.%.4.4.d.f.g.g.g.l.z.^._.^.R.'.#X`._.^.!.z.g.g.9.@.%.&.&.&.N X . . . . . . w ,.1.>...h X q <.Z.Z.K.F . . . . . . . . . * z #.9.4. .Y k t r x L 1.).9.X . X h L 1.A.F.0X0X0X0XrXaXaXaXaXaXaXiXiXiX9X-Xg.q X % 7                                                                                                                                                                                                                                                             ",
"                                                                                                                                                                                                                                                                              X . . . . . . . . . . O O O + + = > r u f k M W _ ' +.@.2.2.9.6.2.2.2.2.8.e.e.g.g.z.z.x.j.s.o.B l k k k k k k C ) _ ) E E ` V f y y = + . . . . . . . . . . . . . . . . . . . . . . . . . . . O O O O O + X > Q @.L =.r.r.t.r.r.e.2./ x t > X X X + + = r u k M E W Q +.%.4.4.4.4.9.7.d.8.8.8.g.l.P.^._._.^.'.#X_.^.P.z.g.8.8.2. .#.&.$.&.N X . . . . . . w <.1.} -.Y : a q.Z.Z.K.F . . . . . . . . . X 7 D @.4.@.! 0 - - 0 a -.z.Q . . % h K 1.[.*X0X0X0X0X0X0XjXaXaXaXaXiXiXiX*XQ.w.q X + ;                                                                                                                                                                                                                                                             ",
"                                                                                                                                                                                                                                                                              . . . . . . . . . . O O O O o = r u f k m M W ' +.+.@...2.2.8.8.6.8.w.w.r.u.u.l.l.I.^.!.l.8.7.+.! k > > : = : r N N m b u r e > = = + . . . . . . . . . . . . . . . . . . . . . . . . . . . . . O O X & , % 0 #.2.L L >.3.y.3.:.-.R h 8 & X . X + o = 2 y y s k Y W o.@.%.4.9.7.8.8.d.d.d.9.9.g.l.P.I./.>X>X>X>X.X!.z.x.8.9.7.2.+.&.$.o.o.b X . . . . . . w <.1.=.;.! > j q.Z.Y.K.D X . . . . . . . . . X 7 z Q Y k * + X % 8 l ! r . . X 0 G ,.D.F.6X0X7X0X0X0X0XjXiXiXiXwXwX0XD.V.6.7 X + -                                                                                                                                                                                                                                                             ",
"                                                                                                                                                                                                                                                                              X . . . . . . . . . . O O + = r N V N V E W &.@.@.@.@...;.2.6.6.6.e.L.R.E.E.E.).).#X#X`.P.l.f.s.@.l & + o O O # = X X . . . X O O . . . . . . . . . . . . . . . . . . . . . . . . . . . . . . . O O X h ..K i.w.-.L L L ^ ~ G a i 8 ; X . . . X = 2 y f f f k k Y Q o.@.#.4.7.8.d.d.d.d.d.8.8.g.l.z.^._.>X<X1X1X>X!.x.g.9.9.9.7.%.%.$.B N y X . . . . . . w y.1.>.3.Y : w <.Z.Z.K.R X . . . . . . . . . . X = & % X . . . . o = = X . . . q J <.A.G.S.qX7X7X0X0X0X0XiXiX0X0X0X0XD.Y.h.0 X -                                                                                                                                                                                                                                                               ",
"                                                                                                                                                                                                                                                                            = X . . . . . . . . . X + + = r N M M Y W ' +.@.@.@.#.2.2.2.3.9.9.6.0.L.).).).$X=X=X<X<X<X).^.^.!.c.%.r 8 3 1 + O . . . . . . . . . . . . . . . . . . . . . . . . . . . . . . . . . . . . . . . . . X % J P.K.m.B.q.:.=.L L G w 0 8 - X . . . + # r b N b f M E W Q W Q @.%.7.8.d.d.d.f.8.8.8.8.e.e.!.>X>X,X>X>X>X.Xc.f.d.7.2.4.7.4.a._ k d : . . . . . . . q >.1.<.:.k X w <.C.C.K./ + . . . . . . . . . . . . . . . . . . . X X + + X X X h ^ q.Z.S.S.zX6XqX7X7X7X7X0X0X0X0X7X8X[.K...& X >                                                                                                                                                                                                                                                               ",
"                                                                                                                                                                                                                                                                            + . . . . . . . . . . X + + = r M M k z Q %.4.@./ ( ..;.2.2.2.6.6.6.:.B.'.).Q.).=X-X-X-X-X=X#X#X>X,X!.Q z l 3 O . . . . . . . . . . . . . . . . . . . . . . . . . . . . . . . . . . . . . . . . . . + * L r.q.1.m.M.q.<.>.=.L J x t < . . . . o 1 f N N N b V ) _ Q Y ! / %.7.8.d.d.f.f.9.9.g.g.8.3.P.>X,X>X>X>X.X/.c.v.f.7.4.%.&.@.&.E f r = . . . . . . . q >.q.<.3.k X a t.C.m.q.~ = O . . . . . . . . . . . . . . . . . . . X X o & X & l ^ >.n.n.G.S.F.6XqX6X6X6X6X6X6X6XF.{.Y.;.t X X *                                                                                                                                                                                                                                                               ",
"                                                                                                                                                                                                                                                                          . . . . . . . . . . . . O + + = 2 k l k z Q 4.4.@.( ..;.;.;.;.;.3.6.:.:.r.(.(.Y.E.).&X=X-X=X=X#X#X<X<X/.2.R Y t X . . . . . . . . . . . . . . . . . . . . . . . . . . . . . . . . . . . . . . . . . . - 0 J 3.0.<.q.q.B.V.C.C.M.w.X.l = . . . = 5 y v N N N N W _ W ! x z Q #.9.8.8.8.f.8.2.4.g.g.6.;.l.!././././.!.c.v.g.f.4.%.+.T z M k s y = . . . . . . . q >.1.0.6.k % j r.V.C.t.T f y # . . . . . . . . . . . . . . . . . . . . X o o & t F L } } } G.S.6X9X9X6X6X6X6X6X{.F.[.E.~ * + % *                                                                                                                                                                                                                                                               ",
"                                                                                                                                                                                                                                                                          . . . . . . . . . . . . O + + + > u h z Y / 2.2.3.w.w.w.0.6.6.6.0.0.0.0.r.(.E.L.V.L.).=X-X-X}.}.#X=X<X^.l.g.8...x 0 > X . . . . . . . . . . . . . . . . . . . . . . . . . . . . . . . . . . . . . . . = r k ! X.:.:.,.V.}.W.Y.K.h...7 . . . + 5 v v N N N C V ) _ ' Q T ! / @.4.7.8.8.d.8.2.2.j.j.2...8.f.v.x.v.d.d.7.#.#.#.@.@.' F i t u r y # . . . . . . . q =.y.0.6.k % D r.C.m.t. .E Z 4 . . . . . . . . . . . . . . . . . . . . X X + + - 0 D ;.0.0.1.Z.&X;X;X&X[.[.[.[.|.[.T.w.i % &                                                                                                                                                                                                                                                                   ",
"                                                                                                                                                                                                                                                                          . . . . . . . . . . . O O + + + e f k Y Q ..2.-.e.P.I.P.K.U.U.U.R.(.(.R.R.'.).I.V.V.Y.W.-X=X-X}.).=X=X).'.'.'.^.P.e.#.M X . . . . . . . . . . . . . . . . . . . . . . . . . . . . . . . . . . . . . . o 2 r u k G J L r.`.W.r.3.4.z X . . . + y v N N N N M V E _ +.&.+.+.+.+.@.2.4.4.8.4.2.9.f.f.%./ #.%.7.%.#.*.@.+.+.+.+.+.+.' Y h r y y y # . . . . . . . > R -.y.3.k o D q.n.m.0...o.O.5 . . . . . . . . . . . . . . . . . . . . + - & & - * q k x j j D D H J K K K G G S G D 0 * % 7                                                                                                                                                                                                                                                                   ",
"                                                                                                                                                                                                                                                                        # . . . . . . . . . . O + + # = 2 f l Y Q / ..-.=.K.'.(.R.L.Y.E.).).).(.I.L.B.R.E.I.L.Y.T.}.-X-X-X).).).E.'.).).'.E.R.l.&.t > X . . . . . . . . . . . . . . . . . . . . . . . . . . . . . . . . . . . . + = = - 8 0 j G ^ h.w.K w t & . . . . = d b N N N N M M M E ' &.%.&.@.@. .@.2.2.4.4.4.2.4.s.@.E Q &.&.&.&.$.$.$.$.+.+.+.+._ E m d y y 4 # . . . . . . . + 8 a | 3.k & D 0.1.q.0.X. .o.5 . . . . . . . . . . . . . . . . . . . . X + & % % & & & * % X X X X X % * - & % % % % % % % 7                                                                                                                                                                                                                                                                   ",
"                                                                                                                                                                                                                                                                        # . . . . . . . . . O O # = = r f m ! Q / / X.-.>.K.).E.R.L.E.Q.).).E.I.B.q.,.u.E.).).E.W.-X-X-X1X=XE.L.V.R.'.).'.(.E.P.s.Q V 3 . . . . . . . . . . . . . . . . . . . . . . . . . . . . . . . . . . . . . + + & - 0 k D G J D 7 X X . . . . + 2 n v N N N N N M m M _ &.%.%.&.@.@.@.#.#.#.#.2.@.@.@._ B W $.$.$.$.$.$.$.O.o.o._ _ W E V f 2 3 4 # . . . . . . . X % ; D @.k & j <.<.1.6.X.+.o.2 . . . . . . . . . . . . . . . . . . . . . X + % & - 8 i k h t 8 e t k k r > = X X X % * * *                                                                                                                                                                                                                                                                     ",
"                                                                                                                                                                                                                                                                      1 o . . . . . . . . . . O # = 1 r k U R / @...;.6.:.K.).).R.E.).).).).E.L.B.q.1.B.R.).).W.}.-X-X-X1X<XE.I.I.E.).#X#X).'.^.g.4.a.N + . . . . . . . . . . . . . . . . . . . . . . . . . . . . . . . . . . . . . X + o : 9 0 h z t & . . . . . . o < 2 y y d n n v f r k ` ' $.@.@.@.@.#.&.#.@.@.@.+.' _ V f N V V E ) ) ) ) ) ) E E V l l N f 2 2 1 O . . . . . . . & e q j U 8 + a <.1.q.0...R V : . . . . . . . . . . . . . . . . . . . . . . + 8 k T  .#.2.4.2.@.@.@.s.%.f & & X . X + i T                                                                                                                                                                                                                                                                       ",
"                                                                                                                                                                                                                                                                      X . . . . . . . . . . . O # = > t U R / #.4.2.8.0.0.t.K.P.r.r.K.K.I.(.^.K.u.u.B.L.R.(.).).).=X-X-X1X1X).).).).).).'.'.`.`.z.7.&.N + . . . . . . . . . . . . . . . . . . . . . . . . . . . . . . . . . . . . . . . . . X & 8 8 & X X . . . . . + X . + + + + o o o & - u h z Y Q /  . .Q ! Q +.+._ _ E u % o # & = : > e e e e e 8 8 7 8 t e = # + . . . . . . . . = h x x u + X j t.m.M.e...! l : . . . . . . . . . . . . . . . . . . . . . . + u +.9.9.6.6.6.6.3.2.3.w.#.t X X . . . X t                                                                                                                                                                                                                                                                         ",
"                                                                                                                                                                                                                                                                    X . . . . . . . . . . . . O + = e k Q ....2.#. .R  . ...8.g.9.H a a J ~ T H F J T R /  .2.8.6.r.K.E.}.-X}.}.).$X).E.L.U.^._.z.7.%.N o X O . . . . . . . . . . . . . . . . . . . . . . . X X X % * - > 8 7 q 8 9 9 - . . . X & % X X X & * , > 8 8 & % X X X X X X . . X % > 0 i M E E Y B M Y W W W W V r X . . X X X X X X % % % % % ; ; - & X . . . . . . . . . . + 8 0 j u + X J r.m.B.r...Y r X . . . . . . . . . . . . . . . . . . . . . . + - z @.2.6.6.3.3.;.-.3.8.2.s X . . . . . &                                                                                                                                                                                                                                                                         ",
"                                                                                                                                                                                                                                                                    + . . . . . . . . . . . . . . = t x X..... .E k 8 q 0 k M V m * X % % % X X X X o + o = = > 8 w K >.L.).}.-X&X).).E.u.t.K.!.x.4.a.C o O O . . . . . . . . . . . + = > 2 > > > * - 8 r 8 h H R ^ -.0.w.w.r.r.w.6.3._ = . . + & X X X X l @.#.9.d.d./ / / R ! E E E l r = + : e e u y y y y d f b m m l g 2 . . X o o , t k k h q q q q w i i 0 8 - + . . . . . . . . . X q F M % % J r.q.r.e...l = . . . . . . . . . . . . . . . . . . . . . . . X + - j ..6.6.3.2.;.-.;.6.2.k X . . . . . %                                                                                                                                                                                                                                                                         ",
"                                                                                                                                                                                                                                                                    + . . . . . . . . . . . . . + r m H X.2...Q l r & X X X X + + . . . . . . . . . . . . . . X = 9 F T g._.'.(.E.E.).E.L.U.U.l.2. .$.g X X X . . . . . . . . . O = y N C V V Y M 0 i j D K -.r.r.C.C.Q.Q.Q.[.[.W.L.K.s.t + + o o X X . X W f.w.u.P.^.I.R.(.R.R.I.P.P.x. .r + @ # + + X . . . X + + o = & o O . = 9.R.R.=X5XpX5X=Xr.0.<.<.6.3.2.2.2.@.M - X . . . . . . . X q ! W - % H 0.y.y.6. .z & . . . . . . . . . . . . . . . . . . . . . . . X X % w ..6.;.5.2.2.-...2.#.k X X . . . X                                                                                                                                                                                                                                                                           ",
"                                                                                                                                                                                                                                                                  3 + . . . . . . . . . . . . # > m Y R ( ..Q B y = + . . . . . . . . . . . . . . . . . . . . o = - r 8 i U F D D 2.R.).E.E.R.u.| H W d . . . . . . . . . . . O + = f M M z Y T J D S S P I ,.n.n.n.C.A.A.A.D.[.W.V.l.#.> + + o o + . . X M 8.0.q.u.L.Y.E.).Q.T.L.L.L.l.T 0 - O . X X . . . . . . . . . . . . . 9 2XBXBXBXBXBXBXpXQ.V.C.C.B.m.1.<.0.8.@.i : = . . . . . . X 9 E ` < + x ;.:.-.| T Q l > o . . . . . . . . . . . . . . . . . . . . X * 0 j L 9.2.( @.@./ T F F Y f o X X % *                                                                                                                                                                                                                                                                             ",
"                                                                                                                                                                                                                                                                  : + . . . . . . . . . . . + r t M Q R ( +.l : O . . . . . . . . . . . . . . . . . . . X + & r f > & + + X X X X 0 e.'.R.E.E.u.X. .o.g X . . . . . . . . . O # > e t h z x H ~ ..:.<.q.B.V.Z.Z.D.D.D.D.D.D.D.[.Y.3.@.z o O + o o + . . X z 8.r.r.q.B.Y.Q.).).Q.V.V.B.w.-.X.z & % + X . . . . . . . . . . . . . > :XlXlXlXlXlXBXpXC.m.C.C.C.m.1.<.,.3...w 8 2 . . . . . . X * l N # + q K :.;.~ J R W V d X . . . . . . . . . . . . . . . . . . + X t  .2.6.8.( j k x i q 7 , 8 > X X s                                                                                                                                                                                                                                                                                 ",
"                                                                                                                                                                                                                                                                + X . . . . . . . . . . . . = f f B Q R / U > . . . . . . . . . . . . . . . + + # = = & & = : r f t - & - X . . . o x T J X.9.9.X.#.*.m o O . . . . . . . O = 2 u u t h x F H ~ ;.0.B.L.Y.T.Z.[.[.[.[.&X&X&X[.W.t.j 8 = O + + o + O . . X x 8.l.U.r.q.L.E.Q.Q.Q.C.L.I.I.I.I.9.F x U U k 9 - * - - > = . . . . . 8 &XlXBXlXlXlXBX;XI ^ ,.n.B.B.m.<.,.:.| a t 3 X . . . . . X % 8 y o + - a -.-.~ T Q o.O.N X . . . . . . . . . . . . . . . . . . + % i ..0.w.6.J w 7 7 ; % % + o + . X                                                                                                                                                                                                                                                                                   ",
"                                                                                                                                                                                                                                                              X . . . . . . . . . . . . . X 1 f k Y Q +.! 8 . . . . . . . . . . . . . X + < 3 3 y y r e e > r t k k 8 8 8 e = . . . X X X % > l Y *.&.B 2 + . . . . . . . + > r f f h h z F J ( -.<.1.q.C.V.Z.Q.[.[.[.&X-X[.W.I.( * # o # # + + + . . . . k 8.l.U.w.<.V.Y.Y.Y.V.C.T.W.W.).).e.~ ^ t.K.6.T a a D F k e + . . . . , %XlXBXBXlXlXlXL.S j G L <.t.1.<.y.:.X.j s 3 X . . . . . . + - 2 + O & i @...( ( R Q o.M & . . . . . . . . . . . . . . . . . . + % w | 6.0.0.-.K D j i r = O O . . .                                                                                                                                                                                                                                                                                   ",
"                                                                                                                                                                                                                                                              . . . . . . . . . . . . . . + 3 N B Y ! Q M % . . . . . . . . . X + + = = = d b v b b k m M M M M E W E E E W N > # . . O . . O + s *.o.E f 1 O . . . . . . + > t k k k t i x D ( -.,.,.,.1.V.Q.[.[.[.}.Q.T.L.L.r.F X + o : > 0 t 8 o . . . h 8.l.l.0.t.L.E.T.Y.C.Q.W.&X&X&X).6.J ^ 1.C.t.i.L L L ~ J l & . . . . * %XlXBXBXlXlXlXB.w 0 w S L >.<.t.:.-.~ h r 2 . . . . . . . X & + O . X t U ~ 2...T Y W N - . . . . . . . . . . . . . . . . . . + % q L :.:.t.r.w.e.e.s.$.3 . . . . X                                                                                                                                                                                                                                                                                   ",
"                                                                                                                                                                                                                                                            + . . . . . . . . . O O O . O + 3 V E ! W V > . . . . . . . . . X + X = 3 y r b C N b k k V W _ _ ' &.&.+.+.+._ E m f = + O O . . + > B V B N 4 + . . . . . . + : t l M k 0 q a G ~ :.<.<.<.1.V.W.[.[.}.).B.<.>.y.8.Y + O - 8 h  .f.a.d . . . t 4.e.w.3.6.L.E.E.W.).}.W.W.}.&XE.;.D L >.q.B.V.Y.V.r.6.2.+.- . . . . & D.lXBXBXlXlXlXL.j a a S L :.0.0.;.^ D q > : . . . . . . . + - + . . X * 0 T 4.@.~ Y Y m 8 X . . . . . . . . . . . . . . . . . + ; w =.<.<.q.r.r.u.l.j.%.r O O O X *                                                                                                                                                                                                                                                                                   ",
"                                                                                                                                                                                                                                                            . . . . . . . . . . O O O O + o > M E ! ! g o . . . . . . . . X + > r r m C m k M M l t t M W W _ ' +.@.@.&.+.! Y E C 3 # O O . . O + # : > 3 1 O . . . . . . + : t l M z 0 q i a ~ w.r.r.q.<.q.C.V.m.m.B.t.>.=.=.4.B + + - 0 j  .f.&.r . . . >  .4.2.-.6.L.I.Y.=X;X-X}.W.W.=X^.| h D L ;.B.T.W.E.U.w.2.@.> . . . . , &XlXlXlXlXlXlX&X;.| | -.y.0.q.w.| D a q > = O . . . . . . = r 1 O . . X 8 ! #.../ Q Y m e & + . . . . . . . . . . . . . . . . # * j 3.0.<.<.t.r.u.r.f.@.r + O + - i                                                                                                                                                                                                                                                                                   ",
"                                                                                                                                                                                                                                                          . . . . . . . . . . . O O O + # > M T ! R z o . . . . . . . . . + = N V V E W E M M z l i j T +.+.+.@.@.@.@.@.@.+.! W V d : o + O O . . . . . X O . . . . . . . X - t z U M i 0 h a L e.K.r.0.<.y.<.,.} } t.q.>.-.../ t . . > h x x ! i + . . . > o.4.4.-.6.U.L.V.=X4X4X}.W.}.=X^. .s 0 j L 6.0.<.<.;.L J Y : . . . . q &XsXlXlXlXlXfX;XB.r.t.t.t.1.q.r.^ a a k r 1 O . . . . . . = y y + . . . % t F / @.+.W m 8 - = o + . . . . . . . . . . . . . . # - D 6.0.0.q.q.r.w.8.7. .3 O O + -                                                                                                                                                                                                                                                                                     ",
"                                                                                                                                                                                                                                                          . . . . . . . . . O O O O + # = f Q +.@.@.k X . . . . . . . . + + - N E V E W Y z z Y _ &.s.s.s.4.%.#.@.@.@.#.@.+.Y z M m f y # . . . . . . . . . . . . . . . . X * t z Y z h i a a T 6.0.0.<.>.:.y.>.} ,.L.T.B.6.( z = . X > g l l k r = . . . > o.%.4.2.6.U.L.V.-X2X2X-X[.}.=X^. .g t 0 j T L L i.i.J H l : . . . . q &XwXyXyXyXyXaXD.,.y.1.1.q.1.1.r.:.K D x f 2 O . . . . . . = y y + . . . . % 7 x +.@.W t & - - = + O . . . . . . . . . . . . . + % j 6.q.M.B.r.w.;. . .W r + O + %                                                                                                                                                                                                                                                                                     ",
"                                                                                                                                                                                                                                                        . . . . . . . . . X O O O O O # r l T  .%.W > . . . . . . . . . # = > N E V V E Y l U +.s.v.j.f.s.4.%.#.@.@.#.4.4.@.Y z M N N b 3 O . . . . . . . . . . . . . . . X * t z F F a 0 w a J ..>.>.>.^ L >.=.=.1.Q.[.T.w.T 9 + . X : t g l f r = . . . > o.%.7.2.6.K.L.Y.-X3X2X2X-X}.=X'.X.s r r 8 h D ^ ;.;.J Y z : O O . X w D.eXwXyXyXyXiXZ.>.>.,.m.C.M.t.q.:.L J F M r + . . . . . . # r d = . . . . X > z Q Q Y 8 & - - = o . . . . . . . . . . . . . . . % 0 ;.r.B.U.K.l.;.D H B 9 X X % %                                                                                                                                                                                                                                                                                     ",
"                                                                                                                                                                                                                                                        . . . . . . . . . X X O O O + = d Y R  .&.M X . . . . . . . . . # 2 y N E E E W W ! Q &.s.s.s.s.%.#.#.#.@.#.4.7.7.4.Q F B m m N d # . . . . . . . . . . . . . . X X 8 z Y T T F j j G ~ ^ L I I I L I >.y.C.Q.W.I.g.x o . X & * 9 s l k d : + . . 8 o.%.4.2.6.U.Y.W.2XpXuX2X2X-X;X<X9.s r 3 * , h ~ ....L H z 9 @ O O X q D.eXwXyXyXyXiXQ.1.1.m.m.T.Y.q.<.>.=...T M y # . . . . . . # r d : . . . . X > M T ! Y k t k u e 3 # . . . . . . . . . . . . . . % q ;.K.U.U.I.~.6.a x h > X % % ;                                                                                                                                                                                                                                                                                     ",
"                                                                                                                                                                                                                                                      . . . . . . . . . X O O O O + : d l E +.Q E y . . . . . . . . . . + 5 u b V V W _ _ ' &.%.&.#.%.%.&.#.#.#.#.2.9.d.d.d./ ! Y m f b d = + . . . . . . . . . . . . . . o 0 Y / @.5...^ ^ ^ -.>.>.>.,.>.,.1.V.W.}.&XT.t.2.t X X - > * 9 t l M f : + O . 8 Q #.#.2.6.I.).-XuXpXuXuX2X2X4X1X8.s r r r t h z ! T H H B r # O O X q D.wXyXyXyXyXiXQ.1.M.M.V.W.T.m.<.>.-.2.T M u # O . . . . . o r f > X . . . X o d M z U W _ _ E m f > . . . . . . . . . . . . . & q S r.I.K.K.P./.8.D F h * X & 9                                                                                                                                                                                                                                                                                       ",
"                                                                                                                                                                                                                                                      . . . . . . . X X O O O O o # r C M V o.Y > # . . . . . . . . . . + 2 y b V V B W _ +.+.@.+.+.+.#.#.#.#.4.2.4.7.d.f.f.+.! ! m d f y = + . . . . . . . . . . . . . . X 0 Y ~ ..6.;.-.;.>.<.B.V.Y.Q.Q.Q.W.}.-X-X-X).6.Y = X X > t 9 s s g k r = + O . > W #.#.;.>.R.-X2XpXuXuXpXuX2X4X<X9.s r 2 r s r > * , > s g 3 # O + X q D.yXyXyXyXsXiXD.1.M.M.V.Y.Y.m.y.>.:.2.J l r o O . . . . . o r f 3 o . . X X + : s l M Q +._ M k k > X . . . . . . . . . . . . 9 D i.K.E.K.r.U.!.4.H Y s % . -                                                                                                                                                                                                                                                                                         ",
"                                                                                                                                                                                                                                                      . . . . . . . O O O O O O o = d B B V O.V = . . . . . . . . . . . + 1 1 y m N M M W _ Q +. .R  .&.#.#.#.#.#.2.7.d.d.s.@.Q _ M d f y = + . . . . . . . . . . . . . . X t Y ~ | 6.3.:.>.} n.Y.Q.[.&X&X&X[.[.&X}.E.U...8 - & * 9 k l k s > - & & o + . > W %.4.2.0.R.).;X2X2XuXpX2X2X4X#X4.s r > > > > = X X + o = # O O O X w {.aXyXyXyXsXiXD.1.t.M.M.C.V.M.1.y.6...D l r o . . . . . . o r f r + . . X X X X > m z W +.' W z M k r > : + . . . . . . . . X s L =.u.I.U.r.r.g.2.R Y t & X -                                                                                                                                                                                                                                                                                         ",
"                                                                                                                                                                                                                                                    + . . . . . . X O O O O + o : r l C B V V d & . . . . . . . . . . . O # = = r r f M W W Q / +./  .#.&.@.@.@.+.#.7.s.s.s.@.o.o.V f f 3 # O . . . . . . . . . . . . . . X 8 U ~ -.0.0.0.,.1.C.Z.Z.Q.[.[.&X[.&X&XR.;.D t X : t h h k m k r % X + = # + O = W %.9.8.l.U.V.).2X:X2XuX2X4X-X_.#.s 9 > > : : & + + O O + O O . + X w &XsXsXyXyXsXiX[.t.w.w.t.r.q.m.m.q.w...j k y + . . . . . . o t b r # . . X . X X = f z E _ ' Q Q Q E B V C r X . . . . . . . X a L i.q.L.U.u.w.6.2. .Y t & X -                                                                                                                                                                                                                                                                                         ",
"                                                                                                                                                                                                                                                    O . . . . . . X X O O + + = r m B V B f > + . . . . . . . . . . . . O + + # : > e m W W Q Q ' ' +.@.&.@.@.+./ @.%.4.4.%.@.+.$.E k d > # + O O . . . . . . . . . . . . . > M / -.0.r.I.W.Q.[.&X&X&X&X*X*X&X=X_.c.k X + . , H E z k l k 8 X . + = = # O o N E Y *.f.8.0.I.=X}.1X4X1X=X$XI.~ t 9 > > > : & o + + + + . . . + X w *XkXlXlXsXyXwX[.0.2.;.;.3.3.r.L.B.e. .0 r 3 + . . . . . . & u b r # . . . . . . o e k V W Q Q Q T E Y E W b # . . . . . . . X j L L 0.U.U.l.6.2.9.#.Y t = X &                                                                                                                                                                                                                                                                                         ",
"                                                                                                                                                                                                                                                    . . . . . . . O O O O + + > f V V E Z r X . . . . . . . . . . . . . . O O + = > > f W W ! Q ' +.@.@.@.@.@.+.+.+.@.&.@.+.+.+.$.B l f > o + + O O . . . . . . . . . . . . : M ~ ;.r.B.E.-X;X*X;X;X;X;X;X;X-XI. .l + . O & q J T E h k f > + X = = 1 = O X 2 > * * 0 0 D L :.0.u.l.K.I.^.z.H q 0 9 8 > : = o o + + + X . O o % w :XlXlXlXyXwXeX-X=.a a a D D ^ ;...R z r = + O . . . . . . = f m r # X X . . . . + = r m M W E E ! ! Y B B d 2 : . . . . . . X D ^ i.0.U.P.l.6.;.2.%.Y 9 & X &                                                                                                                                                                                                                                                                                         ",
"                                                                                                                                                                                                                                                  + . . . . . . O O O O + + : y m B B V N > X . . . . . . . . . . . . . . . O + = 2 t m E W E Q / +.#.@.+.@.+.+. ./ / / Q T T W _ V m f > o + + O . . . . . . . . . . . . . = M R =.y.<.C.W.&X&X&X&X&X*X*X&X=Xd.: . . . o h K K L / k t t > & = > 2 2 = X . = y > * * 7 j D K L L L | 3.j.j.Q h a j a 0 , * & o X X X X X % q q P eXlXlXlXyX7X9X).~ 0 q q q q 7 7 , - & + + O . . . . . . . = f N f = X X . . . . . X = r f l z M Y Y E V l r r 2 X . . . . . % D -.=.0.K.I.l.6.;.2.#.z > = + &                                                                                                                                                                                                                                                                                         ",
"                                                                                                                                                                                                                                                  + . . . . . O O O + + # 2 d g m V V N r o . . . . . . . . . . . . . . + # # = r f m B B Y E Q R  .@.@.@.@.@.@.@. ./ / ! Y Y W W V N f 3 : # + O . . . . . . . . . . . . . & t F ~ :.0.C.-X;X;X;X;X-X-X&X&X#Xa.# . . . % G ^ } =.2.Q t 8 = = e r r r > X . . = 8 t 0 a ( | =.-.-.=.;...F U k a J :.6. .j 0 8 : & & = & > 0 ^ >.1.eXlXlXsX7XzX&X(...i t t i t 8 & & % = : o X . . . . . . . = f N f = O X X . . . . . + = 2 t t s k k l l f r y 1 . . . . . . % F ;.=.6.K.P.P.e.;.@.+.k - = %                                                                                                                                                                                                                                                                                           ",
"                                                                                                                                                                                                                                                + . . . . . . O O O + o 1 d N C B B V r X . . . . . . . . . . . . . . O 1 3 3 r d m V B B Y E Q Q /  .@.@.@.%.4.4.#.#.+./ Q E Y E B N f 3 : # o O . . . . . . . . . . . . . X * t F ( 2.l._.#X).).).).'.R.K.x.o.o . . . * K } <.<.w.+.8 o o = r t s k r X . . . 7 j a K -.0.t.q.r.B.l.4.8 X X 7 i.C.E.K.^ D h t 9 t g M ! K t.Q.D.eXsXaXeXzXS.A.M.~ l m k h t 8 8 9 r m N 3 o . . . . . . . = f N r # + O X . . . . . . . o > r t 9 9 t t t d d : . . . . . . % H 6.-.6.P.^.^.6.J J Y t & = &                                                                                                                                                                                                                                                                                           ",
"                                                                                                                                                                                                                                                . . . . . . . O O $ o # 3 f N N C m g o . . . . . . . . . . . . . . O # y d f m m M B Y B Y Y ! Q / @.#.#.#.4.4.4.4.4.#.+./ ! E E V N b 2 o X X O . . . . . . . . . . . X X X % & - , 7 0 h k h s s s s t 8 > = . . . X q J :.<.t.e.@.8 + # > t k k k r X . . . 7 j K L :.1.q.B.C.B.B.%.: . . % i.A.[.Q.0.( x h i t s B ! D <.[.zXeXwXwXeX6XD.Z.<.K 0 t t h i h t k M V Z m : . . . . . . . & u k r # o O . . . . . . . . . = 3 y d r s s s d g : . . . . . . % T w.6.r._.>X>Xe.H a h > & - *                                                                                                                                                                                                                                                                                           ",
"                                                                                                                                                                                                                                              . . . . . . . O O $ o o 2 d f m m m C r . . . . . . . . . . . . . . . + = d N V V B B Y Y B E T /  . .@.#.4.4.7.7.7.7.4.+.+.+.Q W W m f d : X . X . . . . . . . . . . . X > u e & o o X X X + X . . . . . . . . . . . . & F ..:.1.q.w.@.r o : r k z z z t X . . . * j J >.<.q.M.C.C.C.B.4.: . . % i.D.[.[.T.w.T x k t 9 h z a } &XzXzX*XqX9X9X8X[.V.-.H x x F Y T E ! Y M l g = . . . . . . . o r t > = # + . . . . . . . . . + 1 y f g l m m N b : . . . . O . & ~ w.e.l.^.>X>Xx.#.E h - & > q                                                                                                                                                                                                                                                                                           ",
"                                                                                                                                                                                                                                              . . . . . . . O O O + # 4 N f m m m m 2 . . . . . . . . . . . . . . O # = d C V V Y ! ! E W Q R +.@.@.@.4.7.8.9.7.7.s.%. .R  .Q o.E t > : o X . . . . . . . . . . . . . & x ! U r = o # = = = + O . . . . . . . . . . X 0 ~ :.<.q.q.0.@.t = 2 f z F F Y k o . . . * j L :.t.m.M.C.C.C.B.7.: . . X J V.[.[.Q.V.3.^ H k 0 s l x } ;X&XA.D.*X6X9X9X:XW.I.g...^ X.@.2.2.@.+.z 9 > + . . . . . . . o e r : = : # . . . . . . . . . O # 1 r d m V V C b 1 . . . O O . * / e.r.K.K.P.P.x.s.&.V 2 o 8 i                                                                                                                                                                                                                                                                                           ",
"                                                                                                                                                                                                                                            + . . . . . . O O O + + 1 d N m m f b r o . . . . . . . . . . . . . . + 6 : f V V E ! _ Q Q Q Q  .@.#.@.@.2.7.8.7.7.d.d.7.@. . .@.$.E 8 & & X . . . . . . . . . . . . . . * j ( ( h * o : > 2 y r 3 3 : = # # + + + O X X h ^ :.<.1.1.0.#.t = 3 m ! T Q +.V & . . . * j K =.0.q.m.m.B.C.B.9.> . . . - D } A.D.Q.Y.M.>.D a h 9 0 K -X;X[.*X:X6X9X9X:X}.).B.>.:.:.0.w.3.2.@.Y 0 > o . . . . . . . o e r = = 1 = X . . . . . . . . . . X = > g b f y 2 + . . . O O . * ( 6.r.P.I.l.e.9.+.o.V = X *                                                                                                                                                                                                                                                                                             ",
"                                                                                                                                                                                                                                            O . . . . . . O O + + # 3 b C N m d = o . . . . . . . . . . . . . . . + 2 3 f V ) W Q +.@.+.+./  .#.4.#...#.2.9.9.9.8.d.8.4.@.#.&.$.E r > & X . . . . . . . . . . . . . X ; G ( ( F , X , 0 l W W E B l g r > : : = + X * h ^ >.,.<.,.0.4.r & r M ! / @.&.V o . . . : h D i.:.<.t.q.m.C.B.8.9 . . . X % S Z.&X&X&X[.m.i.D a s s a :.B.[.9X9X6X9X9X;XQ.Y.C.1.m.t.r.r.3...X.T h * X X . . . . . . o e r > = = # X . . . . . . . . . . . . o = = o . . . . . . . . . -  .w.e.I.^.P.g.4.Q l r X . *                                                                                                                                                                                                                                                                                             ",
"                                                                                                                                                                                                                                            . . . . . . . O X + # : r b N N m > . . . . . . . . . . . . . . . . O = y v C W _ _ _ @.@.@.+. . .#.4.2...#.2.2.9.9.8.d.8.7.7.4.&.' M 0 8 : X . . . . . . . . . . . . . X * G ( ^ K w q a J ( @. .! x k h 0 * : : & % * q j ^ >.,.,.,.0.4.r & u Y / X.@.&.M o . . X > h D L :.:.y.1.m.C.B.w.t . . . . X * L <.q.D.[.[.Y.1.| J H a q a n.*X*X*X*X;X[.n.,.,.<.m.m.q.r.3... .T i * X . . . . . . . o 8 t 2 > = + X . . . . . . . . . . . . . . . . . . . . . . . . X 8 ..w.r.P.I.z.f.+.Y g = . . *                                                                                                                                                                                                                                                                                             ",
"                                                                                                                                                                                                                                          + . . . . . . . + X o = 3 f b f f f = X . . . . . . . . . . . . . . O + 2 v m V W _ ' +.@.#.#.#.#.@.2.7.4.4.2.2.4.9.9.8.e.8.8.7.4.#.Q z t t > X . . . . . . . . . . . . . X ; D ^ =.^ L L >.:.3.;.| L D j x s q > > & * 8 i J | >.,.,.<.0.4.r % t ! / -.3.%.l o . . X > z H ^ -.:.>.y.m.C.B.w.t X . . . . . & q J Y.;X:X;XW.m.:.=.J q q } D.&X&XD.[.Z.,.,.,.<.C.V.m.r.:.| X.T l s : X . . . . . . o 8 t r 2 > o X . . . . . . . . . . . . . . . . . . . . . . . . X q ..w.r.I.I.z.2.Y l d = O X *                                                                                                                                                                                                                                                                                             ",
"                                                                                                                                                                                                                                          O . . . . . . . . o > r d m N f r = = o . . . . . . . . . . . . . O + 1 4 b V W Q o.+.+.#.#.#.4.7.4.7.7.9.9.2.2.2.9.8.8.8.8.8.8.9.%.+.W z l d & . . . . . . . . . . . . . X ; D ^ I =.,.1.q.q.q.<.>.| ^ ~ / Y z l s * - 0 x ~ =.>.,.,.<.0.4.e % t Y / 2.d.a.k X . . X > l H ^ -.>.>.,.m.V.L.e.s O . . . . . . X q ~ 0.q.1.n.n.1.q.0.;.i.1.D.[.D.A.A.C.n.1.1.C.[.[.V.t.6.-.-...+.W 3 X . . . . . . o 8 t r r 2 o X . . . . . . . . . . . . . . . . . . . . . . . X X 7 ..w.K.'.^.l. .c t r = O O *                                                                                                                                                                                                                                                                                             ",
"                                                                                                                                                                                                                                        # O . . . . . . + + 1 b b b m b f r o . . . . . . . . . . . . . . . O + 4 b V ) o.$.#.#.%.%.7.s.s.s.4.4.4.9.9.9.9.8.8.g.x.f.4.7.9.4.%.&.$._ _ V > . . . . . . . . . . . . . X * D ^ I I } 1.m.M.C.B.M.t.6.6.8.9.#. .z 8 , 0 F / -.>.,.y.<.w.%.2 & i Y ~ ..3.%.k X . . X > h F ~ ;.:.>.,.B.Y.L.g.k + . . . . . . . . X * 7 a :.L.Y.W.`.(.L.Z.D.D.A.A.G.n.,.,.,.n.[.[.C.,.<.y.0.0.2.+.d . . . . . . . o 8 r r y 3 o X . . . . . . . . . . . . . . . . . . . . . . . % ; q | q.U.`.`.x.~ h t r o O X &                                                                                                                                                                                                                                                                                             ",
"                                                                                                                                                                                                                                        o . . . . . . O # : y C C b b b N f o . . . . . . . . . . . . . . . O # 4 b Z Z ) o.@.&.%.%.4.s.f.%.+.' +.+...@.#.4.s.j.c.f. .+.#.4.&.&.&.$.O.) r . . . . . . . . . . . . . X ; j L L I } ,.m.C.C.V.B.1.<.6.w.w.8.#.x 8 - 0 D ^ >.>.<.<.,.w.%.> & h ! ~ ~ ( +.k X . . + * h D ~ :.:.:.<.C.Y.Y.l.k + . . . . . . . . . + # > x ~ | | -.,.n.A.D.&X[.D.D.A.n.m.n.m.[.[.n.,.>.<.C.B.6.@.g X . . . . . . X > r r r 3 o . . . . . . . . . . . . . . . . . . . . . . . . - 8 a :.u.I.#X_.g.T h s r + O X &                                                                                                                                                                                                                                                                                             ",
"                                                                                                                                                                                                                                      3 o . . . . . O O = y d b N b f f v y + . . . . . . . . . . . . . . . O + 1 1 2 1 2 t t h h h k M M M i i i 0 0 0 i h l E &.W z Y Q &.&.&.a.&.$.O.d X . . . . . . . . . . . . X % w J L I } ,.q.M.V.M.m.<.>.>.y.0.6.#.x , 7 0 D ^ >.>.<.<.<.w.4.8 & k ! ~ ~ ~ / k + . X + , c H | :.:.<.q.V.Y.Y.z.l + . . X o o . . . . . . . X X % * w i.B.Q.*X:X*X*X*X&X[.[.Z.Z.[.[.C.1.} ,.Q.}.r.4.l X . . . . . . X * r r r 3 = X . . . . . . . . . . . . . . . . . . . . . . . - k L l.E.R.'.^.g.F 0 t r X X + *                                                                                                                                                                                                                                                                                             ",
"                                                                                                                                                                                                                                      o X . . . . . O + y v f b b b b v y = . . . . . . . . . . . . . . . . O O O O O X X & & % % % % & - - * - * * * * * * ; * 8 * * 8 t M E W ) ) ) V 2 . . . . . . . . . . . . . . % w K P L I ,.1.m.C.m.m.1.,.>.<.<.:...k * 7 0 D ( :.y.<.<.1.w.4.8 * k ! ~ L J Q f + . . o , x J | :.:.<.m.V.Z.Y.z.z o . . o = : = + # + O . . . . . X * T 8.L.}.&X{.*X{.[.[.[.[.[.[.[.Q.C.,.1.Q.-XK.9.B X . . . . . . X * 9 r r 2 = X . . . . . . . . . . . . . . . . . . . . . . . 0 J >.R.).U.B.U.g.x q r > X X +                                                                                                                                                                                                                                                                                               ",
"                                                                                                                                                                                                                                    . . . . . . . . . # v N v f d v v v 2 + . . . . . . . . . . . . . . . . O . . . O X X + # = + + # # & + - t 0 9 9 8 7 7 * & % X % & * - 8 > > > : # . . . . . . . . . . . . . . . % w H G P ^ ,.,.m.V.M.m.m.1.1.1.1.y.X.h * 7 w J =.:.<.<.<.<.t.4.8 * l ! ~ ~ T B > . . . o , x J | 0.<.<.m.V.Z.T.z.z # + . # 3 f d r y 2 6 + . . . . . X > 9 x ^ >.,.m.Q.[.[.{.&X&X&X&X[.V.,.1.[.-XU.9.B X . . . . . . X * 9 r r 3 & X . . . . . . . . . . . . . . . . . . . . . . . h 6.r.E.'.U.u.u.g.z > & X . X +                                                                                                                                                                                                                                                                                               ",
"                                                                                                                                                                                                                                  . . . . . . . . O O + v N b f y 3 = # + . . . . . . . . . . . . . . . . . . O O + > 0 > = = = = # = - - ; t R ' / / ..( J F j i 0 i i t t r = + . . . . . . . . . . . . . . . . . . X 0 F a S L >.,.m.Z.V.C.C.V.V.C.m.0...0 & 7 w ~ ;.0.1.1.<.<.0.2.q - z Q / ~ R B > . . . X , x J ^ 0.0.1.B.Z.Y.T.z.z = + . o 3 m V m f d v y = O . . . . X . X & ; w i.B.E.W.[.[.[.[.[.Q.m.} } A.-XB.9.B X . . . . . . X > 9 r r r = X X . . . . . . . . . . . . . . . . . . . . . . z g.B.E.E.L.K.K.d.z = X . . X +                                                                                                                                                                                                                                                                                               ",
"                                                                                                                                                                                                                                  X . . . . . . . O + 2 C N b f y # . . . . . . . . . . . . . . . . . . . . . O X q ~ ^ S p 7 * * * - - 7 7 S =.r.m.m.M.C.M.M.t.>.^ =.=.( R z > = # X . . . . . . . . . . . . . . . . X > 0 w G L =.,.m.L.V.C.V.Y.Z.V.B.0.@.h * 7 j ~ ;.0.t.q.1.<.0.@.8 8 z Q / / / B > X . . X , x J ^ :.0.q.L.T.Y.Y.z.k + X . X : g W V m N b f y > = # + X O X X O X % 9 x J ^ >.q.L.T.W.Q.Z.n.n.Z.W.q.9.B o . . . . . . o > 9 r 3 3 = X X X . . . . . . . . . . . . . . . . . . . . X z e.U.E.I.U.U.l. .9 o . . . + -                                                                                                                                                                                                                                                                                               ",
"                                                                                                                                                                                                                                + X . . . . . . O + : y C N N b 3 X . . . . . . . . . . . . . . . . . . . . . O ; P L.T.1.^ G w w w w w w S L n.[.[.[.;X;X;X;X;X[.V.M.V.M.-.T i 8 > & + . . . . . . . . . . . . . . . . % 7 q S K ^ 3.K.I.I.K.L.T.Y.L.B.w.2.x q 0 D ~ ;.0.q.m.m.m.r.4.8 8 k E / / R M : . . . X 8 Y ~ =.3.<.q.L.T.Y.Y.z.k + + . X * g W o.) ) N b b f f r r r > o o X X . X X o * a | 0.r.L.E.W.Q.Z.Z.q.;.+.f O . . . . . . & 8 r r 3 : o X X X X X X X . . . . . . . . . . . . . . . . X D e.B.L.B.u.u.e.H * o . . . = y                                                                                                                                                                                                                                                                                               ",
"                                                                                                                                                                                                                                X . . . . . X X X 1 b N C N N b 1 . . . . . . . . . . . . . . . . . . . . . . O 7 I {.uX9X}.M.,.>.I I I I >.N.{.9X0XaXfXfXfXhXiXuX|.|.|.T.>.L G D j q * . . . . . . . . . . . . . . . . X X % * q 0 z Y T ~ J ~ -.-.^ | .. .z q w D ^ :.t.m.m.m.m.K.f.8 > k E Q R ! g o . . . X 8 ! X.-.0.<.q.Y.Q.Y.Y.z.k + + X X > M ! $.$.o.V b N N m M W _ V t > = o . . . . X = 8 0 i j J L y.<.y.L H B 5 . . . . . . . = r r r 3 = + X X X X X X . X . . . . . . . . . . . . . . . X D r.q.B.B.r.u.8.x X O . . . =                                                                                                                                                                                                                                                                                                 ",
"                                                                                                                                                                                                                              + . . . . . O X X o m Z V C N b d + . . . . . . . . . . . . . . . . . . . . . . . ; I {.9X0X8X[.Z.N.n.n.n.N.N.{.0XaXhXdXgXgXgXaXaXiX{.S.S.T.M.,.I } } L D & . . . . . . . . . . . . . . . . . . . . . . . . X & 7 0 q q q q 0 h 0 j J | :.q.m.n.M.Y.(.f.> - k Y Q ! z r o . . . X 8 Q ..-.<.,.m.Y.W.T.I.c.l X . . X > Y E Q _ W V m m M M U _ $.$.W k t : X X X X . . . . . . X ; D @.2.J h g : . . . . . . . = r y r 2 = + o = o X O O O O . . . . . . . . . . . . . . . % L B.q.C.I.I.I.l.z X . . . . =                                                                                                                                                                                                                                                                                                 ",
"                                                                                                                                                                                                                              . . . . . O O O + 2 V ) V m N d 2 + . . . . . . . . . . . . . . . . . . . . . . X ; P |.8X0X8X|.|.Z.N.N.N.N.S.8XaXhXdXgXgXgXdXaXaXuX{.S.|.8X8X;X;XuXpXuX).D X . . . . . . . . . . . . . . . . . . . . X X X = > r g k j 0 q w z F J L >.0.m.m.n.C.W..Xs.= - k Y Q ! z y # . . . X 8 Q ..-.:.<.q.V.L.C.B.j.h X . . X r W Y ! W W E M l l Y ! Q +.&.&.W B f = X X . . . . . . . . X t Q Q h > 2 + . . . . . . . = r y r = = + = 3 = + O O O O . . . . . . . . . . . . . . . * =.E.B.L.=X1X1X.XW X . . . . &                                                                                                                                                                                                                                                                                                 ",
"                                                                                                                                                                                                                            O . . . . . O O + # r V W V C v 2 = + . . . . . . . . . . . . . . . . . . . . . . X ; P S.8X0X6X{.|.S.S.[.{.[.{.9XhXgXdXgXgXgXhXrX0XiX{.S.{.iXfXfXBXBXBXBXNXq.7 X . . . . . . . . . . . . . . . . . . + # = : > r s g z H F j T  . .( | :.r.B.C.n.C.W..X%.= = t z ! Q B d o . . . X & k T ..:.:.:.0.y.>.=...9 X . . X s o.! ! W _ W M l k z ! / @.%.a.@.Q B g > + . . . . . . . . . o & * o X + + O . . . . . X = r r r = o o = r 1 o O O O O O . . . . . . . . . . . . . . * :.E.L.E.4X3X3X,Xo.X . . . . +                                                                                                                                                                                                                                                                                                 ",
"                                                                                                                                                                                                                            O . . . . . O o + = f V V V N d : + O . . . . . . . . . . . . . . . . . . . . . . X ; L |.6XqXOX{.{.|.[.;X8X9X9XiXfXgXgXgXgXgXsXrX0XuX{.S.{.aXgXBXBXBXBXBXBX[.P 7 . . . . . . . . . . . . . . X + + X + = > r s g s h z H H J  ...X.^ =.0.r.V.V.C.C.Q._.' o = 8 k B B c 3 + . . . . + > x  .2.2.3.3.;.| ~ T 9 o X X & B o.Q Q W _ E M M z z Y +.#.%.7.%.@./ _ m 3 o . . . . . . . . . . . . . X : o . . . . O o > r r r > & = 3 d 2 o O O O O O . . . . . . . . . . . . . X * ;.).).'.`.#X<X,XQ X . . . . X                                                                                                                                                                                                                                                                                                 ",
"                                                                                                                                                                                                                          + . . . . . . + # = r N V N m r : # @ O . . . . . . . . . . . . . . . . . . . . . . X ; L |.6XqX6X8X8X{.D.{.*X8XjXaXgXgXdXdXdXdXdXaXaX9X{.S.[.iXBXBXBXBXBXBXBX9X,.G % . . . . . . . . . . X . X o = = X X > r g m B M z x D D L | | ^ ^ =.3.q.C.Z.Z.Z.W.`.Q . X - s h s 9 = . . . . . X + 9 Y /  .X.X.( J J z : o + & 8 !  .Q Q Q ) V m l z H / 7.7.7.d.7.#.+.@._ m > X . . . . . . . X % , 0 h z B > . . . O # : > r r e 2 > e y y 2 # o O O O O . . . . . . . . . . . . . X w r.=X).).E.U.P./.E . . . . . %                                                                                                                                                                                                                                                                                                 ",
"                                                                                                                                                                                                                        X . . . . . . . # 1 r m m m f f 3 1 1 @ . . . . . . . . . . . . . . . . O O . . . . . . ; L S.6X6X6X8X8X{.S.S.{.8X9XaXgXgXdXdXdXdXdXhXaX8X[.A.S.9XgXBXBXBXBXBXBX9XM.5.- . . . . . . . . . . X X o = r r : : t k l B E E Y c D J ^ | L L ^ =.3.0.m.Z.Z.Z.W.'.M . . = d d d r o . . . . . . . X * > > : : * & & : o X + & t Q R +.o._ W B l z Y Q 4.f.j.v.f.d.7.#.#.&.Q l & . . . . . . . X j =.r.K.K.0.D X . . O = : > r r r r e r r r 2 # o O O O . . . . . . . . . . . . . . % L ).-X).).E.K.r.x.m . . . . X                                                                                                                                                                                                                                                                                                   ",
"                                                                                                                                                                                                                        X . . . . . O + 3 N V ) V k r r 3 1 # O . . . . . . . . . . . . . . . . O O . . . . . + 7 I |.6XqX6X8XuX{.S.S.D.{.8XaXgXdXgXdXdXdXdXhX0X{.[.Z.A.6XaXgXkXBXBXBXBX6XN.3.8 . . . . . . . . . . . O # > b m t s l z z z H F x a a K | | L L ^ -.y.t.m.Z.Z.Z.W.~.h . . # 1 5 5 1 o . . . . . . . . . . . . . . . . . . . X > M Q ! R _ W E M h l Q 4.j.x.x.c.x.g.j.8.2.%.&.W s = . . . . . . & L m.Q.Q.T.Y.:.> . . + : > > 9 r r r r r y r > o o + O . . . . . . . . . . . . . . . q 0.}.=X).).E.r.6.#.r . X . & 9                                                                                                                                                                                                                                                                                                   ",
"                                                                                                                                                                                                                      + . . . . . . # d M E O.o.W f 2 : 2 1 + . . . . . . . . . . . . . . . . . O O . . . O + o q I [.qXqXqX0XiX8XS.S.D.{.{.0XdXgXdXdXdXdXdXhX0XS.N.N.G.F.rXdXgXkXBXBXgX{.n.[ 8 . . . . . . . . . . . O # 3 N V l l z x c c x F J J J ^ ..;.| ^ ^ -.0.t.C.Y.Y.Z.W.~.h . . O O $ $ $ O . . . . . . . . . . . . . . . . . O X X 8 W @. .R +._ M k s x  .f.x.c.c.!.c.x.x.g.8.8.7.+.m > . . . . . . % K B.Z.Z.[.-X'.B X O # : > > 9 r r r r r r r : o o + O . . . . . . . . . . . . . . . i u.W.}.}.).E.r.6. .> . . X 9 B                                                                                                                                                                                                                                                                                                   ",
"                                                                                                                                                                                                                      . . . . . . + r ) o.Q o.Q l > = # = # O O . . . . . . . . . . . . . . . . O O . . . O + # 7 I [.0XjXjXjXiX8XS.Z.S.[.{.0XgXgXgXdXdXdXdXhX8Xn.1.n.n.F.rXdXgXkXkXBXBX*Xm.( % . . . . . . . . . . . . o > f m l l z c k x x T @.2.9.6.3.;...^ ^ ;.y.t.C.Y.Z.Z.T.!.t . . X O X O . . . . . . . . . . . . . . . . . . . O & 8 h +.%. .T W E l l H  .7.j.c.c.!.!.!.c.x.g.g.f.s.&.t % X . . . . . X a 1.Z.Q.&X:X1X%.o o + # : > 9 9 r r r r r r > = o + O . . . . . . . . . . . . . . . h r.T.).=X).L.0.0.@.> . X X 9 B                                                                                                                                                                                                                                                                                                   ",
"                                                                                                                                                                                                                    # . . . . X X & l _ o.Q Q Y k > = # # O O . . . . . . . . . . . . . . . . . . . . . . . O + ; L [.jXaXjX8X8X{.A.A.Z.S.*XiXgXgXgXgXdXdXdXaX8Xn.,.,.I G.rXdXgXgXkXkXfXD.,.T X . . . . . . . . . . . . O = r r t s k k k h j D ( ..-.-.-...| | =.-.:.<.m.Z.Z.Z.T.K.8 . . . X . $ $ O O O . . . . . . . . . X . . . . . o r M Q &.#. .H z M Y Q +.7.f.j.x.z.!.!.!.!.z.x.g.j.d.%.z 9 = X + + . . X a <.Y.[.*X:X2X/.l o $ O # > 8 9 8 > > r r > : = o + O . . . . . . . . . . . . . . . i r.Y.W.=X).B.y.6. .> . X X , z                                                                                                                                                                                                                                                                                                   ",
"                                                                                                                                                                                                                    # . . . . X X 9 l Q +.o.! l f r = # + . . . . . . . . . . . . . . . . . . . X . . . . . . . % L [.0X0X8XOX{.|.Z.N.Z.S.*XiXgXgXgXgXgXdXhXaX{.>.I I I G.rXdXdXgXgXgXaXN.[ F X . . . . . . . . . . . . . + = : 8 0 h k h h h j F J J J J J L L ^ =.>.,.m.C.Z.Z.Y.e.* . . . . . $ + + + O O . . . . . . . . X . . . . . o s E #.4.#. .H x Y Q &.7.d.f.j.g.z.c.!.!.!.!.P.z.h.j.s._ M > & + + . . X q | R.W.&X:X2X1X+.= O . o > 8 8 > > > > > = o o o + O . . . . . . . . . . . . . . X h r.V.W.-X).q.;.-.R > . X X >                                                                                                                                                                                                                                                                                                     ",
"                                                                                                                                                                                                                    # . . . X % r B !  .+.o.M s r y = + O . . . . . . O . . . . . . . O X . . . X O . . . . . . X G T.qX6XOX{.D.S.Z.N.N.Z.{.iXgXgXgXgXgXdXaXjX[.L H L I F.rXdXdXdXhXaX9X} G 0 X . . . . . . . . . . . . . . X + & , 0 t h s t t k z z z j D J L L ^ :.t.m.V.Z.Z.Y.3.X . . . . . O + + + @ O . . . . . . . . . . . . . X = s H 5.2.#.+.E k Y / %.s.d.d.g.g.z.z.!.!.!.!.P.U.z.z.j.4.+.k - & X . . . & D u.Q.&X;X:X;X2.& O . + : > > : : : : : o o + o + O O . . . . . . . . . . . . . X j B.C.Q.-XW.0.;...T : X X X 8                                                                                                                                                                                                                                                                                                     ",
"                                                                                                                                                                                                                  # + . . . X 8 B ! Q R  .Q B > = 1 + . . . . . . . . O . . . . . . O O O X O O O O . O . . . . X w N.6X6XOX{.S.S.Z.N.N.Z.{.iXgXgXgXgXgXhXtX0XW.G i S I F.rXdXdXhXrX0X8XI w * . . . . . . . . . . . . . . . . . X & 8 r r 9 9 9 r d f s t t F ~ ( ^ w.K.K.U.E.T.L.@.. . . . . . O + + + + O O X X . . X O O O . . X . X 9 Y ..8.9.9.#.E j F R %.7.8.e.e.g.l.z.P.!.^.^.I.P.U.z.x.f.s.V > X X . . . X h 0.Q.D.A.&X;X2.% O X . & > > : : : : = o o o o + O O . . . . . . . . . . . . . X D K.C.T.-XW.0.2.2.Y - X X % 8                                                                                                                                                                                                                                                                                                     ",
"                                                                                                                                                                                                                X . . . . . X 8 M Y z z ! z l g : + O . . . . . . . . . . . X X O O O O X X O O O O O O . . . . . 7 ,.6X8X8X{.|.S.Z.N.N.Z.{.iXgXgXgXgXdXhXrX0XW.S q p I zXaXdXdXhXjXqX{.P 7 % . . . . . . . . . . . . . . . . . . X X & & o o + + + + + + + = > 9 9 h k k F Y J F r . . . . . $ + $ o O O O O O . . . . X O . . . . . * Q j.g.g.6.8.4.Q Y Y T +.7.9.8.e.g.l.P.!.^./.'.(.I.P.U.z.z.f.Q q % X . . . X q 2.E.Z.A.&X-X6.* O . . X : : : : > > : o o o o + O O . . . . . . . . . . . . . X J K.C.Y.}.E.<. .Y t - X X & 9                                                                                                                                                                                                                                                                                                     ",
"                                                                                                                                                                                                                X . . X + + : t l M z B E l s r = O . . . O O O O O O . . . O O O O O O X X O O O O O O . . . . . ; I |.8X8X8X{.|.Z.N.N.Z.|.uXfXgXgXgXdXhXrX0XW.S 7 w I zXaXdXdXaX0X{.[.L & . . . . . . . . . . . . . . . . . . . . . . . . . . . . . . . . . . . . X . . . X X . . . . . . O @ @ @ $ O O O O X . . X X X + O . . . . 7 @.x.l.l.e.8.%.+.+.Q Y  .#.9.8.e.g.l.P.^./._._.'.^.^.P.U.z.g.4.Y h r # . . X * L R.Q.[.&X-XU.t X . . X = - = : > > : o o o o + O O . . . . . . . . . . . . . & J K.m.L.).Y.-.Y 0 & = + o *                                                                                                                                                                                                                                                                                                       ",
"                                                                                                                                                                                                              o . . X + : > r l M M l B W B r o + . . . . O O O . . . X X X . . . . . O . O O O O O O O . . . . . % P N.|.{.8X8X|.Z.N.N.N.S.8XhXgXgXgXdXhXjX0XW.S 7 w n.6XtXhXhXrXqXF.Z.L X . . . . . . . . . . . . . . . . . . . . . . . . . . . . . . . . . . . . . . . . . . . . . . . . O + @ @ @ O + o o + o > 3 = X X X + : 3 b  .j.z.U.l.g.f.%.+.$.o.R +.7.9.8.e.g.l.P.^._.`.`._.(.^.^.I.U.h.g.2./ E 1 . . X % J '.[.[.[.-X_.Y X . . . o & = : : : = o o o o + O O . . . . . . . . . . . . X x -.B.q.B.).L.| Q d + + = e t                                                                                                                                                                                                                                                                                                       ",
"                                                                                                                                                                                                            + . . . + = r r t m B m m V E m > X X . . . O O O O . . . . X X . . . . O O . O O O O O . . . . . . . % w I n.Z.;X8X{.Z.N.N.N.S.6XaXgXgXgXdXhXjX0X].w 7 P G.6XjXhXhX0XOXN.m.F . . . . . . . . . . . . . . . . . . . . . . . . . . . . . . . . . . . . . . . . . . . . . . . . O $ + + + o o # # o = t k C 2 X X X > E $.f.c.!.P.P.U.h.g.%.E _ _ +.%.7.8.8.e.g.x.P./._..X.X`._.'.'.^.P.l.l.8.#.' u . . X X j E.&XD.[.-X#X@.& . X . X & = : : = % o o o o + O O . . . . . . . . . . . . % T 6.q.q.B.'.U.^ Q g o + - M Y                                                                                                                                                                                                                                                                                                       ",
"                                                                                                                                                                                                            . . . + 2 r y f f f m l l m g r = + O . . . O O O O O O O O O O O . O O O O O O O O O . . O . . . . . X ; p P M.{.8X*XS.Z.N.N.G.{.hXBXgXgXgXhX0X8XT.w p I F.qXjXaXjX6X|.,.( t . . . . . . . . . . . . . . . . . . . . . . . . . . . . . . . . . . . O + + + O . . . . . . O O o o + + # = & & = > M ' W V : . X X g #.8.g.!.~.~.P.K.h.g.%.t t E &.4.7.9.8.f.f.l.z.^._..X>X#X`._._.'.I.U.l.e.2.+.V 1 . X X q <.Q.D.[.&X=Xz.t . . . X & - : : & & o o o + + + O . . . . . . . . . . . . %  .6.<.<.B.'.P.^ E r X X - k                                                                                                                                                                                                                                                                                                         ",
"                                                                                                                                                                                                          X . . . = v v f f b d f g d r > = o + . . . O . O O O O O O O O O O O O O O O O O O O O . O O . . . . . . X ; G <.[.8X*X{.S.G.G.G.F.0XjXaXhXhXjX7X8XT.{ w 1.{.6X7XjX6XS.Z.I p ; . . . . . . . . . . . . . . . . . . . . . . . . . . . . . . . . . . . O + + + + + O O O O O + + = > > : : > t t 0 h +.&.W M : . . : Y  .9.g.!./.(.U.K.h.g.@.& & M &.%.7.7.8.f.g.x.z.^._.`.>X>X>X>X`._.^.I.K.r.6.2.a.n . . X * L Z.A.D.[.=X!.z . . . X = = : = & & & & # # + + O . . . . . . . . . . . . %  .6.,.,.u.'.P.~ M : X X % q                                                                                                                                                                                                                                                                                                         ",
"                                                                                                                                                                                                        X . . . X 1 b N f d f f d r r > : = + O . . . O O O O O O O O O O O O O O O O O O O O O O . O . . . . . . . . X 7 S ,.T.[.|.|.S.A.G.S.F.F.F.OXqX6XOX8X|.P P n.S.OXqX0X[.,.[ { % . . . . . . . . . . . . . . . O O O O . X X . . . . O . . . . . . . . . O + + + + + + # # # = : e f Y Y z x U +.@. .~  .@.Y s = . . d Q T ..h.~./.^.K.h.g.g.+.& & l &.4.7.8.f.j.g.x.z.^._.`.>X>X>X>X>X`.^.I.P.r.6.7.s.b . . . % K C.Z.[.[.).P.E X . . X & = = = = & & & = # + + O O . . . . . . . . . . . X ~ 6.>.>.u.'.U.~ z : X X & 0                                                                                                                                                                                                                                                                                                         ",
"                                                                                                                                                                                                        X . . . + 2 d v d y d d y 2 2 = = = + O . . . O O O O O O O O O O O O O O O O O O O O O O O O . . . . . . . . . X % q ^ T.|.|.S.S.S.S.S.F.F.OXOXOXOX8X|.I P n.S.S.|.;X].J i 7 X . . . . . . . . . . . . X X O O O O O O O O O . . . O O . . . . . . . . + + + # # # # = = < 3 y M T Q Q T J ( 3.w.0.6.2.@.h & + . o V a.@.-.h.~.(.P.h.h.g.f.+.* & z &.%.7.8.f.g.z.z.!.^._.`.>X#X#X>X>X>X_.^.P.l.6.7.s.C . . . X D C.Q.[.Q.W.^.7.& . . X X & = = = = = = = + + + O O . . . . . . . . . . . % ~ e.<.>.u.^.e.J M : . X &                                                                                                                                                                                                                                                                                                           ",
"                                                                                                                                                                                                      X . . . . = > y d f f r > > = 3 - # # . O . . O O O O O O O O O O O O O O O O O O O O O O O O O . . . . . . . . . . . % 0 L 1.Y.S.S.S.S.F.F.F.{.F.F.OXOXS.n.,.n.N.n.I I ( 8 % X . . . . . . . . . . . . . X O O O O + + @ + O O O O O O O . . . . . . . . + # # # # # = 6 = = r N Y T J J J J ^ w.r.q.0.6.@.k X . . & _ s.4.8.h.P.(.P.h.h.g.7.o.- - B &.%.7.8.g.g.z.z.!.^._.`.#X`.#X#X>X#X_.^.~.l.w.4.s.V . . . . 0 r.W.Q.Z.Y.I.f.8 . . . X & = = & = = = = + + + O O . . . . . . . . . . : q 6.'.E.B.B.^.8.j m : . . %                                                                                                                                                                                                                                                                                                           ",
"                                                                                                                                                                                                    + . . . X o 3 r f f b f r = = = 2 < # O . . X O O O O O O O O O O O O O O O O O O O O O O O O O O O . . . . . . . . . . . % w P y.V.S.|.F.S.S.S.G.S.S.S.S.S.G.N.N.n.^ p 7 * . . . . . . . . . . . O O . . O O O O O O + @ @ + + O O O O O O . . . . . . . . O + # = = # 6 1 1 > k _ +. .R J L L >.r.u.q.0.2.+.t X . . X B s.d.w.g.P.~.P.h.g.8.%.E & 8 Y #.#.2.8.g.g.z.P.~.^._..X>X`.`.`.`.`._._.^.P.g.d.a.C . . . . & ^ K.V.C.C.B.e.h . . . X o = = & = = = = + o + X . . . . . . . . . . + t D w.>X<XE.R._.8.j d o . . %                                                                                                                                                                                                                                                                                                           ",
"                                                                                                                                                                                                    . . . . o r m g f b b d 3 + + < 1 = + O . . X O O O O O O O O O O O O O O O O O O O O O O O O O O O . . . . . . . . . . . . % q S L n.Y.Z.N.Z.N.G.G.G.G.Z.Z.Y.Z.M.m.T * X . . . . . . . . . . . . O O O O O O O + + + + + + + + O O O O O O . . . . . . . . O O o = = # # 2 d t F +.%.#. .^ ^ =.0.r.u.r.w./ E 8 . . . . s s.j.g.g.g.l.z.j.3.s.&.l & r Q @.#.4.8.d.g.U.!.^.^.`.>X>X>X`._._._.`._.^.!.z.f.&.b . . . . . j w.M.B.M.B.g.B . . . . + = = = = = = # + + O X . . . . . . . . . . X i K q.).=X`.(.^.7.z d o . . X                                                                                                                                                                                                                                                                                                           ",
"                                                                                                                                                                                                  + . . . & r B W ) ) N f d 2 + # 1 6 + O . . . O O O O O O O O O O O O O O O O O O O O O O O O O O O X . . . . . . . . . . . . . % % 7 w S K ^ t.M.M.H.M.n.1.<.y.:.[ ( h + . . . . . . . . . O O O O O O O O O O O + + + + + + + + @ O O O O O . . . . . . . . . + # = = = o r l z T T R /  .( | :.w.r.u.U.8.x h - . . . X l f.g.g.e.w.z.h.d./ ! B 3 % s / ..2.9.8.8.g.P.^.'.'..X>X>X`._._._.'.`.`.'.~.z.f.&.C X . . . . w 3.M.K.C.B.l.Q X . . . X # = : = = & o o + O X . . . . . . . . . . % j L 0.E.).E.I.P.2.c 3 o . . X                                                                                                                                                                                                                                                                                                           ",
"                                                                                                                                                                                                : + . . = m B W W W ) Z C d 2 # # # + O . . . O O O O O O O O O O O O O O O O O + + + + + + + + O O . . . . . . . . . . . . . . . . . . . . X & 7 0 i i i q 7 7 ; % X X . . . . . . O X O O . O O O O O O O O O o o + + + + + # + # + O O O O O . . . . . . . . O + + = = = > l E / / D D D T ( | 6.r.0.6.j.+.8 * o . . X X z f.8.g.g.d.j.j.s.Y 8 * o & q ~ ..2.8.e.g.P.^._.>X>X>X`.`._._._._.'.`.`._.~.P.j.&.) 3 . . . . q -.r.K.V.B.l.+.= . . . X # = : > = o o + O O X . . . . . . . . . . , ~ -.0.B.V.B.r.l.X.* X . . . %                                                                                                                                                                                                                                                                                                           ",
"                                                                                                                                                                                                # + . + f o._ ! Y ! W V b 3 1 = + + O O O O O O O O O O O O O O O O O O O O O O + + + + + + + + O O . . . . . . . . . . . . . . . . . . . . . . . . X X X X . . . . . . . . . . . . O O O O . O O O O O O O O + o o + + # # # # # # # O O O O O . . . . . . . . O + + - e m W +.#.2.@.T D G J X.;.0.r.:.K R h % o o + o > t E 7.8.e.g.8.4.f.&.9 % o : s a | ;.9.g.z./._..X>X>X>X.X_._./.^._._._._.`._./.!.j.%.O.g X . . . * ^ r.M.M.r.w.+.e . . . X # = : : : o + + O O X . . . . . . . . . . q 6.w.t.u.q.>.<.l. .X . . . . +                                                                                                                                                                                                                                                                                                           ",
"                                                                                                                                                                                              # + O . o M o.Q Q E E V f 2 # + o O O O O . . . O O O O O O O O O O O O O O O @ + + + + + + + # + O . . . . . . . . . . . . . . . . . . . . . . . . . . . O . . . . . . . . . . . . . . . . O O . O O . . . O O + + + + # # # # # # # # + O O O O X . . . . . . O + = ; 8 U &.s.9.9.7.4...J K ^ 2.6.w.l.;.a z - X X + X 9 Q &.&.#.8.8.d.2.@.a.) o X o > z T X.6.e.l.!././._./.^.^.^.^.^.^./././._._..X_./.P.x.s.&.C + . . . % J r.M.m.r.6.+.k X . . X o = : > : o + X X X X . . . . . . . . . . 0 w.r.t.B.q.>.r.^.#.% . . . . +                                                                                                                                                                                                                                                                                                           ",
"                                                                                                                                                                                          o X O O O . - V W _ R ! E N r : + + O O O O O X X . O O O O O O O O O O O O O + + + + + + + + + # + + O . . . . . . . . . . . . . . . . . . . . . . . . . . . . . . . . . . . . . . . . . . . . O O . O O . . O O O + + + # + # # # # # + + + O O O X X X . . . . O o = > 8 q / 4.8.9... . ./ J J | 6.w.e.g.#.i u = X X + % z 4.s.7.2.9.8.8.#.T Y u O o > s  .#.;.6.9.8.e.g.e.e.6.2.3.6.8.e.g.z.P.!.^././././.!.z.f.s.V + . . . X D 0.r.r.0.3. .B o . . . + = : > : o + X + X X X . . . . . . . . . 0 q.q.<.q.0.1.(.>Xs.o . . . . X                                                                                                                                                                                                                                                                                                           ",
"                                                                                                                                                                                        o O . . + : 2 t W _ Q Q ! V d = # + O O O . . . . . . O O O O O O O O O O O O + # # # # # # # # # # + + O . . . . . . . . . . . . . . . . . . . . . . . . . . . . . . . . . . . . . . . . . . . O O O O O O O . O O O + + # # # # # # # # # # + @ O O O O O O O O o # = r t 0 j @.d.9. .D j x D ~ ..;.6.w.g.j.Q > 1 = . X % 9 Q f.7.9.2.9.d.s.@.i 8 : o o g ! #.d.8.8.6.6.8.6.;...............;.2.8.g.l.P.!.^.!.!.c.x.f.W o . . . . j 6.r.q.6.=.J Q 2 . . . X = > : : & + + + X X X . . . . . . . . X j B.B.<.<.,.t.`.>Xf.o . . . . X                                                                                                                                                                                                                                                                                                           ",
"                                                                                                                                                                                      # O . . . > B E Q +.+.+.W Y N r + o + O . O . . . . . . O O O O O O O O O @ + # # # # # # # # # # # # + O . . . . . . . . . . . . . . . . . . . . . . . . . . . . . . . . . . . . . . . . . . . O O O O O . O O O O O O + # 6 6 6 1 1 1 1 # # # + + O O O O O O O O o = & r x j ( d.j.g.H q q w a ~ ;.2.3.6.g.s.k + + + o & > z / 4.4.7.2.@.d.s.' 9 * - r f Y +.2.f.f.8.8.8.8.8.9.6.3.6.3.2.2.2.2.2.6.6.6.e.l.z.P.!.c.x.f.o.= . . . . 8 X.0.0.:.| ~ +.d . . . X : 2 : : = o + + + X . . . . . . . . . X x U.L.u.r.q.q.(.>Xv.o . . . &                                                                                                                                                                                                                                                                                                             ",
"                                                                                                                                                                                    + . X X . X h @.@.+.@.+.W E m u 2 + + O O . . . . . . O O O O O O O O O $ o + # # # 6 6 6 6 # # # # # # # O . . . . . . . . . . . . . . . . . . . . . . . . . . . . . . . . . . . . . . . . O O O O O O O O O O O O O O @ # # 1 1 1 1 1 1 1 1 6 # + + O O O O O o o o o & % t R X.2.j.h.j.g % q a D ^ ;.3.3.3.8.a.2 . O X > k Y / ~ @.2.#.+. .s.a.Y 8 * * t B W %.4.8.8.8.e.g.g.g.g.g.g.e.8.8.8.9.9.8.6.6.3.8.e.e.g.j.x.j.f.O.r X . . . X j =.>.:.=.X.&.V O . . X : 2 : : : = o + O X X . . . . . . . . . x U.L.B.B.R.E.'.^.%.o . . X 8                                                                                                                                                                                                                                                                                                             ",
"                                                                                                                                                                                  X X . . . X r Q 2.4.+.+.Q E m u r = + O O O . . . . . . O O O O O O O O o o + + # # # 6 6 6 6 6 6 # # # # # O . . . . . . . . . . . . . . . . . . . . . . . . . . . . . . O O . . . . . . . . O O O O O O O O O O O O O + + + # 1 1 5 5 4 1 1 1 1 # + + @ O O O o o o o & * - k  .7.7.j.j.d.s % q J ~ ( ;.3.3.6.8.O.= . . . 3 E +.@. .@.#.#.@.! _ M 8 0 9 q U T R @.2.6.8.g.g.l.l.l.l.l.l.l.z.z.h.g.e.w.w.w.8.e.e.w.9.8.g.j.d.a.b + . . . . 7 P L L | X.#.E o . . X = 2 : : : : # o O X X . . . . . . . . . j K.U.B.B.).<X`.g.Q X . . &                                                                                                                                                                                                                                                                                                               ",
"                                                                                                                                                                              # + . . . X : k / 2.2.4.&.W M k r 2 = + O O O . . O O . O O O O O O O O O o + + + + # # = = = # # # # # # + + O O . . . . . . . . . . . . . . . . . . . . . . . . . . . . . . . O . O O O . . . . O O O O O O O O O O $ + + + + + # 1 5 4 3 3 5 2 1 : + + O O O + + O o = > t s h M +.%. .Q +.+.r * i / / X.;.3.3.9.4.N . . . . 3 Q @.%.#.+. .&.o.i e - X 0 0 x +. .#.2.2.6.e.g.z.P.P.P.P.P.z.P.!.P.P.U.l.l.l.l.l.z.z.g.8.8.8.8.4.&.V - . . . . % S S K K ^ @.M + . . X = : : : : = = o + X . . . . . . . . . . h u.V.q.C.).1X'.4.Y o . . -                                                                                                                                                                                                                                                                                                               ",
"                                                                                                                                                                            X . . . . + : E 4.7.2.4.+.Q s r y r : o X O O O . . O O O O O O O O O O O $ o + + # # = = = 6 = = # # # # # + + O . . . . . . . . . . . . . . . . . . . . . . . . . . . . . . O O O O O . O O O O O O O O O O O O O O O $ + + + # = 1 2 4 4 4 3 5 2 1 6 + o O O O o o o = > s B E ! ' @.Q h * & 9 8 q F / ..-.;.6.3.9./ = . . . . > R +.+.+.R !  .M > X X & k Y T @.4.8.g.l.l.z.P.^.^.I.P.I.I.I.I.I.!.I.I.I.I.P.P.I.P.!.z.g.w.6.5.@._ V = . . . . X w L L L -.2.F % . . X & = : : = = # o + X . . . . . . . . . . h r.C.B.C.E.=X`.#.s X . . -                                                                                                                                                                                                                                                                                                               ",
"                                                                                                                                                                          . . . . . . X 9 @.f.f.4./ Y m 9 r r 2 : o X . . . . . O O . O O O O O O O O + + + # = 6 1 1 1 6 = = = # # # # + O . . . . . . . . . . . . . . . . . . . . . . . . . . . . . . O O O O O O O O O O O O . . O O O O O O O O + + + # : 1 5 4 y d d 3 3 5 2 1 # + O O o o # 1 r s z ! R R +.$.z , & o & 8 k Q ..@.;.2.6.2.4.Y X . . . . > Q +.+.+. .! B s 8 & % 0 E @.@.4.d.g.z.!.I.^.^._._.^.!.^.^.^.^.^.^.^.^.'.^.^.'._.^.~.!.z.g.w.3./ ! M = . . . . . w ^ -.;.3.6...s X . . o = > : = # + + O . . . . . . . . . . X a 0.B.V.L.E.).'. .* . . X &                                                                                                                                                                                                                                                                                                               ",
"                                                                                                                                                                      = X . . . X . . * x +.7.f.%.Y s d 3 3 2 = + O X . . . . O O O O O O O O O O O + + # # = 1 1 2 2 1 1 1 6 6 1 1 1 # O . . . . . . . . . . . . . . . . . . . . . . . . . . . . . O O O O O . . O O O O O O O . O O O O O O O + + + + # = 1 4 y n n d d y 4 3 5 1 # + o o o o : r s k B ! ! R Q Q 9 & : = > l Q / ..2.3.6.2.+.U e . . . . . t Q  .+.#.+.! s & & > q l ! +.#.9.8.g.z.!.I.!.^.^.^.^.^.^.^.^.^.^.^.^.'.`._._.#X>X_.'.^.~.P.j.w.#.E M - . . . . . p ..3.6.w.e.g.o.o . X o = > : = o # + O X . . . . . . . . . . h t.V.R.E.).).(. .: X . . %                                                                                                                                                                                                                                                                                                               ",
"                                                                                                                                                                    & X . . . . + % % a .... .&.@.E d 3 5 1 = o O X X . . . . . . X O O O O O O + + + # # # = 1 5 4 4 4 2 1 1 1 1 1 1 # O . . . . . . . . . . . . . . . . . . . . . . . . . . . . O . . O O O O O O O O O . O O O O O O O @ O O O + + # # 1 5 y n n n n d d 4 4 1 + + + o + # = 3 d s h c H R ! Y l , & > > r _ s.....2.0.w.@.h = X . . . . = V W R +.@.o.B : o & 9 l E Q +.@.4.9.8.g.h.h.l.P.P.P.P.I.I.I.I.^.^.^.^.'._.`.#X#X<X#X_._.'.^.!.j.8.' M 2 . . . . . 7 2.g.e.h.l.z.%.& . X + = > > : = # + O X . . . . . . . . . X x P.E.).).).=X'.+.r + . . &                                                                                                                                                                                                                                                                                                               ",
"                                                                                                                                                                  X X X . . . . - t w L 8.9.@.Q Y B d 3 5 1 + O O X X . . . . . . X O O O O O O + + + + # = 1 1 5 4 4 4 4 5 1 1 1 1 1 # . . . . . . . . . . . . . . . . . . . . . . . . . . . . . O . . O O O O O O O O O . O O O O O O O @ @ O O + # 1 1 4 y n n v n n f n 4 4 : O O O + # = : r s s k k H R Q E l 0 r d d g Y ....-.3.0.w...> . . . . . : f V W Q +.o.W s & o = e m E W @.#.9.9.2.9.3.6.e.g.h.g.h.l.P.P.P.I.^.^.^.(.'._.#X#X<X=X#X`.`.(.^.P.g.%.E e . . . . . 7 #.z.r.u.l.P.4.= . X + = > 2 > = # o + X . . . . . . . . . X H R.).=X).).=X'.W 2 + . &                                                                                                                                                                                                                                                                                                                 ",
"                                                                                                                                                                X . X . . . O & l  .~ ..9.4.@.Y B m r 5 1 # o O . O O . . . . . O O O O @ @ + + + + # # = 1 1 2 5 4 4 4 4 5 2 1 1 1 6 + O . . . . . . . . . . . . . . . . . . . . . . . . O O O O O . O . O O O O O O O O O O O O O O @ @ @ @ @ + + 6 5 4 y y n n d y d v n 1 # + O . X o : > r t s k z x F T E z z k m V B z Y X.-.-.0.0.w./ % . . . . . 2 m V ! Q _ ) C 3 o o = r M V W @.#.4.4.2.2.2.6.w.e.e.e.e.h.U.P.I.I.^.^.^.(.'.`.#X<X<X1X<X1X#X).(.'.!.g.&.l X . . . . % / l.r.u.u.z.s.= . X # : > 2 > = # + O X . . . . . . . . . X j u.E.=X).).=X'.B # + . &                                                                                                                                                                                                                                                                                                                 ",
"                                                                                                                                                              X X . . . . . : l Q @.X...2.@.+.E k g d 3 = + $ O . . . . . . . . O O O $ @ @ + + + + # 6 1 1 2 4 4 4 4 4 5 2 1 1 1 1 # + O . . . . . . . . . . . . . . . . . . . . . . . . O O O O O O O O O O O O O O O O O O O O O @ @ @ @ + # # 1 6 5 4 4 4 3 5 4 d d d 5 + O . . . X > d s s g h k x z z z k k z z B E E Y T ..;.:.0.r.8.! X . . . . . > m V E W _ m 3 = o : : y M E _ @.#.4.4.2.4.2.6.w.e.e.e.g.h.z.P.I.I.^.^.'.'.).`.<X4X2X2X4X4X=X).).'.^.z.f.W r O . . . X U g.r.q.r.z.f.> . X & > > > : = o + O . . . . . . . . . . & a >.R.$X).).=X(.M O . . *                                                                                                                                                                                                                                                                                                                 ",
"                                                                                                                                                            & X . . . . X : B &.#.@. ./ / Y E B d d 4 : o O O O O O O O . . . O O O $ $ @ + + # + + # 1 1 5 4 4 4 y 4 4 5 2 1 1 # 1 # + O . . . . . . . . . . . . . . . . X . . . . . . . O O O O O O O O O O O O O @ @ O @ @ @ @ @ + # + O # # # 5 1 1 4 4 5 1 = : v v y : O . . . . X 2 k s s l h z z z H s 7 8 h z M Y E Y ~ ;.3.0.r.h.7.l . . . . . . e m B M B V r = # : 3 2 y C ) o.@.#.%.4.4.4.3.8.g.g.g.g.g.l.z.P.I.!.^.^.'.'.).=X4X3X5X3X3X4X=X`.`.).'.!.x.s.o.1 . . X X k f.u.B.r.h.4.> . X = > > > : = o O X . . . . . . . . . X q L >.R.=X#X=X=XI.k . . . &                                                                                                                                                                                                                                                                                                                 ",
"                                                                                                                                                        % X X X . . . X > M +.@.#.@. .Q Y l f f 4 2 : # o O O O O O O O . . . O O O $ $ + + + # # # 1 1 4 4 4 4 y y 4 4 5 2 1 1 # # + O . . . . . . . . . . . . . . . . . X X . O O . . . O O O O O O O O O O O O O @ @ @ @ @ @ @ @ # # # @ # # 1 1 1 1 1 1 2 5 2 2 v f 3 = O . . . o = > g s h l k k z z z q 7 7 k z z Y T R / 2.6.6.0.w.@.> . . . . . = s m B l s k r = = : 3 3 f N W _ +.+.#.4.4.7.8.d.g.g.g.g.g.z.P.P.P.!.^.^.'.(.).=X4X3X3X3X3X4X<X=X`.)._./.c.c.v.v . . X X t 8.U.L.0.^ j % . X = : > : : # o O X . . . . . . . . . X x | >.R.).).=X1X^.k . . . &                                                                                                                                                                                                                                                                                                                 ",
"                                                                                                                                                      = X X X X X X X > M +.+.+.@.+.Q Y M l f y 1 # + $ O O O O O O O O . . O @ O O O o + + + # # 1 1 4 4 4 4 y y y 4 4 5 1 1 : # # O O . . . . . . . . . . . . . . . . O O O O O O O O O O O O O O O O O O @ @ @ @ @ @ @ + # # @ # # # # + 6 6 1 1 1 1 # + = 3 d b N f > o O . . . + o = g M E W M k k h h 8 q h M U F Y Q /  .2.8.8.6.4._ = . . . . X 3 m M V m d r 2 > : 2 4 y f N V W Q  .#.4.4.s.d.g.g.g.g.g.g.z.z.P.P.!.^.^.'.(.`.1X4X3X3X3X2X4X1X<X=X).'./.c.c.c.a.r X X . 8 2.K.V.y.G 7 X . X = : : = = o o + . . . . . . . . . X & j | ,.I.E.).=X1X!.f O . . &                                                                                                                                                                                                                                                                                                                 ",
"                                                                                                                                                    = X X X X X & > 8 z +. .@.+.W ! B M k d y 2 # + O $ O O O O O O O O O O O O O O O @ + + # # = 1 2 4 y y y y y y 4 4 2 1 : = # o O . . . . . . . . . . . . . . . . . O O O O O O O O O O O O O @ O O O O @ @ @ @ @ @ @ + # # + + + + + # 1 1 1 5 4 1 # # = r f N N m r # O . . X O X o s E W W M s t 0 0 q q z Y T T T / @.@.3.e.f.2.+.N X . . . . o y N N V C r r 2 2 5 5 y d v m M W Q +.&.%.4.s.d.g.g.g.g.g.g.l.l.z.P.I.^.^.'.'.`.1X4X3X3X4X1X1X<X=X=X).R.l.z.c.c.j.o.8 X . 8 2.U.V.<.J 7 X . . # : : = # o + O O . . . . . . . . + * j | >.V.Y.E.).`.z.r . . . &                                                                                                                                                                                                                                                                                                                 ",
"                                                                                                                                                  + + X X X % - k +.! / @. .+.Y k l m b y 3 : + $ O @ O O O O O O O O O $ $ $ @ @ @ @ @ # # # # = 1 5 y y y 4 3 2 3 3 3 1 : = # O X . . . . . . . . . . . . . . . . . . O O O O O O O O O O O O @ @ O O @ + + + @ # @ @ @ @ @ @ # # # + + 6 1 5 1 1 1 = : : > r b M M N f > o . X O X X & g M Y B k r 8 8 q 0 h Y T T R / ..2.2.8.g.8.U k = . . . . . o r f N V C 3 = : 4 4 3 y d f m M E W Q @.&.%.s.f.g.g.g.g.g.g.h.l.z.P.P.I.^.'.'.'.#X<X<X<X=X).).=X=X=X#X'.U.K.z.P.l.f._ - . - X.U.V.q.-.a o . . # : : = # + O O O . . . . . . . . X * x i.,.C.C.T.Y.U.2.9 . . . &                                                                                                                                                                                                                                                                                                                 ",
"                                                                                                                                              + . . + . + + ; i @.d.2.2... ./ Y k d d d y 2 # O O O @ @ O O O O O O O O O O $ $ @ @ @ @ @ # # # 1 2 4 4 y 4 3 1 : 1 2 1 : = # + . . . . . . . . . . . . . . . . . . . . O O O O O O O O O O O O @ @ @ @ + # # # @ @ # # # @ @ # # # # # # : 1 1 1 # # + o > d f M M M m d > o O O + + X * t k z l g r 8 9 0 h F Y T T ~ / ..-.3.8.f.#.8 & . . . . . . = 3 d f v d : = = 2 4 3 y d f g m M Y W  .&.%.s.d.f.g.g.g.g.g.g.h.l.P.P.I.^.^.(.'.=X<X=X=X=X$X=X=X-X=X=X=X(.K.h.h.l.f.&.u . & D u.V.B.e./ & . X # : : # # + O O O . . . . . . . . X q J =.,.C.Z.Y.C.<.J = . . . o                                                                                                                                                                                                                                                                                                                 ",
"                                                                                                                                            = X . . . + > t i H 8.8.3.4. .R Q V m d y 3 2 # + + O O O O O O O O O O O O $ $ @ @ @ @ @ @ # # # : 1 5 4 y 4 3 1 1 1 2 2 > = # + . . . . . . . . . . . . . . . . . . . X X O O O O O O O O O O O @ @ + + + # 6 6 # # # # # # # # # 6 6 6 6 6 6 6 1 = + = # = r N V V M M m r : = # o o = > 9 s k h t s r > 9 k U Y T T T T ~ / @.2.9.s.) = + . . . . . + = r v f d 2 = = = 2 4 3 y d f g l M M Y Q +.&.7.7.8.g.g.g.g.g.g.h.l.K.P.P.I.^.'.`.<X<X1X<X=X$X=X=X1X=X=X=X).P.z.e.6.f.s.M X & D r.C.L.z.#.> . . + # = # + + O O . . . . . . . . . . q  .y.0.C.Z.Z.V.r.J X . . .                                                                                                                                                                                                                                                                                                                   ",
"                                                                                                                                          + O . . . X s E  .X...6.8.4. .R Y Y N u y 3 = # o + O O O O O O O O O O O O O $ $ @ @ @ @ @ + # # : 1 2 3 y y y 3 3 2 2 2 2 = = + . . . . . . . . . . . . . . . . . . . X X X O O O O O O O O @ + + + # # + + # 6 6 6 # # # # # # 6 6 6 1 6 : 6 # # = # + = > r f V E E M M m r 2 2 1 + # > g l l l t q 9 r r t l Y T T J J J J ~ / ..2.4.N O . . . . . + # > 3 v f y = # = 1 2 4 3 y d f f l m M Y ! o.$.&.%.7.8.8.g.g.g.g.l.l.l.P.P.I.^.'.`.#X<X=X<X=X=X$X).=X=X=X#X).(.!.h.6.f.d.Y X % D B.Y.L.U.s.k + . + o # # o o O O . . . . . . . . . . 7 X.0.r.V.C.Y.Y.R...% . . .                                                                                                                                                                                                                                                                                                                   ",
"                                                                                                                                        + . . . . . * Q 2.6.0.:.6.;... .Y l N f r y 2 = o + O O O O O O O O O O O O O O $ @ @ @ + + + # # : 1 1 3 r y y y y y 3 3 2 1 = # X . . . . . . . . . . . . . . . . . X . . O X O O O O O O O o + # # # # # + # # 6 6 # # # # # # # 6 6 1 1 : : = # # = = = & r l m E B E M M k u y 2 # o o r m M M l 0 0 9 s l l M Y H T T J J J J / X. .$.4 . . . . . . o = 1 2 4 1 # + + # 1 2 3 3 y d f g m m V V E W Q Q +.%.7.7.8.g.g.g.l.l.l.P.P.P.I.I.R.`.=X=X#X=X=X).).=X=X=X<X).`./.z.e.g.d.Q + % D B.Q.T.U.j._ - X + + o + o o O X . . . . . . . . . X q 2.u.r.B.V.Y.E._.f.> . . .                                                                                                                                                                                                                                                                                                                   ",
"                                                                                                                                      # X . . X X & l %.8.e.6.6.6...X.Q M m m f 4 1 = o o O O O O O O O O O O O O O O @ @ @ + + + + # # 6 1 1 2 3 y y d y y r 3 2 1 : # + . . . . . . . . . . . . . . . . . . X O O O . O O O @ @ + # # # # 1 1 # # # # # # # # # # # # # # 6 6 6 6 6 : : = = : > r r d B M Y Y Y B l d e y 3 o o o s M z l l t s s l z l z H Y T T T J J R  . . .W = . . . . . . = : 1 1 = o + + # = 1 2 3 3 r d f b m m m m m B E ! Q +.%.9.8.8.g.g.l.l.l.U.P.P.P.U.I.).=X=X#X=X=X).).=X=X=X1X=X).'.I.l.e.9.U = % a u.W.Y.K.g.+.> . . o + + o + O O X . . . . . . . . X q 9.u.<.q.B.L.L./.4.: . . .                                                                                                                                                                                                                                                                                                                   ",
"                                                                                                                                    X X X . . o 9 l  .7.6.3.;.;.;.X.R z k f d 3 : # o + O O O O O O O O O O O O O O O $ @ @ + + + # # 6 1 1 3 r r y d f d y r 2 2 1 = + O . . . . . . . . . . . . . . . X O O o O O O O O O + # 1 1 1 1 : 1 1 1 : # # # + # + # # # 6 6 6 6 6 6 6 # # # = = = 2 r M B V W B E E B M k r r v d o : 3 l B x c l h l s 0 h j z H J T T T J T / +.+.Q g . . . . . . X = 1 1 = + + + + # 1 2 3 3 3 r d g f f f m f f l B E ! Q @.#.2.9.8.f.g.l.z.z.P.P.P.I.I.'.`.`.#X=X=X`.`.=X=X=X<X=X`.'.^.P.e. .0 & X w t.Y.L.K.h.@.> . . + o o + + O O . . . . . . . . . X q 8.K.r.q.B.V.0.2.Y o . . o                                                                                                                                                                                                                                                                                                                   ",
"                                                                                                                                  X . . . . o s R / #.9.2.;.^  ./ T Y M d r 2 = o + X O O O O O O O O O O O O @ $ $ $ $ @ @ # # # # 6 : 1 2 3 y y d f f f y 3 2 2 : # O . . . . . . . . . . . . . . . X O O + + $ @ + O # # 1 5 y y 4 5 1 1 1 1 1 1 6 # # # + + # # 1 1 1 1 6 6 6 6 6 : 1 3 r d m ) _ Q Q E ! E z k f r d b 2 = r C V B x z l l l > & q c Y T T R / T H T / +.+.z : . . . . . . + # : = + + + + # 1 2 4 3 3 3 r r d f f b m f f l N B Y Q Q / @.2.2.8.g.l.z.z.P.I.P.I.^.R.(.).`.=X=X=X=X=X=X=X=X=X=X`.(.I.z.#.0 + X q :.L.B.K.h.%.8 . . X + o + + O O O . . . . . . . o % q 6.P.u.r.L.L.| h > X . . 1                                                                                                                                                                                                                                                                                                                   ",
"                                                                                                                              = X X . . % * 8 T X.;.;.3.2...~ R R z h g 3 : = # o X X O O O O O O O O O O O O @ @ @ $ $ @ @ # # # 6 : 1 2 2 r y y d f f y r > : : = # O . . . . . . . . . . . . X $ X X O $ + # + # # # 1 4 y d n d 4 4 5 1 1 1 1 : # # # 1 1 # # 6 1 1 1 1 6 6 6 6 : 1 5 y y m V W ! Q Q R R E z s s r 3 y : & f V V B B z B l 9 % & 0 c ! / /  ./ T D T Q ' W 8 X . . . . . X + # + + + + + + # 1 2 4 4 3 y d d f b b m m b m N m M M E ! T / 2.2.2.e.g.l.l.z.P.I.I.^.I.I.(.`.`.`.=X=X=X=X=X=X=X=X`._.^.!.d.k O . * K t.B.r.h.s.t . . . + o + + O O O O . . . . . O # & 0 2.l.0.t.K.K.T > X . . . 2                                                                                                                                                                                                                                                                                                                   ",
"                                                                                                                            : X . . . X 0 Y H X.2.;.;.-.;.~ H Y ! M g r 2 # o o o + + O O O O O O O O O O O O @ @ @ $ $ + + # 6 6 1 1 1 2 3 r y r d f d r > = = = = + . . . . . . . . . . . . . O # : + : = : 3 1 2 2 4 4 v v n d y 4 4 5 1 : 6 : 6 6 : 1 1 1 1 1 1 1 1 1 1 6 6 1 1 1 1 4 y f V E M z Y Q T E M M l d 3 = : r d N E W E ! Q E r & X 8 c H R  . ./ Q Y H T T Q k & X . . . . X X o # + + + + + + 6 2 2 4 y n f f f b m N N m b m N M B B E Q R / @.2.2.8.g.g.g.l.P.I.I.~.I.I.R.(.`.`.=X=X=X=X=X=X=X=X`._._./.x.E O . % q =.r.q.e.s.k X . . X o + + O O O O . . . . . X : , q ;.e.0.y.u.l.Y # . . . .                                                                                                                                                                                                                                                                                                                     ",
"                                                                                                                          > & X . X X * z /  .#.2.2...X. .Q z l k l d r : + + + + + + $ O O O O O O O O O O O $ @ @ @ @ + # # 6 1 1 1 1 2 3 r r r r r r 2 = = # # # + . . . . . . . . . . . . . O : 5 2 3 3 3 d r y d d d v v v y y 3 5 5 1 : : : : 1 1 1 1 1 1 1 1 1 1 1 1 6 1 1 4 5 4 y b m E W z z E Q E Y z k m d 2 + o r N V W W ! o.$.B : o % q H ! R / Q T T Y Y Y W Y 8 X . . . . X X + o o + + + # # = 1 5 4 y n v v f b N N N N N N C V V W ! Q / / +.@.#.4.7.d.j.g.l.z.P.I.I.I.I.I.(.'.`.#X=X=X=X=X=X=X#X`.`._.`./.&.# . X * D :.<.w.8.B X . . X + + + O O O . . . . . . o t j a 6.u.t.t.P./.! X . . . .                                                                                                                                                                                                                                                                                                                     ",
"                                                                                                                        - & o X X , z z T  . .#.2.#...../ W l s s g y 3 # + + + + + @ @ O O O O O O O O O $ $ $ @ @ @ + + # # 1 1 1 1 2 2 3 r r r r r > = = # # # o X X . . . . . . . . . . . X $ : y d d r r d r f b f f f f f y r 3 3 3 2 : : : 1 1 2 2 1 2 1 1 1 1 1 1 1 1 1 5 4 4 d b m M Y W F Y E Y B M s > 1 : # + o r N V ) W W W B r * o * l Q R R T x z U Y U M B g % . . . . X X + o + + + + # # : 2 4 4 4 y v v b m N N V V V V V E W W _ o.+.+.@.@.%.%.%.4.8.d.g.g.l.z.U.P.I.P.P.I.E.'.`.#X=X=X=X=X=X).#X`.`.`._.f.1 . X X q L >.0.8.Q o . . X + + + O O X . . . . . . = U J K r.I.L.U.'._.! . . . . .                                                                                                                                                                                                                                                                                                                     ",
"                                                                                                                      > % X X X * z 4.#. .#.#.#.@... ./ ! B k r g f d 1 + + + @ @ @ @ $ O O O O O O O O O + $ $ @ @ + # # # 1 1 1 1 1 2 3 3 r r r r 9 - = = # # # + X . . . . . . . . . . . X X # : d b f g r s f g f g r y f r y r > 3 r 3 3 3 2 5 2 2 5 5 5 2 5 1 1 1 1 1 5 4 4 n n b M z Y Y x z ! E z k k 8 & X X O + + 2 N V ) ) V s : o = o * z Q R Y F h k U ! M k g > X . . . O X + + o o o o # = : 2 4 4 4 4 n v b N N N V V ` ` W ) ) _ _ o.+.+.@.&.%.%.%.4.4.4.7.f.g.g.l.l.z.U.K.K.P.I.R.'.`.`.=X=X<X<X=X=X=X#X`._.c.y . O . ; a i.0.w.@.9 . . . + + O O X X . . . . . . - F K K K.(.'.'._.!.l . . . . .                                                                                                                                                                                                                                                                                                                     ",
"                                                                                                                  - + & + X & 9 z  .7.4.2.4.9.4.@. ./ ! E M f r r 3 1 # + + + @ @ @ @ $ O O O O O O O O O o $ $ @ + # # # 1 1 1 1 1 1 5 3 r r r r r > : = = # # + O . . . . . . . . . . . . . X 1 2 y b f m g g m l g g d d y 3 r r 3 3 r 3 3 3 3 4 3 3 3 5 2 5 5 1 1 1 1 5 n n v v b N m z W Q Y Y Q W z s 0 > = o + # + = 3 f N W ) V r % = = = 9 B Q R T T ! U Y ! z t > o . . . . . O + o o o o o # : 1 5 4 4 4 n v v b N N V V ) ) ) ) _ o.o.o.o.$.@.@.@.&.%.4.s.s.7.7.7.8.e.8.8.8.g.l.l.l.P.^.'.'.`.=X<X<X<X=X=X#X#X`.`.!.g . . X X q L 0.w.x.Y X . . O + O O X . . . . . . . > z K K r.I.R.'.(.l.s . . . + +                                                                                                                                                                                                                                                                                                                     ",
"                                                                                                                  & X % & & h +.&.#.2... ...#.#./ Q Y l f f y r : # + $ + + + @ @ @ @ $ O O O O $ $ $ $ O + @ @ + # # # 6 : 1 1 1 1 2 3 r r r r r r r > > = # # $ X . . . . . . . . . . . . . X 2 d b N m M m m m m f s d y r r y r r y y y 3 3 4 4 4 3 3 2 5 5 4 4 4 4 4 4 n v b N N V W Q / +.+.+.' W l t > - = = 1 1 1 y f d d g f N f & = : > g W R R R Q Q E Y B k 9 & X . . . . . . X + o o o o # : 1 1 4 4 4 n n v v b m N V ` ` ) ) _ O.O.o.o.+.$.&.@.&.%.4.s.s.7.4.4.4.2.2.#.2.6.e.g.h.l.I.I.^._.<X<X>X>X#X#X_._..X.X!.Y . . . X 7 K 0.K.P.@.: . . O O O O X . . . . . . . > T L i.r.U.U.R.I.l.l . . . =                                                                                                                                                                                                                                                                                                                       ",
"                                                                                                                r & X - u t W &.4.4.#. .~ /  ./ Y B l f 2 4 4 4 # O o O + @ @ @ @ @ @ $ O O O O $ $ $ $ + + + + # # # 6 : : : 1 1 2 2 r y d s s t r r r 2 : # + X X . . . . . . . . . . . . X = > f f N M V M M M l g f f u r r y d y y y y y 3 r y 4 3 3 2 3 3 4 4 4 4 d d d f b V E o.@.#.%.%.%.@.' B f r > > = = 1 1 4 d v N N r : r r = & > r h Y R R T T Q W Y M s : X . . . . . . . X X + + + o # = = 1 1 4 y n y y d d v N N V V V ` ) _ o.o.o.o.+.&.&.&.&.%.%.4.%.4.4.#.@.....@.2.2.8.8.e.l.l.l.P._.#X_.`.`.`.'.^.`..X/.@.X . . . % j w.K.l.9.r . X X O O O X . . . . . . . - T | :.u.K.u.u.w.X.r . . . 1                                                                                                                                                                                                                                                                                                                       ",
"                                                                                                            r 2 = & o d ` ) _ _ @.%.@./ / Q E Y B m f f : : 1 1 # + $ @ @ @ @ @ @ @ @ $ O O O O $ @ + + + + + + # # # 6 6 : : : 2 2 3 r d d f d s t r r 2 : = + X . . . . . . . . . . . . X + : r r u N V E V M m k f f f t r e r r y d d y r r r r r 3 2 2 r y y y d v v d d s l E Q &.4.7.s.7.%.+.W M u e 2 1 = = 1 1 1 2 3 f N f = : > : 9 s h x T ~ R R T Q W B s : o X . . . . . . . X O O O O + + # # # 1 4 4 4 4 y y y d v b N C V V ) ) _ _ _ o.o.$.&.&.&.&.&.%.&.4.4.@... . .....-.2.6.6.8.e.6.w.P.I.P.^._._.'.^._..X/.8., . . . X 0 ;.t.:.2.m X . . O O O . . . . . . . . * H -.B.U.B.r.t.X.9 o . . X e                                                                                                                                                                                                                                                                                                                       ",
"                                                                                                          = o = & = > m _ $._ W E Q Q Q / Q M M u d y y 1 # + + + + + @ @ @ @ @ @ @ @ $ $ $ $ @ @ @ + + + + + # # # # # # : : : > 3 r d d d s f s s s r 2 : # + X . . . . . . . . . . . X + = 2 r r f b V V V M f k f t t t r r r r r d d y r r r r r r r r y f v b b N m f s g z  .+.@.4.8.8.7.%.' E f r 3 2 1 6 1 1 1 = o o 3 N C f s > 9 k B R .... ./ ~ R Q Y l 9 & X . . . . . . . X X . O O O O + + # # 1 1 1 5 4 4 4 y y d v b N V V E ) ) _ o.+.o.$.&.&.&.&.&.@.@.@.+./ / / / / ....@.2.6.6.8.6.6.r.l.l.R._._.'.'._._./.x.z X . . . * J :.=.#.E o . X O O O . . . . . . . . & a >.U.(.L.u.u.#.> . . . X 8                                                                                                                                                                                                                                                                                                                       ",
"                                                                                                        > o . + = 3 d V W _ W W W W W ! W M M N y 3 4 5 : # + + + + + @ @ @ @ @ @ @ @ @ @ @ @ @ @ + + + + + # # # # # 6 6 : : : > r d g g g s h s s s t 3 = o O . . . . . . . . . . . . + # 2 u b f b m V m m m k f f t t t t u r r r d y y r 3 r r r r r u f m N N m m l g l E R @.2.2.2.9.2.4.&.W M e = 1 1 6 6 # + + o O X o 3 N V V l h z R 2.8.2...X.( / Q M t & X . . . . . . . . . . O O O O O O + + # 1 1 1 1 1 2 2 3 y y d v N N V V E ) ) o.o.o.$.&.&.$.o.Q Q +. .R T T T T / / ....2.6.6.w.l.l.K.I.^.(.`.`.`.`.`.<X>X.X4.> . . . * ~ h.U.8._ = . . . O O . . . . . . . X * w =.T.(.I.L.P.7.r . . . X                                                                                                                                                                                                                                                                                                                         ",
"                                                                                                      o o + X : y f b M M U U W W ! ! Y E l l b r 5 1 : # # + + + + @ @ @ @ @ @ @ @ @ @ @ @ @ @ + + + + + + # # # # # 6 6 6 = > 3 r d g f k k k h t r r 2 = + . . . . . . . . . . . . X o 1 f b N N N m M k t t t s f k f t u d r 3 r r r 3 3 3 r r r f b N M B B B B l g l E @.#.2.2.2.2.6.2.@.W M u - + # # # + + + O + + # + = d B ! E z H ..9.6.;.-.../ Q Q z 8 . . . . . . . . . . . . O O O O O o + # 1 1 1 1 1 1 1 1 2 4 y y v b N N V V V E ) ) W Q _ o.Q Q E Y ! T T H H D H / X...2.2.6.w.h.^._.(.(.=X1X1X1X4X1X=X#X>X/.f.h X . X 9 2.P.P.g._ = . . . O O . . . . . . . % 9 D >.I.I.K.L.^.7.> . . . X                                                                                                                                                                                                                                                                                                                         ",
"                                                                                                  3 o . X = : d b b m B M M W W W W B M B l g 3 1 : # + + o + + + @ @ @ @ @ @ @ @ @ @ @ @ @ @ + + + + + + + # # # # # # 6 : : > r s g l l m l l k t s r > # O . . . . . . . . . . . X O # y C V N N M M M t 8 r t g k g k f d y r 3 3 3 2 2 3 r f f b N N C V V W o.o.l 0 z Q #.7.2.2.2.6.6.2./ k r = + O O O + + + + + # 1 1 # o * l Q / T T @.9.3.;.;.-.@.R E l > . . . . . . . . . . . . . O O O o + # # 1 1 1 1 1 1 1 1 1 2 3 y y d f b m N N M B B B E ! Q Q E T T T H J H J D ~ ..2.6.e.r.K.U.(.<X1X1X<X3X3X3X3X3X2X=X).(.z.g.Q > X X 9 8.~.^.x._ - . . . O O . . . . . . . > k G >.L.r.<.0.I.7.> . . . X                                                                                                                                                                                                                                                                                                                         ",
"                                                                                                = = X . . > d f b m m V E W _ W B W B k f f f 3 # + o $ + + + + + @ @ @ @ @ @ @ @ @ @ @ @ @ + + + + + + + + # # # # # o = : > r t s g l m M M M m t r > 1 # X . . . . . . . . . X O X o = d V V M m m C V f > e r k m f k f d y r 2 2 2 > > 2 r f b N M V ) W Z W O.$.l 9 B o.&.%.#.#.#.2.4.@.M > = + + + O O + + + # + = d y : o * k Q  .( ( 2.2.;.;.2.2.%.E B k - X . . . . . . . . . . . . O O + + + # # # # 6 6 6 6 = = : 1 2 3 4 r y y f k k k l z B Y ! E E T R / ~ J J ~ ^ | 2.e.l.P.^.(.`.`.#X4X4X4X2X3X3X4X4X2X2X1X}.L.w.g.#.s X X & @.!./.c.&.8 . . . O O . . . . . . X 0 j a >.I.B.<.y.P.v.r . . . +                                                                                                                                                                                                                                                                                                                         ",
"                                                                                              X X X X . X r f m N m B B E E W E B m m d f d 3 6 + $ O $ O O O O + + + + + @ @ @ + + + + + + + # # # # # # # # # = = = o = > 9 9 s s k M M M M M b u r 1 = + X . . . . . . . . . X + o : r g V M M M m M C b y 2 r b N N b f y 3 1 = : : : > 2 y b m M M V _ _ ) ) O.O.B g z E E Y ! W E B M s > = o + O O O O + + # # # = d d r 2 9 h T / X...2.3.2.;.2.2. .k 9 : o X . . . . . . . . . . . . O O + + + # # # # # # # # # # # = : : 2 > 2 r t s k k l z M ! T / / / ..9.9.3.w.z.h.r.l.I.(.'.`.=X=X1X1X1X2X2X2X2X2X2X2X2X2X2X-XL.0.0.2.B = X % E j.!.c.%.t X X . . O X . . . . . X h D S =.I.L.L.L.P.v.3 . . . +                                                                                                                                                                                                                                                                                                                         ",
"                                                                                            : X X X X & : d N N N m B B V V V M g f d 3 3 2 1 # + $ O $ O O O O + + + + + + @ @ + + + + + + + # # # # # # # # # : : : > > r r 9 t h l M M M M M k y 3 = o + X . . . . . . . O O + # : d m m B M M M M m N f 2 # : d C N f 3 2 1 = # # 6 # 5 d b N M V E V W _ ) ) ) ) V l g r 9 3 d f y 2 > = + o O O O + O O + + + # # 1 y d r r s h H ~ ..-.2.3.2.....@.Y 8 X . + X . . . . . . . . . . . . O O + + # # # # + + + # # + + # = = = = : > r t h z Y W Q Q / @.4.8.4.9.h.P.K.~./.I.I.I.E.E.E.).-X-X-X-X-X4X2X2X2X2X2X2X2X2X2X-XT.B.r.e.%.l o & h 5.!.j.%.0 X X . . O X . . . . . X x / L >.L.L.'.^.2.! : . . . +                                                                                                                                                                                                                                                                                                                         ",
"                                                                                            > X . % > r g N V V N m V V V m M l d f f 3 = # + + + + $ + $ O O O + + + + + + + + + + + + + + + # # # # # # # # 6 1 1 2 2 r r t s s l z B B M M M u r < o O O . . . . . . . . O + # = > g V V B B l M M M N d 1 # o = y y 3 : = 1 = 1 1 1 1 4 v b N V E W W E ) ) V l g N N y 1 = = 1 2 : # + + O O O O O O O + + + + O + 1 d 3 > = r h R ....;.2.2.-.X.X./ k * X . O . . . . . . . . . . . . O O + + + # # # # + + + + o o o + # # # = : t l M ! / @.%.7.d.8.8.g.g.6.6.l.K.L.I.U.L.L.Y.E.E.E.).-X-X-X-X-X;X2X2X2X2X2X2X2X2X2X-XW.L.B.l.f.Y % X & D d.g.2.j & X O O X X . . . . . X h X.-.0.B.u.P.l.j * O . . .                                                                                                                                                                                                                                                                                                                           ",
"                                                                                          r : X . : m V V V V V V N ) ) ) N m g r d r 2 = + + + + + + $ $ $ + + $ O O O + + + + + + + + + + + # # # # # # # 6 1 2 5 3 r r t s h l z B B B B M k r 2 = O . . . . . . . . . . + = = 2 r m E V B B B M M M f 2 = # + + = = 1 1 1 1 1 2 4 d d d v b N V V W _ W E V m s r s y r y 3 4 n 1 # O O O O O O O O O O O + O + = = 1 2 = & - s z  .2...-.2.2...X...Q 9 X . . . . . . . . . . . . . . . O @ + + + # # # # # + + + + + o + = = = : t B Q +.@.2.5.2.8.h.g.e.e.8.6.0.r.B.I.V.M.V.L.Y.T.E.W.).}.&X-X-X-X;X;X2X2X2X2X2X2X2X;X&XQ.L.L.P.7.Y = . X 0 ~ 3.r.6.F * + O . . . . . . . X h @.3.y.q.q.e.8.w X . . . #                                                                                                                                                                                                                                                                                                                           ",
"                                                                                        & & X X & g V ) ) V V N C N V Z C b m g r y 2 : # + # + + + $ $ $ $ + O $ $ O O O + + + + + + + # + + # # # # # # : : 1 3 r r r 9 t h k z B B B B B m u 2 < # + . . . . . . . . . O # - r k l B W ! E E E V C f > o + + + + = 1 1 2 2 2 5 4 y d d d b N V V B E B M B B B s f d r y f b v y = O O O O O o o + + @ @ o + O # y 4 = = o , q h Y #.2.;.X...;...@.+.z * . . . . . . . . . . . . . X O O O o # # = = # # # o o o + # : : 2 y y d l Y W +.%.5.2.3.3.6.e.r.e.w.:.0.r.r.K.L.L.V.B.M.V.Y.T.W.W.W.Q.}.-X-X-X-X;X2X2X2X2X2X2X-X&XT.V.L.l.d.Q > . . * w | u.K.2.h + O . . . . . . . X F 8.w.y.<.0.h.d.i X . . . o                                                                                                                                                                                                                                                                                                                           ",
"                                                                                        X X X = d C ) ) ) V N m N N N N b d d r 3 2 = # + + # + + + $ $ $ $ + O $ $ O O O + o + + + + # # # # # # # # # = : : 3 y d d r 9 s h z B Y E B B m f r 2 = o . . . . . . . . . . O = > s M B ! _ Q W W W V N d = + + + + o # 1 1 2 2 4 y y d d d f N N V V V V M f m V V s k b f d v b d : + . O O + + o $ @ + @ + o + # 1 n 4 # o % 0 h z R 2.3.;.| X...@.+.E 9 X . . . . . . . . . . . . . X O O O o = = > : = = = # o o : 3 r d b N V V E ! Q +.4.4.3.3.6.0.e.r.r.0.:.0.r.r.B.B.B.m.1.q.m.B.L.Y.E.E.Y.Q.W.}.}.&X-X4X2X2X2X2X;X-X&XY.B.U.z.g.&.r X . X * L B.K.d.! & X . . . . . . . % T 8.w.<.y.<.l.h.0 X . . . .                                                                                                                                                                                                                                                                                                                           ",
"                                                                                      & X X X r N V V V V m f f d v v d y 3 2 : = # # # + + + + + + $ @ + + + O $ O O O + + + # # # 6 1 1 1 6 # # # # 6 : > 3 r r r r s s k z Y Y W E B l d r 2 = # + . . . . . . . . . . + = 8 c Y Q  .+.+._ _ W V f 1 + . + + # # = 2 2 5 4 y y y d f v b m N N V V m m s k m m f b N b d v n 1 + O O O O + + + @ @ + @ + o # 1 4 y 1 o . * k z H  .9.3...|  . . .W g o . . . . . . . . . . . . . . X O O + = > r r > 2 > : : : > r f b N M V E E Y E Q +.#.2.2.2.3.0.w.w.r.0.0.r.r.r.r.q.q.<.,.<.<.q.r.B.B.B.B.B.B.V.Y.E.).=X-X4X4X1X1X-X).L.K.K.h.d.%.f o . X % K B.I.h./ - X . . . . . . . X F 9.0.<.<.0.P.!.0 X . . . . X                                                                                                                                                                                                                                                                                                                         ",
"                                                                                      & X X : m V V V N b d r r r y v y 2 : # # + + + # + + + + + + + + + + + + + + O + + # # 1 1 1 1 1 1 1 1 6 6 : : : 3 3 r d t r r s k z Y E E E B m d y 1 = # + . . . . . . . . . . . # r f z Q  .@.@./ +._ W V r + . . O # = 6 4 y 4 y n d d d f f m N N C C M k s f m V M N N N v v d 4 = + O O O O O + + + @ + + + # 1 d 4 d 2 = # X t ! T T ..9.2...(  . .Q C 3 X . . . . . . . . . . . . . . O O O o > t f f g f d s s g l m N M M B E E Y Y Y R  ./ ..-.;.:.0.0.0.t.t.r.r.r.0.0.0.y.>.>.=.;.6.w.r.w.0.q.t.:.:.y.<.<.q.K.I.(.(.`.`.(.P.l.g.8.4.%.m # . . & K K.E.U.#.q X . . . . . . . X j 2.0.0.q.<.K.~.0 X . . . . X                                                                                                                                                                                                                                                                                                                         ",
"                                                                                    = o X o r N V C b f d d r r r y y 4 1 = # # + # # + + + + + + + + + + + + + + + + + 6 1 1 5 1 1 1 1 1 1 1 1 : 1 3 3 3 y r r r t s k z H Y Y Y M s s r r : o + . . . . . . . . . . . . o y M ! / %.%.#.@.' U l m e + . . + # 1 4 4 y y y v v d d f b N C C N N V k r 9 k V V V ` V v v 3 = O . . O O O @ + + @ @ # # # # 4 b d d 1 # + X k +. .~ X.-.;.-.../ / Y 2 = X . . . . . . . . . . . . . . O O + # e k M M V V B Y E ! W W W ! W W ! Y Y Y H R / ( ( ..-.;.0.0.0.3.6.w.w.6.3.3.2.~ K K J J T  . .~ J L K a D D D K L ~ | ..;.9.8.9.6.2.-...+._ m : . . % D B.(.P.4.t % . . . . . . . . h 2.0.q.q.<.K.P.0 X . . . X                                                                                                                                                                                                                                                                                                                           ",
"                                                                                  = o X X & r m N N f d y y r r 3 3 3 1 = = + # + + + + + + + + + + + + + + + + + + + # 1 4 4 4 4 1 1 1 1 1 1 2 5 3 3 d y y r r t f k z z U Y B B l t r r > = + . . . . . . . . . . . . . + v E ! +.4.4.#.@.Q M k k - + + + # 1 4 y y y y y v v v b b b m C m l l M m f t m V V V Z V b y = + O O O O O O @ + + + # 1 1 4 1 5 y y 3 2 # o & Y +...X.X...;.2...R E g + X . . . . . . . . . . . . . . O O O + = r m M Y E W W W Q Q Q Q _ Q W ! ! ! ! ! Y T Q R ~ X.....;.;.-.(  ./ T T T F j q 7 7 * * * * , 7 7 q q 7 q w w a D j D D H ~ J D D D S j x h t : O O X h r.(.~.s.h & . . . . . . . . h X.:.0.<.<.^./.i X . . . &                                                                                                                                                                                                                                                                                                                           ",
"                                                                                  = + X X = 3 f b f f y y y y 2 1 = = = = # + + + + + + + + + + + + + + + + + + + + + # 1 4 4 4 4 5 2 1 1 1 2 5 3 y y d y r r t s k z M M M M M M s t 8 : # + + . . . . . . . . . . . . . + n E ! %.s.s.@./ W z t u - + + + = 4 v n d y y d f f f b b b b m g g s f m m k M E E V Z b y < o + O O O O O O + + + + 6 1 4 4 4 3 > 3 2 3 2 r s ! @.....;.2.2.4.+.Q B > . . . . . . . . . . . . . . . . O O O + = r m M B B Y W W W Q ! ! W _ Q W E E E W Y ! ! R R Q R J D x j q 9 8 * , > % % % % % X X . X & 7 7 w a w a D J ^ ^ L | X.~ ~ J D D a w a 0 q 8 > + O X 9 y.`./.j.U * . . . . . . . . a J ^ :.<.<.(..Xk X . . X -                                                                                                                                                                                                                                                                                                                           ",
"                                                                                  = + X + = 1 d y y n d y y y 2 = = = = = # + o o o o o + + + + + + # # # # # # # # # = = 1 1 1 1 < = 1 1 2 3 y y r d d t t t s h l M B M M M k g t r > = + O X . . . . . . . . . . . . . O = s X.s.d.9.@.R E h s t - & + 1 3 y v f f d f f d f f g f b m d r r t t l M M W W ) ) C n = + + + @ O O O O O + + # 1 1 1 4 4 3 3 > 3 r r d l Y T X...;.3.3.3.4.+._ m + . . . . . . . . . . . . . . . . . O + + = d l z M Y z z Y W ! Y z B E E E V V M M M M M M h t 9 * % X X . . . . . . . X X X X % * % % q j a ( X.X.2.8.6.e.l.e.6.6.6.2...X.( J D D a 7 8 9 = + X 7 ^ (.'.x.! - . . . . . . . X j ~ =.:.:.y.(.>Xk O . . X                                                                                                                                                                                                                                                                                                                             ",
"                                                                                  - + X + = > 3 1 2 y 3 5 2 : = = = = = = # o o $ o o o o + + + # # 1 1 6 # 1 1 1 1 1 = # + + # # # = < 1 5 r y r t f t t t t s k z M M M B m t r r r o X X X X . . . . . . . . . . . . . . O 9 X.8.8.2. .R Y s k k e - - y v v y f f f f f f N N m g r r : & t m l z E E W E E V y = # # + + + + + + + + # # 1 1 4 4 4 3 3 3 > > r s k l Y J L =.3.6.3.2.+.T M > . . . . . . . . . . . . . . O . . + + + # : k M B Y Y z x Y W E B z z M m m b m u e e 2 - & % X X X X X X . . . . . . . O o * > r k k x H ( ..8.h.h.h.l.K.K.K.K.u.r.e.w.6.2.X.( T T z q 8 r > X + - G 0.U.g.! & . . . . . . . X a ( 3.6.6.y._.>Xg . . . =                                                                                                                                                                                                                                                                                                                             ",
"                                                                                  = + X + = = = = : 1 = = # = # # # = = = # + o o o o o + + # # 1 1 1 1 1 1 1 1 1 1 1 # # + + + # = = < 2 y y u u u s t t t t h z M M M M m m r > e = + X . . X . . . . . . . . . . . . . . . ,  .8.f.#.~ H z t k k u e y r v b f f d f f f l m m l g r : * d m m B B W W E E E N 3 # + + + # # # + # 6 1 1 1 1 5 4 4 4 3 r > > 3 g l l z Y ~ ^ ;.3.6.6...U h 8 + . . . . . . . . . . . . . O O + + # # # = > k M Y W Y z z Y Y B B B M B M u e - - % X X X . . . . . . . . . . . . . + o > t k z Y Q / ..-.;.0.K.P.P.I.I.I.L.I.I.U.K.K.l.h.e.3...( ~ T j 0 t 8 & & - S >.K.g./ * . . . . . . . X w J -.6.6.0._./.r . . X e                                                                                                                                                                                                                                                                                                                             ",
"                                                                                  1 + X + + + + o # # o + o o + # # # = = = # + + + + # # # # 1 1 1 1 5 4 4 4 2 2 1 6 6 = = # # # = = < 2 y u u f f t t t f h l z M M M m f g 8 - = + . . . . . . . . . . . . . . . . . . . . X s #.s.*.R c j t t u k b u r y b f f f f f b f s g g f l t s B V M V M M Y E E E m 2 # + + + + # # # 1 1 2 4 4 4 4 3 3 3 3 r 9 9 s m B B Y ! ~ | :.3.6.9./ h - + . . . . . . . . . . . . . . O O + # = 1 1 : > d l M Y z z z z z k k k s t r > % + + X . . . . . . . . . O X . . X = > r t z Y R / X...2.:.<.q.B.E.E.T.W.W.E.E.E.E.E.Y.R.I.I.U.l.w.6.2.@.T x h , % * 7 D =.K.e. .9 X . . . . . . % a K -.6.0.0.z.s.= . . o u                                                                                                                                                                                                                                                                                                                             ",
"                                                                                    + X X + + + + + + O O O + o + o # # = = # = # 6 6 6 6 6 6 1 1 1 1 1 1 1 1 1 1 1 1 1 2 1 1 = = < < < 2 r u u f k s h l z z z M M M N d r s : X X . . . . . . . . . . . . . . . . . . . . . . X 9 l M z j F z M M m N v e t f f k l m m m g k l l l M M V E W W W Y z M l m f 2 = # + + + # # : 1 1 5 5 4 4 4 4 3 3 3 > 8 r s l B ! ! Q /  .-.:.3.6.2.F q & + . . . . . . . . . . . . . . O O + # : = = = = r t s h t s s 9 8 * & * & X + & # + + + . . . . X O O + + + # # & > u M W Q Q ~ ( | ..-.6.t.m.V.Y.Q.W.W.}.}.}.).W.W.W.W.E.(.(.(.I.K.l.g.9...R h - & ; 7 D 3.r.6.X.h X . . . . . . % z ( ;.0.0.3...s . . . =                                                                                                                                                                                                                                                                                                                               ",
"                                                                                    # X + + X X . . X X X O O o + + + # # = = : : 1 1 1 1 1 # # # # # # 1 1 = = = 1 1 2 4 4 1 : # = < < 1 r u m l k h k M M M B B V C m r = > & . . . . . . . . . . . . . . . . . . . . . . . . . X X * g F T T ! Q T F ! i t k l m m M M M l M M B B Y W _ W _ W W W B l k f e = # # # # # = : 1 2 2 3 4 y y 4 3 3 2 > - > t h l Y R /  .X...3.3.3.6.#.j & X . . . . . . . . . . . . O O O + + + + # # # # # : > > > : : : & % X o & & X X o # + + + + O X . O + + + o # = - > t M W +.' / ( ^ | =.:.0.B.V.T.W.Q.W.}.-X-X-X-X}.W.).).).).).W.E.U.P.l.w.2./ x 7 * % 7 D w.h.0.2.Y - X . . . . . & Y ..3.0.0.3./ > O . . -                                                                                                                                                                                                                                                                                                                               ",
"                                                                                      o = = # + O X X X O O X + + + o # = 1 1 3 4 5 5 5 2 1 # # = = = 1 1 1 2 1 1 1 4 4 1 1 # + + # < = 3 f m l k z z z M B B M M M N b r = o + X O . . . . . . . . . . . . . . . . . . . . . . . . X = l / ..@.^ ^ -.2.2./ Y Y Y Y B Y Y E E Q Q Q ' +.+.@.+./ ! W Q B m k r : : 1 3 3 2 2 3 3 3 3 3 y y y y y r 3 3 r r s h z Y T ~  ...-.;.6.0.3.8.@.r . . . . . . . . . . . . . O O O O O O O O + + + o o # # # & o X X X X X X X o + + o o + o # o o o o o o # # = = > 8 0 h Y Q / ..( ^ | =.-.y.r.V.Y.W.W.W.[.-X-X-X-X-X-X-X-X-X-X-X}.).(.E.I.K.e.3.( J i 8 - 8 D w.U.r.e.@.u X . . . . . * T ..;.6.6.9.Q = . . . &                                                                                                                                                                                                                                                                                                                               ",
"                                                                                                # o # # = # O X + o # = 1 2 y d n 4 5 5 2 5 : # = = 6 1 1 1 5 4 4 4 4 4 1 # O O O # = 1 y C E U z Y E E Y Y B M N b u 2 1 # O O . . . . . . . . . . . . . . . . . . . . . . . . . . . : V #.6.8.0.0.w.e.w.8.#.R ! R R R R /  . .@.#.#.4.4.2.2.@./ R Q B m N r : : 1 y y y y y y y y r r r y y y 3 > r g l E W ! / R  ...-.-.:.0.w.6.3.+.2 . . . . . . . . . . . . . . . O O O O . . . . . . O O O O + + X X X X X X X X o o o o o = : > > > > 2 2 r r r r t t h z T ~ / ......-.:.y.0.u.L.T.W.W.}.}.-X-X-X-X-X-X-X-X-X=X=X=X}.).`.(.U.K.h.3.( x t 2 8 j 9.!.K.r.5.M & . . . . . * Q @.2.6.6.3.! = O . . &                                                                                                                                                                                                                                                                                                                               ",
"                                                                                                          1 o X + # : 2 y 4 v n y 4 2 2 2 5 # + = 1 1 2 5 5 4 4 4 n 4 # # + O O + + = 2 d M Y ! T E T Y Y M M l f f y = # + X . . . . . . . . . . . . . . . . . . . . . . . . . . . . X l #.;.6.<.q.B.B.B.u.g.6.X. . . .X...;.2.2.2.9.9.9.9.2.#. .R ! B m f 2 # 1 1 2 3 y d y r r r r r y y f y r > r B E _ Q Q  ./ X.;.-.:.:.0.g.2.D k + . . . . . . . . . . . . . . . O O O O O . . . . . . . O O X . . . . X . . . . X + + & > e r t u d f f k k f f f k k k Y T ~ ( ....-.;.6.0.r.B.L.T.Q.[.}.-X-X-X-X-X-X-X-X-X-X-X=X=X=X}.}.).E.U.P.g...T s 8 - 0 / x.h.0.5.U - . . . . . : T ..-.6.w.5.z o O . . &                                                                                                                                                                                                                                                                                                                               ",
"                                                                                                          1 o O o = 4 n n n n n 4 4 2 2 : # o # = 4 4 2 y 4 y 4 4 1 1 # + + O O O # : g B Y Y Y Y Y Y H z z l g r r 2 o + + X . . . . . . . . . . . . . . . . . . . . . . . . . . . . . = F | 8.r.V.Z.C.L.L.P.l.;.|  .X...;.;.;.2.2.6.6.2.2.2...~ T z l l d = o 2 2 3 v b b f f f d y y y f f f r : s V E W Q /  .....;.:.:.:.6.9.R 7 X . . . . . . . . . . . . . . . . . . . . . . . . . . . . O O . . . . . . X + + + + & - 8 r t f f f b m N N m f f b l l z Y T ~ / ....-.;.6.6.t.u.V.Z.T.W.}.-X-X-X-X-X-X4X1X-X1X-X=X=X=X}.}.).E.U.U.r.2.R z t 8 7 i 8.h.r.d._ u + . . . X 8 F ( ;.6.w.g.! o . . . &                                                                                                                                                                                                                                                                                                                               ",
"                                                                                                          = + + # # 4 v d d y 4 2 1 : # # O o = # 5 4 4 4 4 y 4 1 1 + + + o O + + : r M B B Y Y Y B z z z l s r > 2 = X X X X . . . . . . . . . . . . . . . . . . . . . . . . . . . . . . - Q x.l.R.Y.Z.R.R.I.l.;.| | X...-.-.;.2.2.2.2.2.2...R H z z h 9 > = = 2 r y f b b b v f f f f f f f f d r s M W ! Q +.@.#.2.;.;.;.2.9.2.F - . . . . . . . . . . . . . . . . . . . . . . . . . . . . . . . . . . . . . + = : : > 2 r r u f f f f k m N m k f f m M z z Y T ~ / ..X...;.3.6.0.r.B.V.Y.W.}.}.-X-X-X-X-X4X4X-X-X-X=X=X}.}.}.).(.I.U.h.3./ Y t - ; 7 / d.h.j.&.M = . . . & t a J | 2.h.c.$.# . . . &                                                                                                                                                                                                                                                                                                                               ",
"                                                                                                          # X + # = 2 y y y 3 2 : = # o o . + 1 : 1 1 4 4 y y 1 1 : + + + + + X X e l E B M M M M M z k k t r r = = + . . X X . . . . . . . . . . . . . . . . . . . . . . . . . . . . . . X r Q 2.r.V.C.I.I.I.l.6...| | | ......2.2.2.2.%.+.Q z k l l g > : - > r u d f b f f f f f f f f f d d f l s s z H / ..2.2.2.2.3.2.2.7.@.k X . . . . . . . . . . . . . . . . . . . . . . . . . . . . . . . . . . . . O # 1 3 r r r r t d g k k f f g f k k f k m M z z F T T ( ~ ( ..;.;.6.<.0.q.B.B.L.T.W.W.W.W.W.}.-X-X-X-X-X-X-X}.}.).).(.^.U.e.6...Y t % X * h ..g.w.4.z > . . X 8 h w S G L w.!.$.# . . X -                                                                                                                                                                                                                                                                                                                               ",
"                                                                                                          # . + # # = 1 3 3 1 : # # o O o # = 4 4 2 1 5 4 4 4 : # # + + + + + = r l V E Y z z M M m m k d > 2 y # O . . . O . . . . . . . . . . . . . . . . . . . . . . O . . . . . . . . . X - a -.U.L.I.I.I.P.e.;.| | ^ ^ ^ X...X... ./ W M l s s s r : % 9 r d f k m m k k k k f f f f d r u f m s 8 0 H  ...2.2.2.2.2.-.@.@.Q t . . . . . . . . . . . . . . . . . . . . . . . . . . . . . . . . . . . . . + = 3 y y y r r d f k k k t t s t t s s k m M z z F Y T ~ J ~ | | | ;.6.y.<.q.M.M.B.L.L.L.Y.T.W.}.}.=X=X=X}.}.}.}.).(.(.^.l.w.9...E t % X % & j 3.g.2./ l + X X 0 U D S S D 3.j.B O . . X *                                                                                                                                                                                                                                                                                                                               ",
"                                                                                                          : + + = = 1 2 3 : # # # # + # : 1 5 5 5 2 2 2 4 5 5 # + o X O + + = f V V B V V V E B m f r r r > = = + O . . . . . . . . . . . . . . . . . . . . . . . . . . X O X . . . . . . . . X ; J l.I.I.U.P.P.l.6...^ L L ^ ..| J J T Y h 9 g s 9 9 > 9 > r f k l m m m l k k k k f f f r > r s l m h k T X.;.3.3.2.2...X. .Q B 9 . . . . . . . . . . . . . . . . . . . . . . . . . . . . . . . . . . . . . + 1 4 y y y d d f m l k f t s s r r t t k M M z x F F T T J ~ ( L ^ ;.;.6.<.0.r.B.K.K.B.M.V.L.E.W.}.}.}.}.).W.W.W.W.(.(.I.h.6.2...Y t % X . . q ..g.8.4.M + . X 0 Q ....^ ~ @.E = . . . X ;                                                                                                                                                                                                                                                                                                                               ",
"                                                                                                          3 = o = 1 y 3 3 = + o + + = 2 2 1 2 1 # o # # = = = + O X . . # 1 y N V V N N k f d g f r - - > = # + O O . . . . . . . . . . . . . . . . . . . . . . . . . . O O O O O X . . . . . . . * R h.h.0.r.l.h.6...^ L L ^ ;.X.~ J H x t > s g > 9 s f k m m m M M m m l l k k b b f d r > s m M m l Y  ...;.3.2.2.#...@.@.Y g * . . . . . . . . . . . . . O O O O . . . . . . . . . . . . . . . . . . . O + 1 2 y y y y d f m l k f t g f r s f f m M M z x F F H J J ~ ^ L L ^ | -.:.6.0.r.r.r.M.M.M.L.T.E.W.).).W.E.E.T.T.T.E.(.P.e.3.2.~ x r % . . . * T d.j.4.M & . X q R ..;.-.~ H 8 X . . . X ;                                                                                                                                                                                                                                                                                                                               ",
"                                                                                                          3 # + # = 2 1 = # o + o o = 1 : # + + X X X O X . X X . . . . + = f N N m f d r 3 > > 2 > - - = = + O O . . . . . . . . . . . . . . . . . . . . . . . . . . X O O O O O O O O . . . . . . 7 G L -.0.h.e.6.=.=.=.=.-.3.^ ^ ^ ~ F k k M l 9 t k l M B M M M M M m m k k k f d r r r r m W Y l z / @.2.2.2.4.2.@. .Q Q g * X . . . . . . . . . . . . O O O O O . . . . . . . . . . . . . . . . . . . . + = 1 3 3 r r d f k k k f f g f f l m m M B M z z z z F H J J K K L L L ^ -.:.6.0.0.0.0.t.t.M.K.B.K.L.K.K.K.K.K.K.K.L.U.l.w.9.@.J k r = . . . % k 4.d.8.E & . o 0 J ..3.:.^ j = . . . . &                                                                                                                                                                                                                                                                                                                                 ",
"                                                                                                            o X X + o o + o + O + + # = = # + X . . X . X . . . . . . . + # 1 f N f r > = = # # = = = = = + O O O . . . . . . . . . . . . . . . . . . . . . . . . . . X O O O O O O O O . . . . . . X % F w.r.K.l.0.:.0.r.r.r.r.:.-.;.../ Q ! W E m M M M B V B B B B M m m f f f d r r s h m Q +.$.W F +.2.2.6.8.8.4.#. .B l > X . . . . . . . . . . . . O O O O O O . . . . . . . . . . . . . . . . . . . . + # = 1 2 2 r d f f g f g g f f k M B B M B B z z z z z x D j a a D D D J ~ | -.2.3.;.>.>.>.>.0.0.0.0.0.0.0.r.r.r.r.K.K.r.6.2...F k 9 = O . . X t +.g.d./ > X % 0 J ;.0.0.2.x o . . . . =                                                                                                                                                                                                                                                                                                                                 ",
"                                                                                                            o X X X X X X X + + + + = =     # + + + X X + + + + + O . . O + = 3 3 2 : # o O X X X + + + + O O O . . O O . . . . . . . . . . O . . . . . . . . X O O O O $ $ @ @ $ O O O . . . . . . . . : Q g.r.u.K.B.I.E.(.E.E.(.l.8.2.4.%.&.+.' W _ _ ) ) E E Y Y M M M m b f f y r r h ! %.s.+.! Q / 7.8.6.8.f.j.4.&.$.B r o . . . . . . . . . . . O O O O O . X X X . . . O O O . . . . . . . . . . . . . O + # = : > 2 r d d f g f s s t g m B B z M M z z z k h t h 0 q q w i h j D J ~ ~ ( ( ~ ^ ^ L | =.=.=.;.;.-.:.w.w.w.r.l.h.8.2./ x t 8 & X . . X > Q d.w./ 9 o & s T ;.w.w.8.! * . . . . =                                                                                                                                                                                                                                                                                                                                 ",
"                                                                                                            o + o + o o X X o # #                                 + . . O O + : = o o O X . . . . . . . . . O O . . X X . . . . . . . . X . O . . . . . . . X X O O O O + + + + + $ O O O . . . . . . . . * i D L 0.L.E.W.}.}.=X`.l.8.6.2.9.#.@.' ' ' _ W W W Y Y Y M M m m b u r r r t x #.c.j.#.T / 2.d.g.g.e.g.f.&.+.Q m r o . . . . . . . . . . . X O O O O . X X X . . . O O O . . . . . . . . . . . . . O + + # = = > r f f g f t r t r f l M B M M M m k s 8 8 8 9 - * - q 0 0 q 0 h x F T T T T ~ ( | | ^ ^ | ......;.3.6.0.w.w.8.@.T i q > o X . . . & z 2.3...W d : s z ^ 0.r.g.%.9 . . . .                                                                                                                                                                                                                                                                                                                                   ",
"                                                                                                                = & : = o                                         + O . O O O o O X . . . . . . . . . . . . O O . O . X O . . . . . X O O O O . . . . . . . O O O O + @ + + + + + + + O O X . . . . . . . . X i 4.K.(.).W.}.-X-XE.u.0.6.e.8.2.@./ / +._ Q Q W W Y M M l l b u > > 8 t z  .f.c.z.2...6.h.K.K.l.h.d.7.+.M l s 3 o . . . . . . . . . . . . O O O O O . X X . . . O O O O X . . . . . . . . . . . O O + o # = = 2 f m f t r r r r s l m M m k f r 9 8 & % & & & - > 8 8 8 q q h k z ! Y F T T ( ..........X.| ....-.-.=.=.-...~ x 0 7 > & X . . . X t @.-.2.s._ r k E ..:.0.g.s.r . . . X                                                                                                                                                                                                                                                                                                                                   ",
"                                                                                                                                                                    O . . . . X . . . . . . . . . . . . O O O O O O . . O . . . O O O . O O O . . . . . O O O O O @ + + + + + + + + + + O O X . . . . . . . . u f.P.(.W.Q.W.W.E.E.^.K.U.R.e.;.| ~ / +.Q ! W ! Y M M z k l k r > e t U @.f.l.g.w.3.w.z.~.~.P.P.h.9.#.Q h t : o O . . . . . . . . . . . O O O O O O O O . . . . . O O O X . . . . . . . . . . . O O O + o o = > d g r 9 9 9 8 8 9 r d y r 3 > % % * & & & & 8 t 0 0 0 0 a j F T T / / ( ^ ^ ^ | =.=.-.-.-.=.3.3.-.-.;.=.| ^ T j i 7 * & & X . . X 8 T ..4.f.$.f m +.@.| L 2.%.s X + . +                                                                                                                                                                                                                                                                                                                                   ",
"                                                                                                                                                                    + . . . . . X X O X X O O O + O +           + . . O O . . . . . . O . . . . . . . . . O O O o + + + + + + + + + + + $ O O . . . . . . . . O i J 0.V.Z.[.W.Y.).'.K.U.(.I.w.-.-.@.@./ R Q Q ! Y Y Y U l t 8 8 0 h +.x.z.l.e.6.3.y.K.~.~.~.!.g.2./ Y s r o . . . . . . . . . . . . X O O O O O O . X X X . . . . . . . . . . . . . . . . . . . O O X X + o = r r > > > - * % % & o X X X X % % * - 7 0 h H Q Q /  ...X...2.3.3.w.w.w.r.r.r.M.M.r.r.r.r.B.L.L.K.K.U.w.3.-.^ J T 0 - q > % X X X > h ..4.s.&.b t z F K J X.&.l o + . +                                                                                                                                                                                                                                                                                                                                   ",
"                                                                                                                                                                      . X X X X X o o #                             X + . . . . . . X X . . . . . . . . . O + + + + + + + + + + # + + o O $ O . . . . . . . . . . % a >.Q.}.).).(.I.q.B.E.E.I.K.w.w.6.2...+.+./ T Q / ! z 9 8 q q F 8.!.P.z.e.6.3.3.h.P.!.!.z.9./ Y k r 2 + . . . . . . . . . . . . O O O O O O . . O X . . . . . . . . . . . . . . . . . . . . O X X . O O o : > = = & o X X X X . . . X X * 7 q w x T ~ ..2.7.9.3.6.0.0.r.K.K.L.L.T.W.}.}.}.-X-X}.}.).).}.}.).(.'.^.l.w.3.-...T x h 0 - X X X : t Q @.4.%.B 8 7 i D J  .&.l 2 = . o                                                                                                                                                                                                                                                                                                                                   ",
"                                                                                                                                                                        X o #                                             . . X . X O X X . . . . . . . O + # # # + + # # # # # # + o o + o O O . . . . . . . . . . & J I.W.).).I.B.C.L.E.(.).(.T.U.K.e.8.2.@.@.@.@.#.+.Y t 7 i D ..g.h.h.w.6.w.w.w.w.g.h.z.d...U h 8 2 : O . . . . . . . . . . . . O O O O O O . O O X X . . . . . X X X O O O O O O . . . . . . . . . . . X + o o o + + X . . . . . o & 7 i F T ~ X...;.2.6.e.w.6.0.q.q.m.V.T.W.}.}.-X;X;X;X;X;X;X;X;X-X-X}.W.E.R.I.U.P.l.e.w.5...~ F h , % X & r B Q @.@.Y t * 7 h T +.&.W m : . o                                                                                                                                                                                                                                                                                                                                   ",
"                                                                                                                                                                                                                                  o + X . . . . . . . X + # = = # # # # # # # # # + o o + + O O . . . . . . . . . . X 7 K :.P.I.U.V.Y.E.).).).).W.(.E.I.K.w.9.4.4.2.4.#.T x i H ..6.h.r.w.w.3.w.w.e.w.w.g.x.8./ F t - = + O . . . . . . . . . . X X O O O O O O . O X O X . . . . . X X X O O O O O O . . . . . . . . . . . . . . . . + X X . . . X = s l Y ~ ....2.2.2.2.2.6.r.r.0.0.q.q.B.Y.W.}.-X;X;X;X;X;X2X2X2X2X2X;X-X[.Q.Y.C.B.K.U.K.K.l.w.5.-./ T z k > = > s c Q @.W h * * 0 Y Q Q B g : . o                                                                                                                                                                                                                                                                                                                                   ",
"                                                                                                                                                                                                                                    O . . . . . . X O O + # = = = # # # # # # # # # + o + o o o X . . . . . . . . . . . X 0 X.8.l.U.Y.E.).).).).W.W.W.(.I.K.h.w.w.6.6.2.J D J ;.w.r.r.6.0.h.h.r.e.e.e.w.w.d.-.~ z 8 & + . . . . . . . . . . . . O O O O O O O O . . X X O O . . . X X . . . . . O O O O O . . . . . . . . . . . . . X X + o o % , t l W Q +.@.-.;.;.;.;.:.:.:.0.t.<.q.q.m.Y.W.}.-X4X;X;X;X:X:X2XuXuXuXuX2X;X&X}.).C.B.B.K.u.r.6.3.3.2.@.T F Y l > : , q F Q W h % & t B E z 9 > o . X                                                                                                                                                                                                                                                                                                                                   ",
"                                                                                                                                                                                                                                    + . X . . . . X O + # # = = = # # # # # # = # # # + + o o o O X . . . . . . . . . O O : s +.e.u.L.Y.Y.E.E.E.W.W.W.W.I.P.U.r.h.r.e.6.| -.6.t.u.K.0.:.0.r.h.l.h.e.e.w.6.-.T F h 8 X . . . . . . . . . . . . . O O O O O O O O . . . X X O X . . X X . . . . . O O O O O . . . . . . . . . . . . X & & - > 9 t h z E R /  ...-.-.=.-.-.-.:.:.0.t.q.q.m.V.E.W.}.-X;X;X;X2X2X2X2XuXuXuXuX2X2X;X-X=XE.I.L.K.r.0.:.:.3.2.X.J J / B 8 : & 9 z W Q l & X 8 z B h * = X X %                                                                                                                                                                                                                                                                                                                                   ",
"                                                                                                                                                                                                                                    + X X X . X X O + + # # # # # # # # + # # # # # # # # o + + O X . . . . . . . . . . O O X s @.6.u.L.K.B.L.T.W.W.W.W.L.K.K.K.K.K.K.0.:.0.r.r.U.L.r.0.t.r.r.l.l.l.w.w.6.X.F k t : X X . . . . . . . . . X X O O O O O O O . . . . X X X X X . X X X . . . . . . . . . . . . . . . . . . . . . X = > 8 t s h z Y E ! ~ / X...| | =.-.-.-.;.3.0.t.r.M.M.L.E.W.W.}.-X-X;X2X2X:X2X2XuXuX2X2X2X2X-X}.W.Y.L.B.M.q.0.0.:.;.^ K D Q M > & % * h W ' U q & - s l r o X X X %                                                                                                                                                                                                                                                                                                                                   ",
"                                                                                                                                                                                                                                    o X X . . X . X + # # # + # + + + + # # # # # # # # + o + + X X . . . . . . . . . . . . . o s F #.g.0.0.K.Y.W.W.W.E.L.B.K.L.I.T.L.M.r.0.r.B.K.K.M.r.r.K.K.u.u.l.0.6.6. .z s 9 o + O . . . . . . . . X X O O O O O O X X . . . . X X X X X . X X X . . . . . . . . . . . . . . . . . . . . X : 2 r t h k x H T T T ~ / | | | | | =.-.-.;.3.0.0.r.r.B.V.Y.T.W.}.}.-X:X2X2X:X:X2X2XuX2X2X2X:X-X}.Q.T.Y.V.B.q.q.0.<.-.L K D z t & o X % t Q ' ! k q * 9 s r o X X X o                                                                                                                                                                                                                                                                                                                                   ",
"                                                                                                                                                                                                                                    o O . . . . . X o # # o o o o o + + + # # # # # # # + + O O X X O O O O O O O . . . . . . . X % l @.@.6.K.I.E.E.E.E.I.B.L.E.E.W.T.V.K.M.M.B.q.B.K.B.K.K.K.r.r.t.y.6.;. .x 9 : 6 X . . . . . . . . O O O O O O O O X X X . . . . X X X X X . . X X X . . . . . . . . . . . . . . . . . . . = d f k h x j F H T ~ ~ ~ ( ^ ^ | | =...-.-.;.3.0.w.r.B.B.L.V.T.W.[.[.;X:X2X:X:X:X2XuXuX2X:X2X:X&XQ.Z.Z.Y.Y.C.m.1.1.1.>.L ~ R U 8 X # + % t W +.+.! i % % > : o + . X X                                                                                                                                                                                                                                                                                                                                   ",
"                                                                                                                                                                                                                                    + O . . . . . X $ o + o o o + + + + + # # # # # # # + + o + X X O O O O O O O O . . . . . . . . & 9 j / g.u.B.L.I.L.E.E.W.).W.W.E.L.L.I.L.B.M.B.K.K.L.K.B.r.r.q.0.y.3. .c 9 : o . . . . . . . . . O O O O O O O O X X X . . . . X X X X X . . X X X . . . . . . . . . . . . . . . . . . + r m M k x x x D J T ~ ~ ~ ^ ^ ^ | | ..-.-.-.:.3.0.t.r.B.B.L.Y.W.).}.-X-X-X-X;X4X4X;X-X-X-X}.=X-X).L.q.B.B.B.B.M.m.1.0.:.| ( Q Y u + o X X 8 U +. .T k , & > 3 : o X X %                                                                                                                                                                                                                                                                                                                                   ",
"                                                                                                                                                                                                                                    o X . . . . . . O o o + + + + + + + + # # # # # # # # + o + + + + O O o + O O O . . O . . . . . . X % i / 2.0.t.0.q.L.W.).).W.W.E.Y.T.W.T.B.M.B.K.K.U.K.r.r.r.r.0.6.9.%.z 9 3 # . . . . . . . . O O O O O O O O O O O O O O O O O O O O . . . . X X . . . . . . . . . . . . . . . . . . & d M U x x j D D J ~ ~ ~ ~ ^ ^ ^ | -.-.-.-.-.:.6.0.r.r.q.m.V.T.E.).`.`.'.(.P.P.K.r.6.;.| | | ....^ ^ J X.2.8.8.w.w.y.6.;.( J x z t o X . X * h /  ./ ! l > = # o o X &                                                                                                                                                                                                                                                                                                                                     ",
"                                                                                                                                                                                                                                  X X . . . . . . . X $ + + + + + + + + + # # # # # # # # # + o + + o @ o + + o O O O . O . . . . . . . . % i @.8.6.:.q.K.E.W.).W.W.).W.E.(.W.I.B.K.K.K.K.r.r.r.t.w.w.6.8.%.B > 3 : . . . . . . . . O O O O O O O O O O O O O O O O O O X X . . . . X X . . . . . . . . . . . . . . . . . X > l M Y H F D D D J J J ~ ~ ^ ^ ^ =.=.;.;.-.-.:.3.w.r.r.B.B.m.C.B.e.9.X.J D j w 0 q q 0 0 q q 8 , * * * * 9 s x F / @.#.@./ D j h e + . . & * t Y  .@.Q B s o X X X o 3                                                                                                                                                                                                                                                                                                                                     ",
"                                                                                                                                                                                                                                  O X . . . . . . . X O X O + + + + + + + # # # # # # # # # + + o o o o + + + + o $ O X X . . . . . . . . . % M a.@.X.6.w.K.T.W.W.W.}.W.W.L.T.E.B.B.l.l.l.h.w.0.0.w.8.2.@.Q l = # O . . . . . . . X O O O O O O O O O O O O O O O O O O O O O X X X X . . . . . . . . . . . . . . . . . . X r M U Y H F F D D J J J J ~ | | ^ =.-.:.:.:.:.y.0.e.g.g.g.6.L K D 0 * % % & % ; & * - 8 8 8 9 8 > - o X . X o & & 8 s M B Y z h e = + . . - * t Y / @.! B g : . . . o                                                                                                                                                                                                                                                                                                                                       ",
"                                                                                                                                                                                                                                  O . . . . . . . . . X . O + + + + # # # # = = = = = = # # # # + o o o o o + + + o O X X X . . . . . . . . . + r t z J ^ 0.V.Y.E.W.).}.).L.1.L.R.B.r.r.h.e.0.6.6.6.6./ z m r # + . . . . . . . . X O O X O O O $ $ $ o o $ o $ $ O $ O O O O O O O . . . . . . . . . . . . . . . . . . . X e M z Y F D D D D J J J J ^ | | =.>.:.:.:.0.0.0.3.2. .T z q * % X X . . X X X - r > - > 9 9 8 8 e r 3 : # o + X X + o = > 8 > % + + + . X = = 8 M Q @.Q Y s - X . . &                                                                                                                                                                                                                                                                                                                                       ",
"                                                                                                                                                                                                                                  . . . . . . . . . O O . O + + + # # # # = = = = = = # # # # # + + o o $ o + + + o o O X . . . . . . . . . . . . X * w ^ :.m.L.E.W.).}.}.L.,.B.E.U.l.e.6.3.2.3.2.2.2. .z r = + . . . . . . . . X X O O X O O O $ $ o o o o $ $ $ o o O O O O O O . . . . . . . . . . . . . . . . . . . . + r h z Y F D D D D J J L J | -.;.:.>.:.>.>.:.:.| J a 7 & X . . . . . . . . X & > t t q 0 h h t t t r f r > : o X + X X X X X . . . . . . + o o & h E +.+.Q m : . . . =                                                                                                                                                                                                                                                                                                                                       ",
"                                                                                                                                                                                                                                  . . . . . . . . . O O O + + + # # # # = = = = = = = # # + # # + + + $ $ $ + + # + + + $ O O . . . . . . . . . . . . 9 / ;.r.I.Y.E.W.W.E.T.C.q.B.U.r.:.| =.-.-.-.-./ Q k o O . . . . . . . . . X X O O O O O O $ $ o o o o $ $ $ $ o O O O O X . . . . . . . . . . . . . . . . . . . . . = r s z ! H H H H H J J ~ L | 2.;.:.-.:.3.:.L K a - X . . . . . . . . . . X & 9 f l k h z Y E W E M m f r > > : = o X X X X X . . . . . . X X X X 8 k Q &.%.o.> . . X =                                                                                                                                                                                                                                                                                                                                       ",
"                                                                                                                                                                                                                                  . . . . . . . . O O O O + # # # = = = = = = = = # # # o o o o + + o $ $ o + # # # # # + $ O O . . . . . . . . . . . % 0 J w.V.C.B.B.B.L.(.I.M.q.q.0.-.=.| ..2.@./ T M e . . . . . . . . . . . . . O O O O O O $ o o o o o o o o O O O O O O . . . . . . . . . . . . . . . . . . . . . . = r s M ! Y T H H H J T T L L ^ ^ ^ J K J H 0 * X . . . . . . . . X X X o : r l ! Q H z Y Y W _ _ E M m f r r r > : & X X X X X . . . . . O O X o * q z @.$.V > . . X =                                                                                                                                                                                                                                                                                                                                       ",
"                                                                                                                                                                                                                                  O . . . . . . . . . O O o # = = : : = = = # # # # # # o o + + o o o $ o o # # # # # # # + $ O . . . . . . . . . . . . X 0 ( 0.q.t.<.q.r.U.I.q.<.<.0.0.0.3..... .Q U u + . . . . . . . . . . . . . . O O O O O $ o o o o $ O O O O O O O O O X O O . . . . . . . . . . . . . . . . . . . o 3 s M Y Y T T T T T T T J D a j j q * * & X . . . . . . . . . X o o = > s z Y  .#.~ T / T T Q _ W W B m k f f s r > & + O . . . . . . . O O . + % * t U W M : . . + :                                                                                                                                                                                                                                                                                                                                       ",
"                                                                                                                                                                                                                                  . . . . . . . . . . O O o # : : : : : = = # # # # o o o + + + O O o o o + # # # # # # # + @ O . . . . . . . . . . . . . % s R 4.X.L ;.-.0.q.q.1.1.q.q.w.8.-.../ ! k - . . . . . . . . . . . . . . . . O O O O O O O O O O O O X O O O O O O X O . . . . . . . . . . . . . . . . . . . . X = 8 t l E W Q Q R Y l h r > & & = o X X . . . . . . . . . . . X o : > 0 x H ~ @.2... ... . .' ' Q W B B l l k f d r : o O . . . . . . . . . . O X X & t Y m = . . X :                                                                                                                                                                                                                                                                                                                                       ",
"                                                                                                                                                                                                                                  O . . . . . . . . . O O + = : : : : : : = = = # # o o o + + + O O $ + o + + # # # # # # + + $ O . . . . . . . . . . . . . o r k j D L L L =.t.B.m.q.q.0.8.2./ Q z 8 + . . . . . . . . . . . . . . . . X O O O O O O O X X X . X . . . . . . X O . . . . . . . . . . . . . . . . . . . . . X & * t B E B z z 0 * & o O X X X X X . . . . . . . . . X X # o > d g z J ~ ..6.e.8.2.....@.#.@.Q E E W M l z l l f r = O . . . . . . . . . . X + o & 8 h t & . . .                                                                                                                                                                                                                                                                                                                                         ",
"                                                                                                                                                                                                                                    . . . . . . . . . . + # : : : : : : : = # # # # o o o + + + + + + + + # # # 6 # # # # # + $ O O X X . . . . . . . . . . . X o 0 j H K L =.q.L.V.L.B.0.3.../ Q l - X . . . . . . . . . . . . . . . . O O O O X X X X X X . . . . . . . . . . . . . . . . . . . . . . . . . . . . . . . . X X o : r t 9 , * X . . . X X X X X . . . . . . . . X X X # 2 3 d m M Y / @.9.l.U.l.w.6.2.2.4.%.+.Q Q Q Y M z M M l d : + . . . . . . . . . . X X X & t k t > . . X                                                                                                                                                                                                                                                                                                                                         ",
"                                                                                                                                                                                                                                    O . . . . . . . . O + # : : : : : : : : = # # # o o o + + + + O + + o + # # # # # # # # # + O O O O . . . . . . . . . . . . X > 0 a j L ;.0.M.B.I.K.0.-.J R E t & . . . . . . . . . . . . . . . . . . . X X X . . . . . . . . . . . . . . . . . . . . . . . . . . . . . . . . . . . . . . . X o & & o X X X . . . . . . . . . . . . . X O o o # = 2 d v N V E Q @.9.g.U.P.l.g.g.8.3.5.4.#.@.' Q ! W Y E M m f 2 o . . . . . . X X X . . . . > l M m f o X o                                                                                                                                                                                                                                                                                                                                         ",
"                                                                                                                                                                                                                                    O . . . . . . . O O + # : : : : : : : : = # = # o o o + + + + + + + o + + # # # # # # # + + + O O O . . . . . . . . . . . . X o * q q D | :.q.B.L.K.0...K F k 9 X . . . . . . . . . . . . . . . . . . . . . . . . . . . . . . . . . . . . . . O O O O O O . . . . . . . . . . . . . . . . . . X X . X . X . . . . . . . . . . . . X X O o # = : 2 r v b N V ! / 2.8.z.~.^.U.h.w.6.8.8.4.4.#.@./ Q _ W W B l f r = X . . . . . X X X . . X X : l M V f # + = y                                                                                                                                                                                                                                                                                                                                       ",
"                                                                                                                                                                                                                                    + . . . . . . O @ + # # = : : : : : : : # # # # o o o + + + + + + + o + + + # + + + + + + + + O O O O . . . . . . . . . . O X X = 9 0 j ^ -.t.K.K.e.6.@.D i 8 > o . . . . . . . . . . . . . . . . . . . . . . . . . . . . . X . . . O O O + + o o o O O O O O O . . . . . . . . . . . . . . . . . . . . . . . X X . . . . X X X X X + + # = : > r d m m B Y Q  .2.g.P.^.(.P.h.w.8.8.d.8.8.4.@.+.+.' _ _ E m f y = O . . . . . X X X X X X X * h M V r X X = 3                                                                                                                                                                                                                                                                                                                                       ",
"                                                                                                                                                                                                                                    + . . . . . . O + # = = # # = : : : : : = # # # o o o + + + + + o o + + + + + + + + + + # + + O O O . . . . . . . . . . . X X X o : q a H ^ w.e.w.2.2.@.x 7 & = o X . . . . . . . . . . . . . . . . . . . . . . . . . X X O O O O O o #             + + O O O O O O . . . . . . . . . . . . . . . . . . . . . . . . O O O X X X X + + o & = > 2 r f m m M E / 2.8.l.^.^.^.K.h.6.6.d.d.8.4.#.@.@.+.+._ _ E N f y 1 O . . . . . X X X & & & - 9 h M B 9 . . X =                                                                                                                                                                                                                                                                                                                                       ",
"                                                                                                                                                                                                                                      . . . . . . O + # = # # + + # : : = = = o o o o o + + + + + + + + o o @ @ $ $ + + + + + + O O X O . . . . . . . . . . . . . O O o * 7 q J X.L ../ T U q & X O X . . . . . . . . . . . . . . . . . . . . . . . . X O o O + o                               + + + O . . . . . . . . . . . . . . . . . . . . X X O O @ @ + X X X + + o o = : > 3 r k M z H R ..3.e.P.^.^.U.h.w.3.3.8.8.8.2.@.4.%.@.+.' _ W N v y = O . . . . . . X o - - 8 t l Y E m > . . X X -                                                                                                                                                                                                                                                                                                                                     ",
"                                                                                                                                                                                                                                      . . . . . . O + + + o o O + o # : = # o o o o o o + + O + + + + O O O O O $ O $ $ O + + $ O O O O O O . . . . . . . . . . . . O O + X X 0 x a Y z t - o + + O . . . . . . . . . . . . O X . . . . X X X X . X O O                                               + O O . . . . . . . . . . . . . . . . O O X X X O O @ + + X o o o o & = > 2 r t k m z !  .2.w.h.P.^.P.K.w.3.3.2.3.9.8.4.2.#.#.@.+.' _ E m d 3 # O . . . . . . X & e t k k M _ _ V : . . . X &                                                                                                                                                                                                                                                                                                                                     ",
"                                                                                                                                                                                                                                      + . . . . . O O + o + O X O + o = = o o o o o o o + O O + O O + O O O O O O O O O O O O $ O O O O O O O O . . . . . . . . . . O O O O + o * 8 8 - & + O O O O . . X O O O O O O O X X o + $ $ o o o O O                                                           + O O O . . . . . . . . . . . . . . O O X X . O O O + + X o o o = = > > e r t k l M ! @.9.e.l.P.P.K.r.0.:.;.2.2.5.2.2.@... ./ Q W E M f y 2 # O . . . . . . X > k M M z z W _ B = . . X X :                                                                                                                                                                                                                                                                                                                                     ",
"                                                                                                                                                                                                                                        + O O . . O O + O O O X X O + # = # # o o X X X O X + + + O O O O O O O O O O O O O O O O O O O O O O . . . . . . . . . . . O O O O O o o o + X X O O O O X X O # = = # #                                                                                         + O O . . . . . . . . . . . . . . . O O O O O O O O O + o o = = - > 2 r r f k z Y / @.6.e.K.I.U.r.0.:.:.;.;.-.....^ ( / R T ! M l 9 > > # O . . . . . . X o d W _ Q ! ! E W M = . X = >                                                                                                                                                                                                                                                                                                                                       ",
"                                                                                                                                                                                                                                          o O O . O O O O O O O O O O # = # # # O O X X X X X X X X X X O O O O . . X X O O O O O O O O O O O O . . . . . . . . . . O O O @ + + # + + + X . X O X . O                                                                                                         + X . . . . . . . . . . O . . . O O O O O O O O X + o o = = : 2 r r t k l M Y / 2.3.0.u.K.r.0.0.:.:.;.-...^ ~ L ~ ~ J F x k t 8 & o X . . . . . . . X : N +.+.+./ ' / _ B = . X r                                                                                                                                                                                                                                                                                                                                         ",
"                                                                                                                                                                                                                                            + + + + . . . X O O O X O + # # # # + O X X X X X X X . . . . . . . . . . X O O O O O . X X X O O O O . X X . . . . . . X O + # : : = # # + X O O +                                                                                                                 O X . . . . . X X X X X . . . O . O O O O O X X X o o & = > r u f k l l M R ..3.6.t.u.r.0.0.<.:.:.-.;.;.......( ~ T F z k s t > = + . . . . . . . X : l Q +.+.@.#.+. .l o . X                                                                                                                                                                                                                                                                                                                                           ",
"                                                                                                                                                                                                                                              + + o O . . . . O X . X + # = # # + o O X X X X X X . . . . . . . . . . . O O O O X X X X X O O O O O O X . O O O O O O O #                                                                                                                                         O . . . . X X X X O O . . X X X O O O O O . X X X o = = 2 r f k k l z Y / 2.8.e.K.K.K.r.r.q.0.:.:.3.6.6.6.2..... .Q Y M h t r = o . . . . . . . X = h ! +.@.@.2.#. .c o . X                                                                                                                                                                                                                                                                                                                                           ",
"                                                                                                                                                                                                                                                  # + . . . . O . . . O o # # # + + o O X X X X X . . . . . . . . . . . O O O O O X O X . O O O O O O O O + + + + +                                                                                                                                                 . . X X X X X X O O O O O X X O O O O O X X + o o = : 2 r f k l z M T  .2.w.l.U.I.I.I.L.K.K.r.h.h.l.g.9.6.2.2.#.+.W E l 9 8 = o X . . . . . . X & q x Q +.@.@.#.+.g o . X                                                                                                                                                                                                                                                                                                                                           ",
"                                                                                                                                                                                                                                                    + + . . . . . . . X + + # # # + o o O O X X X . . . . . . . . . . . O O O O O O O X . . . O O O O O + #                                                                                                                                                           O O O O X X X O O O O O O . X . . O O X X + o o = > 2 r u f l M U Q @.8.e.U.(.(.(.(.I.I.U.P.P.P.!.P.w.8.9.2.#.+.W ! l t 8 = o + . . . . . . X X & q h F T +.%.o.9 o . .                                                                                                                                                                                                                                                                                                                                           ",
"                                                                                                                                                                                                                                                      # + . . . . . . X + o # # # # o o O O X X . . . . . . . . . . . . . . . . . . . . . . . O O + O O                                                                                                                                                                 O o O O X X O O O O . . . . . . O O X X X o o = : 2 r u k l M ! / @.9.g.U.^.^.^.^.P.U.P.P.P.P.!.l.w.w.3.@.@./ Q Y M l t > # + . . . . . . . . X % 7 q 0 F Y k & X X .                                                                                                                                                                                                                                                                                                                                           ",
"                                                                                                                                                                                                                                                        + . . . . . . . O o # = = = o o + + O X . . . . . . . . . . . . . . . . . . . . O . . O #                                                                                                                                                                           # O O X O O O . . . . . . . . . X . O o o o : > r t k z U ! / ..2.w.l.U.l.l.K.P.P.P.P.P.I.P.l.e.w.3.@.../ Q B z l s > = + X . . . . . . . . X & * * - > & X X X                                                                                                                                                                                                                                                                                                                                             ",
"                                                                                                                                                                                                                                                        o . . . . . . . X + # = = = & o + + O O . . . . . . . . . . . . . . . . . . . . O O O +                                                                                                                                                                               # $ O O O O . . . . . . . . . . . O o o o : r t s l M Y T / ..-.2.e.r.6.6.e.h.K.K.K.I.I.P.h.w.3.;.@. ./ Q M z l g 3 = + X X . . . . . . . . o + + + X X + X                                                                                                                                                                                                                                                                                                                                               ",
"                                                                                                                                                                                                                                                        + . . . . . . . X o # = = = = o o + O O O . . . . . . . . . . . . . . . . . . . O O +                                                                                                                                                                                   # $ O O O . . . . . . . . . . . O O o o : r f k M Y ! Q / @.-.;.3.6.6.6.y.:.:.0.w.r.K.K.r.w.;.^ .. ./ Q Y B M l r = + O X . . . . . . . + + + X + + & % &                                                                                                                                                                                                                                                                                                                                               ",
"                                                                                                                                                                                                                                                        + . . . . . . . O + = : : : = = o + X O . . . . . . . . . . . . . . . . . . . . O O +                                                                                                                                                                                   o + X . . . . . . . . . . . . . X O o o : r f l M W Q  .@.2.2.3.;.-.-.=.=.=.L >.0.r.r.r.0.3.;...( ~ Q Q ! Y M m y : + X X . . . X X o & & & - > - = - -                                                                                                                                                                                                                                                                                                                                                 ",
"                                                                                                                                                                                                                                                        + . . . . . . . X + = > > > : = # o X X . . . . . . . . . . . . . . . . . . . . X O +                                                                                                                                                                                     # X . . . . . . . . . . . . . X O $ o : r f h M ! / @.#.3.6.w.6.:.;.i.L L L =.:.<.0.q.t.y.3.-.^ ~ / Q ! Y z m d 2 o X . . . X & * 9 s s t r e 3 = + =                                                                                                                                                                                                                                                                                                                                                 ",
"                                                                                                                                                                                                                                                        + . . . . . . . . # : > r > : = = o X . . . . . . . . . . . . . . . . . . . . . . O +                                                                                                                                                                                     # O . . . . . . . . . . . . . . O O o : r f h z T / #.2.9.8.w.w.0.y.y.:.>.=.>.y.0.r.K.M.w.3.=.^ ( / Q E Y z l f 2 o X . . . X & q k U Y z t > - - +                                                                                                                                                                                                                                                                                                                                                   ",
"                                                                                                                                                                                                                                                        + . . . . . . . . # : 2 r r > : = = # + . . . . . . . . . . . . . . . . . . . O . . + =                                                                                                                                                                                     O . . . . . . . . . . . . . . . O $ = r l k M T /  .@.6.8.w.l.l.K.K.r.r.t.r.L.I.E.E.(.K.0.5.2... .Q W W Y M f 2 o X . . . X 7 h F T +.W l 8 - & %                                                                                                                                                                                                                                                                                                                                                   ",
"                                                                                                                                                                                                                                                        + . . . . . . . . o 2 r r s f d r > > = X . . . . . . . . . . . . . . . . . . O O O O #                                                                                                                                                                                     O O . . . . . . . . . . . . . . O $ # 3 N M U T / ..2.6.e.e.l.K.U.L.K.L.L.I.(.`.=X=X<X`.^.P.j.8.4.%.+.' ! V b r o . . . X & q j R / %.&.M - % & -                                                                                                                                                                                                                                                                                                                                                   ",
"                                                                                                                                                                                                                                                        + . . . . . . . . o > y d k m m f r > = o X X . . . . . . . . . . . . . . . . O O O O #                                                                                                                                                                                       O O . . . . . . . . . . . . . O $ + 2 b M ! Q  .@.9.6.h.z.U.U.I.I.E.E.E.W.).=X1X1X1X=X`./.P.j.s.4.+.Q W B b r & . . X o * 0 D  ...#.@.Q k 9 > -                                                                                                                                                                                                                                                                                                                                                   ",
"                                                                                                                                                                                                                                                        + . . . . . . . . + = r d k m m k d r > & + + X . . . . . . . . . . . . . . . X O O O + <                                                                                                                                                                                     + O . . . . . . . . . . . . . . O $ = t M E / / ( 9.w.l.P.P.I.(.(.(.).).).}.=X1X4X2X1X`.(.!.x.f.4.+._ W V b r + . . X & - 0 D ~ X... . .Q E f -                                                                                                                                                                                                                                                                                                                                                   ",
"                                                                                                                                                                                                                                                          O . . . . . . . X o > f k m M M M l d > & & X . . . . . . . . . . . . . . . O O O O + =                                                                                                                                                                                       + . . . . . . . . . . . . . . O O o r l Y ! /  .@.9.g.l.K.^.(.(.).W.).).}.=X1X1X1X-X}.(.~.!.j.4.@._ W V v 1 X . . X * 7 w K | ;.2.J R $.o.B 8                                                                                                                                                                                                                                                                                                                                                   ",
"                                                                                                                                                                                                                                                          + . . . . . . . X + = d m B Y Y Y M l f t : X . . . . . . . . . . . . . . . X O O O + + =                                                                                                                                                                                       O . . . . . . . . . . . . . X X + > s M ! / / ..2.8.e.U.I.(.(.).).).).).=X-X=X=X=X).(.~.!.j.s.@.' W C y = . . . o 7 q w L ;.6.| D J Q _ M 9                                                                                                                                                                                                                                                                                                                                                   ",
"                                                                                                                                                                                                                                                          + O . . . . . . . X & t M E Y Y ! Y M z z r = o o X . . . . . . . . . . . . X O O O + + =                                                                                                                                                                                       + . . . . . . . . . . . . . . . + : t M W / /  .2.6.h.P.I.(.'.`.).W.W.W.).).=X=X}.).(.~.!.j.4.+._ E b 3 X . . . o 7 w a | e.l.3.K J H z s 8                                                                                                                                                                                                                                                                                                                                                   ",
"                                                                                                                                                                                                                                                          + O . . . . . . . . X > m W ! Y ! ! U z k t > > > = & X X . X X . . X . X X O + $ o o + #                                                                                                                                                                                         O . . . . . . . . . . . . . . X = r l E Q ! T ..9.g.U.U.I.'.`.W.E.T.T.E.).=X=X}.E.U.!.z.d.@.Q W M u - . . . . % q w S -.h.K.w.L J F 0 8 *                                                                                                                                                                                                                                                                                                                                                   ",
"                                                                                                                                                                                                                                                          # + . . . . . . . . X o > z E Y ! ! Y U z h 0 t h h s t > - & & & & & o + + + + o o o + # =                                                                                                                                                                                       + . . . . . . . . . . . . . . X & 9 k z Y Y H ~ ..6.h.h.K.I.(.(.W.W.E.T.L.E.E.I.K.r.8.@.T U M k r > o . . . . % q a D ;.w.h.w.| ( T h 8 *                                                                                                                                                                                                                                                                                                                                                   ",
"                                                                                                                                                                                                                                                            # . . . . . . . . . X & t Y ! ! ! Y U z k x U U F z z l h t t t t u r 8 8 : = o o o o # #                                                                                                                                                                                       + O . . . . . . . . . . . . . X & > f l z T T / ..4.w.w.e.h.K.B.B.B.r.<.y.0.t.0.0.-.J x i 0 8 - * & + . . . . % q a G | 0.r.h.2./ Q Y 8 %                                                                                                                                                                                                                                                                                                                                                   ",
"                                                                                                                                                                                                                                                            # O . . . . . . . . X & 8 l U Y ! Y U z k F T T T ! ! Y Y U U z M z z k h t > & o o + + + #                                                                                                                                                                                     + O . . . . . . . . . . . . . X o > s l U ! H R @.2.3.3.8.y.w.w.0.:.=.^ ^ ^ ^ L L J F x i q * & & & + . . . . & 9 j K ^ 3.r.l.w.@._ W 8 X                                                                                                                                                                                                                                                                                                                                                   ",
"                                                                                                                                                                                                                                                            # O . . . . . . . . X X * 8 i z U Y U F z F T T T T T T T T Y Y Y F F z k h t 8 * & X + + +                                                                                                                                                                                       O . . . . . . . . . . . . . . X : r l M U T / @.#.4.2.-.5.5.8.8.;.^ ( ^ ~ G S G G T ! F z h t 9 & X . . . . & 9 i F ^ -.3.6.6.+.W M > X                                                                                                                                                                                                                                                                                                                                                   ",
"                                                                                                                                                                                                                                                            + O . . . . . . . . . X % & - t z Y Y U U H T R T R R R / / R T T T J H F x h t 9 8 - & + + #                                                                                                                                                                                     o O . . . . . . . . . . . . . X o > t z ! Y Q / +.@./ R ( @.#.@.T D F G G G L L | 2.f.f.d.%./ U k : . . . X & - 8 i x F D D x h e > - X                                                                                                                                                                                                                                                                                                                                                   ",
"                                                                                                                                                                                                                                                              O . . . . . . . . . X + ; * 9 k U Y ! T T T / T R / / / / / R R T T J H z k h s t r 2 = + + #                                                                                                                                                                                     O . . . . . . . . . . . . . . X & 9 z E Y T ! Q / R H H R @.#.T w w ~ w.h.K.U.`.>X>X.X~.h.6.2.T > . . . . X X X X % q 7 X X X X X & -                                                                                                                                                                                                                                                                                                                                                   ",
"                                                                                                                                                                                                                                                              O . . . . . . . . . X + & - t z U Y Y ! T T T ~ / / / / / / / ~ T T T T Y z l h k f u 1 # o o                                                                                                                                                                                     $ . . . . . . . . . . . . . . . X > k k k F U F U T ' 4.4.4.../ ~ 5./.4X3X3X4X3X4X1X<X).U.K.3.J - . . . . . . X X > s 9 & * r d u d V                                                                                                                                                                                                                                                                                                                                                   ",
"                                                                                                                                                                                                                                                              + . . . . . . . . . X + & - t z U U Y Y T T T R / / / / / / / ~ ~ T T T Y Y Y k l k f r = # o :                                                                                                                                                                                     O O . . . . . . . . . . . . . X o - 8 q i i i 0 j / #.;.=.=.w.g./.4X3XNXpX3X2X4X1X<X}.E.K.0.K 7 X . . . . . X * q 0 8 - q t M m m M m k l k                                                                                                                                                                                                                                                                                                                                           ",
"                                                                                                                                                                                                                                                                + . . . . . . . . . + & - t M M M Y Y ! T T T Q / / / / / / / / / T H H Y ! M z l f y 2 = + 2                                                                                                                                                                                       o O . . . . . . . . . . . . . X . . % 8 t i i j T ..^ =.r.(.<X4X3X3XuXpX3X2X4X1X<X}.(.L.M.J q % . . . . X o * q q i i i h x F x a 0 i w q 7 q 0 h x x x i t t t k M                                                                                                                                                                                                                                                                                                                 ",
"                                                                                                                                                                                                                                                                # O . . . . . . . . O + = r m M M U ! ! T T T Q R ~ / / / / / / / T H H Y ! U z l f y 2 = + 3                                                                                                                                                                                         # + O . . . . . . . . . . . X X . . % i E _ T H ( :.K.}.4X4X3X3XpXuXuX3X4X1X<X=X}.).Y.K.;.D q & & o . . & 8 0 j D T ~ ..2.6.6.2.2.8.8.2.( ..#.#.2.@.R j i t t 8 t M                                                                                                                                                                                                                                                                                                               ",
"                                                                                                                                                                                                                                                                # O . . . . . . . . . + = e k M M U U E T T T Q R R / / / / ~ / ~ T Y Y Y ! U z l f y 3 # + 3 v                                                                                                                                                                                         + O . . . . . . . . . . . . . X & t W +.@.@.R ( h.`.1X3X3X3X3XpXpX3X2X1X<X}.`.`.`.E.K.3.J 0 7 - , 8 s H  .2.g.z.z.!.(.(.`.`.(.(.^.^.I.P.I.I.I.P.z.g.8.@.Q T F x k l l                                                                                                                                                                                                                                                                                                           ",
"                                                                                                                                                                                                                                                                  + . . . . . . . . . . + > u l M M U ! T T T Q R R R / / / R R T T T Y Y ! F x k f y 3 = + : n y                                                                                                                                                                                       + O . . . . . . X X X X X X X o 9 E a.a.@.....6.P.<X4X4X4X2X2X3X4X-X).E.L.K.K.U.U.r.3.L J F T / / 2.g.P.(.>X1X1X1X1X4X1X1X=X}.).W.`.).).#X=X#X`.'.'.^.P.l.z.g.9.Q t 8 t m                                                                                                                                                                                                                                                                                                       ",
"                                                                                                                                                                                                                                                                  + . . . . . . . . . . + & 8 f M U Y ! E T T Q R R R R R R R T T T T Y Y ! F x k u 3 1 = + o 3 3                                                                                                                                                                                         # O O O O X . . . X X X o & : f _ %.7.....8.z.'.=X1X1X-X-X4X4XW.V.C.q.:.6.6.2.^ L ^ -.2.d.P.P.!.'.`.<X1X1X2X2X4X1X1X1X1X1X4X1X<X4X1X1X1X4X1X1X1X<X#X`.(.(.(.P.f.Q h r r f                                                                                                                                                                                                                                                                                                     ",
"                                                                                                                                                                                                                                                                  # . . . . . . . . . . + + - u m V M Y E E W Q R R R R R R R T T T T Y U Y U x k y 2 1 = o + = 3                                                                                                                                                                                           + O X X X . . . . . X X & 8 t z Q / ..8.P._.>X=X-X}.-X-X-X}.Y.B.r.:.-.X.~ D D J ..2.3.P.P.I.(.).=X1X4X4X4X2X4X4X4X4X1X4X2X2X2X3X3X3X3X3X4X4X4X1X1X<X#X`.).R.P.v.&.l * & 8                                                                                                                                                                                                                                                                                                   ",
"                                                                                                                                                                                                                                                                    X . . . . . . . . . . X + > u b M V E E ! ! ! ! R T R R R T T T ! ! U U M z k y 3 3 = + + o 3                                                                                                                                                                                           # + . . . . . . . . + & * 9 t s j F ..w.!..X<X=X}.W.}.}.E.B.<.>.L K j i q q x J ..2.e.K.K.I.(.).=X1X4X4X4X4X4X4X2X2X2X2X3X3X3X3X3X3X3X3X3X3X3X4X1X1X1X1X#X(.!.x.f._ e X &                                                                                                                                                                                                                                                                                                   ",
"                                                                                                                                                                                                                                                                    + . . . . . . . . . . . X - r f m B V E W W W ! ! ! ! ! T ! ! U U U U M M m u r r 3 : + X + :                                                                                                                                                                                             + X . . . . . . . o > 8 s l k h D ..2.z._.`.`.W.E.E.I.q.>.L G w w q 7 7 7 H  .4.g.l.K.K.E.).=X<X1X4X2X3X3X3X3X3X3X3X3X3X3X3X3X3X3X3X3X3X3X3X4X1X<X<X<X`.(.!.!.c.f.E - X 8                                                                                                                                                                                                                                                                                                 ",
"                                                                                                                                                                                                                                                                      O . . . . . . . . . . X o - r f m N N V V B M M M M M z z M l m M V M N b u y 4 2 = o X X =                                                                                                                                                                                             # X . . . . . . O = r k k z Y H / 8.3.e.U.K.U.L.L.K.r.:.L G x t q q 8 0 z R @.d.g.l.I.R.(.).=X=X<X1X4X4X4X2X2X2X2X2X2X2X3X3X3X3X4X4X4X4X4X3X4X1X<X`.`.`.~.!.c.j.f.$.e X -                                                                                                                                                                                                                                                                                                 ",
"                                                                                                                                                                                                                                                                      o X . . . . . . . . . X + = = 3 r r y y d t t r r r r r e t t t u b b b b f v y : = = o . +                                                                                                                                                                                             # . . . . . . . + 2 f l h k B Q #.3.3.3.6.0.3.0.0.w.-.J j k k r 8 q 0 z ! +.#.9.g.h.U.I.E.E.W.).).).).).).}.=X}.}.}.}.}.}.`..X`.`.`.`..X`.<X<X<X<X<X<X_.~.P.j.s.a._ u X =                                                                                                                                                                                                                                                                                                 ",
"                                                                                                                                                                                                                                                                        o X . . . . . . . . X X + o = - = = = = = = & & & - - - > > > 2 r y y y 3 3 1 : = : = o +                                                                                                                                                                                             + . . . . . . X o r f l z z Y R  ...-.;.;.-.| ^ L J a q 7 > = o & 0 z Q +.#.#.9.g.r.K.I.I.L.B.L.V.B.B.M.B.V.L.V.K.L.I.U.U.K.h.h.h.h.e.w.r.K.P.~.~.~./.~.!.j.f.s.%.E e X =                                                                                                                                                                                                                                                                                                 ",
"                                                                                                                                                                                                                                                                          + X . . . . . . . . + + + o # o o o o o + & & & & & & - = = = > = = # + + # = = 1 1                                                                                                                                                                                                 # . . . . . . + & e f l M Y T / @.-.-.;.-.^ ^ J D j q , & X X & 8 U / +.#.7.4.9.e.r.K.L.L.L.B.B.M.M.q.m.M.B.V.V.K.U.U.K.w.6.2.-...X.( ( ..2.9.3.3.8.s.s.8.4.4.%.$.V > X + 2                                                                                                                                                                                                                                                                                               ",
"                                                                                                                                                                                                                                                                            + O . . . . . . . X O + + + X X X + + + o o o o o & # = # # # + . . . O + # # 1                                                                                                                                                                                                 6 O . . . . . . X & r k l U Y Y / #.9.8.9.2.X./ F i q & o o X % h Q +.%.#.2.8.9.e.l.K.K.L.L.T.T.L.L.I.T.(.(.(.(.(.(.~.P.j.8.2.~ T F x x F F H Y T T T T T ! T ! ! W g & X X =                                                                                                                                                                                                                                                                                               ",
"                                                                                                                                                                                                                                                                              + . . . . . . . O O O O O X X O O O + + + o o o o o o o + + O O O . O # +                                                                                                                                                                                                     + . . . . . . . X - f k l l x F T ..2.8.2.../ T x 8 % X X X X 8 ! #.4.8.2.#.2.2.e.U.U.L.E.(.).).).).`.}.<X<X<X`.`.'.~.h.8.@.Q Y F k i 0 t 0 0 t h z z z z M z z U z > X X X &                                                                                                                                                                                                                                                                                               ",
"                                                                                                                                                                                                                                                                                  O O O . O O O O O O X X X O O O O + + + o o o o o + + + + + + + + +                                                                                                                                                                                                     + O . . . . . . . X > k k l h h x H T T R R T Y x 0 - o X X X 8 M +.4.d.d.9.#.2.9.g.P.I.E.).}.<X<X<X<X<X<X<X}.`.`.(.P.d.4./ U l k k t t 8 t t t t t t t t u u t t t r o . . . X                                                                                                                                                                                                                                                                                               ",
"                                                                                                                                                                                                                                                                                          + + + + + + + + + + + + + o o o o o o o o o + + + + +                                                                                                                                                                                                           + . . . . . . . . X > f k M k h x z x F Y Q ! B h 7 & o + & 8 W @.4.d.d.8.9.3.8.g.l.~.(.(.`.}.=X=X<X<X<X<X`.`.(.U.h.d.%.! l i t r e e e e e e r r e e e r e e > = & # O . . . X                                                                                                                                                                                                                                                                                               ",
"                                                                                                                                                                                                                                                                                                            # # # # # # + + # o # # # #                                                                                                                                                                                                                   + . . . . . . . . X = f k l h i h z x x E Q Q W h - & & & > k +.4.d.j.8.3.2.6.w.h.U.^.(.`.`.`.).`.=X<X<X`.^.K.w.-.( Q ! M k t t u y y u u u u u y r r 2 2 2 > > + + + O . . . X                                                                                                                                                                                                                                                                                               ",
"                                                                                                                                                                                                                                                                                                                                                                                                                                                                                                                                                          O . . . . . . . . X & u h l h i h x x x Y E Y z k q * * * t U @.d.g.g.g.w.w.w.h.U.^.'.(.).(.(.(.(.'.'.^.K.8...J D F z k m b f f f f v v v b b b b v y y 3 2 > = # + O O . . . X                                                                                                                                                                                                                                                                                               ",
"                                                                                                                                                                                                                                                                                                                                                                                                                                                                                                                                                          O . . . . . . . . X * t k h h x x x z U Y M z z l k t - q z ' 4.8.g.h.e.h.h.h.U.~.'.(.(.'.(.'.'.'.^.^.P.e.#.R F z z k t u d u u u y y f v f f f y y y 3 2 1 : = # + O . . . X %                                                                                                                                                                                                                                                                                               ",
"                                                                                                                                                                                                                                                                                                                                                                                                                                                                                                                                                          . . . . . . . . . X : s l l x z F U ! ! Y z k l z z h q h Q s.s.w.w.g.g.h.h.l.K.P.^.I.^.'.'.'././.!.z.x.8.#.Q ! M l f r r r y y d d d n n v f y r 2 2 : = # # # + O X . . . X -                                                                                                                                                                                                                                                                                               ",
"                                                                                                                                                                                                                                                                                                                                                                                                                                                                                                                                                        O . . . . . . . . . o > s M U k j k z ! Y M l k z z k h k E @.s.d.w.w.h.h.e.e.l.P.P.P.P.U.P.P.!.!.x.j.4.@./ Y M l k f r > 2 3 3 3 3 3 3 4 3 r 3 2 > : = # o o + O O . . . . . X -                                                                                                                                                                                                                                                                                               ",
"                                                                                                                                                                                                                                                                                                                                                                                                                                                                                                                                                          O . . . . . . . O = - s M E U F z M Y z l k z M z h k U +.&.s.j.j.z.z.h.e.g.z.!.!.!./.!.z.g.f.s.@.Q H z x l k s r : o o o o o O O O O O O X X X X X X X X X X X . . . . . . X -                                                                                                                                                                                                                                                                                               ",
"                                                                                                                                                                                                                                                                                                                                                                                                                                                                                                                                                          O . . . . . . . O o & f z M U U U F z k h h i h x x F T +.%.s.f.j.g.g.g.g.g.g.d.s.j.f.@.T ! M i 8 - * * & % o X + . . . . . . . . . . . . . . . . . . . . . . . . . . . . . +                                                                                                                                                                                                                                                                                                 ",
"                                                                                                                                                                                                                                                                                                                                                                                                                                                                                                                                                          O . . . . . . . O o = f M Y E E Y U U z k h i w j x F / 4.4.4.7.7.7.8.d.d.8.2.@./ Q Y 0 * * ; % X X X X X . . . . . . . . . . . . . . . . . . . . . . . . . . . . . . . . X =                                                                                                                                                                                                                                                                                                 ",
"                                                                                                                                                                                                                                                                                                                                                                                                                                                                                                                                                          + . . . . . . . o o = k M U Y Y F z z U U U k i i x F Q %.4.4.s.%./ / @.4.+.Y z l k u - % + + X X . . . . . . . . . . . . . . . . . . . . . . . . . . . . . . . . . . . . X                                                                                                                                                                                                                                                                                                   ",
"                                                                                                                                                                                                                                                                                                                                                                                                                                                                                                                                                          + . . . . . . . O o = g M Y E E ! Y Y ! ! W U M z z z M W _ $.a.' E M h t - & % X . . . . . . . . . . . . . . . . . . . . . . . . . . . . . . . . . . . . . . . . . . . . #                                                                                                                                                                                                                                                                                                   ",
"                                                                                                                                                                                                                                                                                                                                                                                                                                                                                                                                                          + O . . . . . . . X X > t l Y W W ! E W E U M M C m u e e e u f e - = + . . . . . . . . . . . . . . . . . . . . . . . . . . . . . . . . . . . . . . . . . . . . . . . . .                                                                                                                                                                                                                                                                                                     ",
"                                                                                                                                                                                                                                                                                                                                                                                                                                                                                                                                                            O . . . . . . . . X & > 9 k M M M V V M M m b f r - % X X X . . . . . . . . . . . . . . . . . . . . . . . . . . . . . . . . . . . . . . . . . . . . . . . . . . . . .                                                                                                                                                                                                                                                                                                       ",
"                                                                                                                                                                                                                                                                                                                                                                                                                                                                                                                                                            + . . . . . . . . . . X - > > 8 8 > = = & & = + . . . . . . . . . . . . . . . . . . . . . . . . . . . . . . . . . . . . . . . . . . . . . . . . . . . . . . . . X                                                                                                                                                                                                                                                                                                           ",
"                                                                                                                                                                                                                                                                                                                                                                                                                                                                                                                                                            + O . . . . . . . . . . . . . . . . . . . . . . . . . . . . . . . . . . . . . . . . . . . . . . . . . . . . . . . . . . . . . . . . . . . . . . . . . . . . .                                                                                                                                                                                                                                                                                                               ",
"                                                                                                                                                                                                                                                                                                                                                                                                                                                                                                                                                              . . . . . . . . . . . . . . . . . . . . . . . . . . . . . . . . . . . . . . . . . . . . . . . . . . . . . . . . . . . . . . . . . . . . . . . . . . .                                                                                                                                                                                                                                                                                                                     ",
"                                                                                                                                                                                                                                                                                                                                                                                                                                                                                                                                                              O . . . . . . . . . . . . . . . . . . . . . . . . . . . . . . . . . . . . . . . . . . . . . . . . . . . . . . . . . . . . . . . . . . . .                                                                                                                                                                                                                                                                                                                                 ",
"                                                                                                                                                                                                                                                                                                                                                                                                                                                                                                                                                                O . . . . . . . . . . . . . . . . . . . . . . . . . . . . . . . . . . . . . . . . . . . . . . . . . . . . . . . . .                                                                                                                                                                                                                                                                                                                                                     ",
"                                                                                                                                                                                                                                                                                                                                                                                                                                                                                                                                                                  $ O . . . . . . . . . . . . . . . . . . . . . . . . . . . . . . . . . . . . . . . . . . .                                                                                                                                                                                                                                                                                                                                                                             ",
"                                                                                                                                                                                                                                                                                                                                                                                                                                                                                                                                                                    O . . . . . . . . . . . . . . . . . . . . . . . . . . . . . . . . . .                                                                                                                                                                                                                                                                                                                                                                                               ",
"                                                                                                                                                                                                                                                                                                                                                                                                                                                                                                                                                                        . . . . . . . . . . . . . . . . . . . . . .                                                                                                                                                                                                                                                                                                                                                                                                                     ",
"                                                                                                                                                                                                                                                                                                                                                                                                                                                                                                                                                                              . . . . . . . . .                                                                                                                                                                                                                                                                                                                                                                                                                                         ",
"                                                                                                                                                                                                                                                                                                                                                                                                                                                                                                                                                                                                                                                                                                                                                                                                                                                                                                                                                                                                                                        ",
"                                                                                                                                                                                                                                                                                                                                                                                                                                                                                                                                                                                                                                                                                                                                                                                                                                                                                                                                                                                                                                        ",
"                                                                                                                                                                                                                                                                                                                                                                                                                                                                                                                                                                                                                                                                                                                                                                                                                                                                                                                                                                                                                                        ",
"                                                                                                                                                                                                                                                                                                                                                                                                                                                                                                                                                                                                                                                                                                                                                                                                                                                                                                                                                                                                                                        ",
"                                                                                                                                                                                                                                                                                                                                                                                                                                                                                                                                                                                                                                                                                                                                                                                                                                                                                                                                                                                                                                        ",
"                                                                                                                                                                                                                                                                                                                                                                                                                                                                                                                                                                                                                                                                                                                                                                                                                                                                                                                                                                                                                                        ",
"                                                                                                                                                                                                                                                                                                                                                                                                                                                                                                                                                                                                                                                                                                                                                                                                                                                                                                                                                                                                                                        ",
"                                                                                                                                                                                                                                                                                                                                                                                                                                                                                                                                                                                                                                                                                                                                                                                                                                                                                                                                                                                                                                        ",
"                                                                                                                                                                                                                                                                                                                                                                                                                                                                                                                                                                                                                                                                                                                                                                                                                                                                                                                                                                                                                                        ",
"                                                                                                                                                                                                                                                                                                                                                                                                                                                                                                                                                                                                                                                                                                                                                                                                                                                                                                                                                                                                                                        ",
"                                                                                                                                                                                                                                                                                                                                                                                                                                                                                                                                                                                                                                                                                                                                                                                                                                                                                                                                                                                                                                        ",
"                                                                                                                                                                                                                                                                                                                                                                                                                                                                                                                                                                                                                                                                                                                                                                                                                                                                                                                                                                                                                                        ",
"                                                                                                                                                                                                                                                                                                                                                                                                                                                                                                                                                                                                                                                                                                                                                                                                                                                                                                                                                                                                                                        ",
"                                                                                                                                                                                                                                                                                                                                                                                                                                                                                                                                                                                                                                                                                                                                                                                                                                                                                                                                                                                                                                        ",
"                                                                                                                                                                                                                                                                                                                                                                                                                                                                                                                                                                                                                                                                                                                                                                                                                                                                                                                                                                                                                                        ",
"                                                                                                                                                                                                                                                                                                                                                                                                                                                                                                                                                                                                                                                                                                                                                                                                                                                                                                                                                                                                                                        ",
"                                                                                                                                                                                                                                                                                                                                                                                                                                                                                                                                                                                                                                                                                                                                                                                                                                                                                                                                                                                                                                        ",
"                                                                                                                                                                                                                                                                                                                                                                                                                                                                                                                                                                                                                                                                                                                                                                                                                                                                                                                                                                                                                                        "
};
