/* XPM */
static char *_b2796c486844670a1b2f8ec0a405a5fcoE1Ld2vWLWLtjpA[] = {
/* columns rows colors chars-per-pixel */
"500 500 256 2 ",
"   c None",
".  c #030202",
"X  c #0A0503",
"o  c #0C0906",
"O  c #060708",
"+  c #090708",
"@  c #070809",
"#  c #0B0A0A",
"$  c #070806",
"%  c #120502",
"&  c #130A05",
"*  c #1B0C04",
"=  c #120D0B",
"-  c #1A0D0A",
";  c #190603",
":  c #14110D",
">  c #1B130C",
",  c #1C1308",
"<  c #0E0E11",
"1  c #130F11",
"2  c #151312",
"3  c #1A1513",
"4  c #1D1915",
"5  c #1D1B1A",
"6  c #191718",
"7  c #0E1111",
"8  c #240C05",
"9  c #23140C",
"0  c #24190D",
"q  c #2B1B0D",
"w  c #281407",
"e  c #351B0A",
"r  c #231B14",
"t  c #2B1D13",
"y  c #231D1B",
"u  c #271815",
"i  c #341C15",
"p  c #2D0D0D",
"a  c #39220D",
"s  c #2C2115",
"d  c #25211C",
"f  c #2B231C",
"g  c #2C271C",
"h  c #332314",
"j  c #3B2513",
"k  c #32251C",
"l  c #34291D",
"z  c #3B2B1C",
"x  c #3A2818",
"c  c #392D1B",
"v  c #2B1D22",
"b  c #252221",
"n  c #2C2522",
"m  c #2E2923",
"M  c #2D2A28",
"N  c #342B24",
"B  c #3A2D23",
"V  c #342D29",
"C  c #352A25",
"Z  c #3C3125",
"A  c #36312B",
"S  c #3C332B",
"D  c #393228",
"F  c #3C3631",
"G  c #1E1F1E",
"H  c #451B0B",
"J  c #46260B",
"K  c #422D1C",
"L  c #452A14",
"P  c #44311D",
"I  c #4B331C",
"U  c #4C3316",
"Y  c #57381A",
"T  c #562C0E",
"R  c #643A16",
"E  c #432C24",
"W  c #433324",
"Q  c #4A3524",
"!  c #4D3925",
"~  c #43352B",
"^  c #45392D",
"/  c #4B3B2C",
"(  c #493729",
")  c #533B24",
"_  c #523D2B",
"`  c #593C24",
"'  c #453B32",
"]  c #4B3D33",
"[  c #443934",
"{  c #513E31",
"}  c #512930",
"|  c #6E3730",
" . c #441C2C",
".. c #6F461B",
"X. c #55412D",
"o. c #5B442C",
"O. c #5C4327",
"+. c #4D4134",
"@. c #4D423A",
"#. c #474138",
"$. c #544334",
"%. c #5A4633",
"&. c #5C4935",
"*. c #53453A",
"=. c #55493C",
"-. c #5C4B3B",
";. c #584738",
":. c #534733",
">. c #644A2D",
",. c #6B4C2C",
"<. c #654627",
"1. c #744C28",
"2. c #78532B",
"3. c #634C34",
"4. c #6A4E33",
"5. c #624E3B",
"6. c #664935",
"7. c #6C5235",
"8. c #65513C",
"9. c #6B543C",
"0. c #6A553A",
"q. c #735434",
"w. c #72563B",
"e. c #745A3C",
"r. c #7B5C3C",
"t. c #7A5834",
"y. c #724D32",
"u. c #7D613D",
"i. c #5D411D",
"p. c #70374F",
"a. c #75396B",
"s. c #573047",
"d. c #5A4C42",
"f. c #5B5145",
"g. c #645343",
"h. c #6A5642",
"j. c #6D5944",
"k. c #6C5A4A",
"l. c #665749",
"z. c #745C43",
"x. c #7A5E42",
"c. c #735D4A",
"v. c #755A46",
"b. c #6C504B",
"n. c #7C6244",
"m. c #75614B",
"M. c #7B644B",
"N. c #7A6449",
"B. c #7A6654",
"V. c #6F6353",
"C. c #7B506A",
"Z. c #833C34",
"A. c #85582A",
"S. c #845C36",
"D. c #935631",
"F. c #83623C",
"G. c #8B643A",
"H. c #976939",
"J. c #976830",
"K. c #A66936",
"L. c #A8753A",
"P. c #B27036",
"I. c #965726",
"U. c #90504A",
"Y. c #836543",
"T. c #8B6B44",
"R. c #846A4C",
"E. c #8B6D4B",
"W. c #856746",
"Q. c #956C44",
"!. c #8D714D",
"~. c #93734C",
"^. c #9A7549",
"/. c #846C53",
"(. c #876E55",
"). c #8C7254",
"_. c #8B745B",
"`. c #87735A",
"'. c #937553",
"]. c #9C7B54",
"[. c #947A5B",
"{. c #9B7D5B",
"}. c #947857",
"|. c #98665A",
" X c #A67948",
".X c #B67A47",
"XX c #A47D54",
"oX c #AD6E4F",
"OX c #8F4F70",
"+X c #8B7663",
"@X c #957C63",
"#X c #946C6F",
"$X c #A96462",
"%X c #C47C49",
"&X c #A15947",
"*X c #9D815C",
"=X c #9C834D",
"-X c #B7864A",
";X c #A3835C",
":X c #A98558",
">X c #B68A56",
",X c #B58B52",
"<X c #9C8262",
"1X c #9A836B",
"2X c #9C8673",
"3X c #A38563",
"4X c #A88A68",
"5X c #B89469",
"6X c #B79977",
"7X c #AE8F6D",
"8X c #BDA27C",
"9X c #C7884A",
"0X c #C78955",
"qX c #C89458",
"wX c #D89957",
"eX c #D1904E",
"rX c #DDA35A",
"tX c #D3A74F",
"yX c #E2A55C",
"uX c #E4A85B",
"iX c #E8B453",
"pX c #CC9767",
"aX c #DAA668",
"sX c #D0A872",
"dX c #E8AA65",
"fX c #ECB36B",
"gX c #F3B46C",
"hX c #F5B86B",
"jX c #EAB675",
"kX c #F7BA74",
"lX c #EDAB6F",
"zX c #E39C5E",
"xX c #FCC279",
"cX c #F5C66B",
"vX c #F4C15B",
"bX c #C48E3C",
"nX c #94528E",
"mX c #B46FAA",
"MX c #A96495",
"NX c #C575B2",
"BX c #CE7AC5",
"VX c #BA958D",
"CX c #CAAC88",
"ZX c #CC8EB4",
"AX c #E3A790",
"SX c #F7C687",
"DX c #D58FCC",
"FX c #E59BD8",
"GX c #E9AFD8",
"HX c #F5B8E9",
"JX c #F5AEEC",
"KX c #DFA3D3",
"LX c #FEC9F9",
"PX c #FED4FC",
"IX c #F7C5EA",
"UX c #EFC1DF",
/* pixels */
"                                                                                                                                                                                                                                                                                                                                                                                                                                                                                                                                                                                                                                                                                                                                                                                                                                                                                                                                                                                                                                        ",
"                                                                                                                                                                                                                                                                                                                                                                                                                                                                                                                                                                                                                                                                                                                                                                                                                                                                                                                                                                                                                                        ",
"                                                                                                                                                                                                                                                                                                                                                                                                                                                                                                                                                                                                                                                                                                                                                                                                                                                                                                                                                                                                                                        ",
"                                                                                                                                                                                                                                                                                                                                                                                                                                                                                                                                                                                                                                                                                                                                                                                                                                                                                                                                                                                                                                        ",
"                                                                                                                                                                                                                                                                                                                                                                                                                                                                                                                                                                                                                                                                                                                                                                                                                                                                                                                                                                                                                                        ",
"                                                                                                                                                                                                                                                                                                                                                                                                                                                                                                                                                                                                                                                                                                                                                                                                                                                                                                                                                                                                                                        ",
"                                                                                                                                                                                                                                                                                                                                                                                                                                                                                                                                                                                                                                                                                                                                                                                                                                                                                                                                                                                                                                        ",
"                                                                                                                                                                                                                                                                                                                                                                                                                                                                                                                                                                                                                                                                                                                                                                                                                                                                                                                                                                                                                                        ",
"                                                                                                                                                                                                                                                                                                                                                                                                                                                                                                                                                                                                                                                                                                                                                                                                                                                                                                                                                                                                                                        ",
"                                                                                                                                                                                                                                                                                                                                                                                                                                                                                                                                                                                                                                                                                                                                                                                                                                                                                                                                                                                                                                        ",
"                                                                                                                                                                                                                                                                                                                                                                                                                                                                                                                                                                                                                                                                                                                                                                                                                                                                                                                                                                                                                                        ",
"                                                                                                                                                                                                                                                                                                                                                                                                                                                                                                                                                                                                                                                                                                                                                                                                                                                                                                                                                                                                                                        ",
"                                                                                                                                                                                                                                                                                                                                                                                                                                                                                                                                                                                                                                                                                                                                                                                                                                                                                                                                                                                                                                        ",
"                                                                                                                                                                                                                                                                                                                                                                                                                                                                                                                                                                                                                                                                                                                                                                                                                                                                                                                                                                                                                                        ",
"                                                                                                                                                                                                                                                                                                                                                                                                                                                                                                                                                                                                                                                                                                                                                                                                                                                                                                                                                                                                                                        ",
"                                                                                                                                                                                                                                                                                                                                                                                                                                                                                                                                                                                                                                                                                                                                                                                                                                                                                                                                                                                                                                        ",
"                                                                                                                                                                                                                                                                                                                                                                                                                                                                                                                                                                                                                                                                                                                                                                                                                                                                                                                                                                                                                                        ",
"                                                                                                                                                                                                                                                                                                                                                                                                                                                                                                                                                                                                                                                                                                                                                                                                                                                                                                                                                                                                                                        ",
"                                                                                                                                                                                                                                                                                                                                                                                                                                                                                                                                                                                                                                                                                                                                                                                                                                                                                                                                                                                                                                        ",
"                                                                                                                                                                                                                                                                                                                                                                                                                                                                                                                                                                                                                                                                                                                                                                                                                                                                                                                                                                                                                                        ",
"                                                                                                                                                                                                                                                                                                                                                                                                                                                                                                                                                                                                                                                                                                                                                                                                                                                                                                                                                                                                                                        ",
"                                                                                                                                                                                                                                                                                                                                                                                                                                                                                                                                                                                                                                                                                                                                                                                                                                                                                                                                                                                                                                        ",
"                                                                                                                                                                                                                                                                                                                                                                                                                                                                                                                                                                                                                                                                                                                                                                                                                                                                                                                                                                                                                                        ",
"                                                                                                                                                                                                                                                                                                                                                                                                                                                                                                                                                                                                                                                                                                                                                                                                                                                                                                                                                                                                                                        ",
"                                                                                                                                                                                                                                                                                                                                                                                                                                                                                                                                                                                                                                                                                                                                                                                                                                                                                                                                                                                                                                        ",
"                                                                                                                                                                                                                                                                                                                                                                                                                                                                                                                                                                                                                                                                                                                                                                                                                                                                                                                                                                                                                                        ",
"                                                                                                                                                                                                                                                                                                                                                                                                                                                                                                                                                                                                                                                                                                                                                                                                                                                                                                                                                                                                                                        ",
"                                                                                                                                                                                                                                                                                                                                                                                                                                                                                                                                                                                                                                                                                                                                                                                                                                                                                                                                                                                                                                        ",
"                                                                                                                                                                                                                                                                                                                                                                                                                                                                                                                                                                                                                                                                                                                                                                                                                                                                                                                                                                                                                                        ",
"                                                                                                                                                                                                                                                                                                                                                                                                                                                                                                                                                                                                                                                                                                                                                                                                                                                                                                                                                                                                                                        ",
"                                                                                                                                                                                                                                                                                                                                                                                                                                                                                                                                                                                                                                                                                                                                                                                                                                                                                                                                                                                                                                        ",
"                                                                                                                                                                                                                                                                                                                                                                                                                                                                                                                                                                                                                                                                                                                                                                                                                                                                                                                                                                                                                                        ",
"                                                                                                                                                                                                                                                                                                                                                                                                                                                                                                                                                                                                                                                                                                                                                                                                                                                                                                                                                                                                                                        ",
"                                                                                                                                                                                                                                                                                                                                                                                                                                                                                                                                                                                                                                                                                                                                                                                                                                                                                                                                                                                                                                        ",
"                                                                                                                                                                                                                                                                                                                                                                                                                                                                                                                                                                                                                                                                                                                                                                                                                                                                                                                                                                                                                                        ",
"                                                                                                                                                                                                                                                                                                                                                                                                                                                                                                                                                                                                                                                                                                                                                                                                                                                                                                                                                                                                                                        ",
"                                                                                                                                                                                                                                                                                                                                                                                                                                                                                                                                                                                                                                                                                                                                                                                                                                                                                                                                                                                                                                        ",
"                                                                                                                                                                                                                                                                                                                                                                                                                                                                                                                                                                                                                                                                                                                                                                                                                                                                                                                                                                                                                                        ",
"                                                                                                                                                                                                                                                                                                                                                                                                                                                                                                                        = = = = = = = 1 2 2 1 = = = 2 2 : : 3 3 2 3 2                                                                                                                                                                                                                                                                                                                                                                                                                                                                   ",
"                                                                                                                                                                                                                                                                                                                                                                                                                                                                                                            = # # o $ O O . . . . . . . . . . . . . . . . X X X X X X $ O O $ $ $ # = = = = = = 3                                                                                                                                                                                                                                                                                                                                                                                                                                       ",
"                                                                                                                                                                                                                                                                                                                                                                                                                                                                                                    2 = # # $ O O . . . . . . . . . . . . . . . . . . . . . . . . . . . . . . . . . . X X O $ $ $ # = y                                                                                                                                                                                                                                                                                                                                                                                                                                 ",
"                                                                                                                                                                                                                                                                                                                                                                                                                                                                                              2 2 = $ X . . . . . . . . . . . . . . . . . . . . X X X X X X X X X X X X X X . . . X . . . X X X O $ $ = y       r                                                                                                                                                                                                                                                                                                                                                                                                                       ",
"                                                                                                                                                                                                                                                                                                                                                                                                                                                                                    $ $ . . . O O . . . . . . . . . . . . . . . . . . . . . $ # : y g s d B ~ ~ ~ B B l k t 9 > & o X X $ X $ $ O $ $ $ o = = = o & 3                                                                                                                                                                                                                                                                                                                                                                                                                   ",
"                                                                                                                                                                                                                                                                                                                                                                                                                                                                              # $ . . . . . . . . . . . . . . . . X X X X X X . . . X X X o = > d C S Z ~ =.g.k.k.k.g.-.$./ E l k t 9 > - % & X X X o o o o X X X X % & = = # # o =                                                                                                                                                                                                                                                                                                                                                                                                     ",
"                                                                                                                                                                                                                                                                                                                                                                                                                                                                        2 # O . . . . . . . . . . . . . . . X X o 3 r y y d d y y y f g g g l C Z Z ~ / +.;.l.k.c.k.j.h.5.%.$._ _ / ^ ( ( W E B B W ^ / / +./ W z l 0 * % X . . . . = n                                                                                                                                                                                                                                                                                                                                                                                                 ",
"                                                                                                                                                                                                                                                                                                                                                                                                                                                              $ O O O O O X X . . . . . . X o : 2 4 : = > 3 r y n A F F S S S ~ S [ ' ' ] +.@.@.*.;.;.;.8.h.c.m.m.m.m.m.m.c.m.m.m.m.c.c.c.m.V.V.B.B.B.`.`.`.`.B.B.B.l.&._ W r X . . . o = 3 y                                                                                                                                                                                                                                                                                                                                                                                           ",
"                                                                                                                                                                                                                                                                                                                                                                                                                                                          $ $ O O . . . X $ o # # = & & = : 4 d n n d r d m V S F [ [ [ ~ ~ ~ ^ ^ ' ] +.+.$.*.=.=.-.g.g.h.j.c.m.M.M.M.R.R././././././././././././.(.).).`.`.`.).).`.`./.B.h.z % . . . . . . o o = = >                                                                                                                                                                                                                                                                                                                                                                                   ",
"                                                                                                                                                                                                                                                                                                                                                                                                                                                    # # $ O $ O O X O O # 2 y d y y d d d n m m N N N N V S S ~ [ [ ' ' ^ ^ ~ ^ ^ ] +.+.$.$.=.;.;.-.g.h.h.j.z.m.M.R.R.R././.).).).).)._.}.}.}.}.}.}.[.[.[.@X@X<X<X<X<X<X[./.0.! W x s r 9 u l > % - - y                                                                                                                                                                                                                                                                                                                                                                                 ",
"                                                                                                                                                                                                                                                                                                                                                                                                                                                = # $ O . O O O $ # : 2 y n N V m N N N N V V V V V V S S S S ~ [ ^ ~ ~ ~ ^ ^ ^ / +.;.=.;.;.-.-.5.g.g.h.j.z.z.m.M./.).).).}.[.[.[.[.[.{.{.{.{.{.@X<X<X<X3X3X3X4X4X4X4X4X4X3X1X+X_.`./.B.V.m.k.( * % % - 3 > -                                                                                                                                                                                                                                                                                                                                                                           ",
"                                                                                                                                                                                                                                                                                                                                                                                                                                          # # O O . . . . $ $ # 6 y d n m m V V V V V V V V V V V V S S S S S ~ ~ ~ S S ~ ^ ] ] +.$.=.-.-.5.5.5.5.8.h.j.c.m.M.B.R./._.[.[.@X@X<X<X<X<X{.{.{.{.{.<X<X<X<X3X4X4X4X4X4X4X4X4X4X4X<X<X@X[._._.`./.&.h i z h q - 8 i                                                                                                                                                                                                                                                                                                                                                                         ",
"                                                                                                                                                                                                                                                                                                                                                                                                                                      # # O # O . . . . . O # 2 d m m V V V V D V V V V V V V V V V S S S S S S S S S S ~ ^ ] $.$.=.=.d.-.5.5.8.8.9.h.z.m.M././././.).[.@X<X<X1X<X<X1X<X<X<X*X<X<X<X*X*X3X4X4X4X4X4X4X4X4X3X3X3X;X*X*X{.[.[._.N.3.0.j.&.P h i t t t                                                                                                                                                                                                                                                                                                                                                                     ",
"                                                                                                                                                                                                                                                                                                                                                                                                                                + O + $ O + = 2 # O O O O $ 2 d m N V V V V V D V V V V N N N N V B S S S B B Z S S S Z ^ ] { $.;.;.=.-.-.5.5.5.8.9.j.j.z.c.M./././.).[.@X@X@X<X<X@X@X<X{.{.{.{.{.<X*X;X3X4X4X4X4X4X4X3X3X;X;X3X;X;X3X3X3X<X}.).R.R.R.n.9.8.8.g.~ t V                                                                                                                                                                                                                                                                                                                                                                   ",
"                                                                                                                                                                                                                                                                                                                                                                                                                            # O O O + # 1 2 6 2 # O O O $ = y n N N N V V V V S B S V C N N N C C B S S S B B Z S ~ ^ ^ ] $.$.$.;.;.;.-.-.-.5.5.8.9.h.j.j.j.n./.`.).).[.[.[.@X@X[.[.[.'.'.'.'.'.}.{.*X;X;X3X3X3X3X3X3X;X;X;X:X;X;X3X3X3X3X{.'.E.E.E.!.E.R.R.(.B./ - - 3                                                                                                                                                                                                                                                                                                                                                                 ",
"                                                                                                                                                                                                                                                                                                                                                                                                                        O X . . . + # 6 5 5 y 6 2 = = 2 6 y n m N N V V V B B V B B V V V V V V B B S S S Z S ~ ~ ^ ] $.$.$.$.$.;.;.;.;.&.-.5.5.8.8.h.h.j.w.n./.).`.).).[.}.[.[.[.[.'.!.!.!.!.~.}.{.*X;X;X;X3X3X4X4X3X;X;X;X:X;X3X3X<X[.).Y.r.n.R.E.).'.!.).`.j.W > & X =                                                                                                                                                                                                                                                                                                                                                               ",
"                                                                                                                                                                                                                                                                                                                                                                                                                  : = $ X . . . O # 2 5 G y y y 5 y y y b n m N N N N V V V C B V V V V S S S S Z S S S ~ ~ ~ ^ / $.;.;.;.$.$.;.;.;.&.&.&.-.5.5.8.8.h.h.j.w.z.n.R./.).).).[.[.[.[.{.}.'.'.}.}.{.;X3X3X3X;X:X:X:X:X:X3X3X;X4X;X*X[.).B.z.3.>.4.z./.[.@X[.}.)./.8.Q f = . . -                                                                                               IXHXHXIX                                                                                                                                                                                                                                                      ",
"                                                                                                                                                                                                                                                                                                                                                                                                              O O O X X . O O # 1 2 5 G G y G y y y d d b n n m m m N N V V C B B B V S S S S S S ~ ~ ~ ' ^ ] +.$.$.;.;.&.&.&.&.&.;.&.-.-.5.5.8.8.h.h.9.0.0.9.e.n.N.R.).).'.}.}.}.{.{.}.].*X*X;X3X3X3X;X:X:X:X:X4X4X3X3X3X;X3X1XB.P x z z Q $.&.5.j.c.m.M.M.M.8.W s o . . $                                                                                           HXHXJXHXHXHXHXHX                                                                                                                                                                                                                                                  ",
"                                                                                                                                                                                                                                                                                                                                                                                                        @ # . . . X X X . # # 2 6 5 G G G y G y y y d b n n n m m m N N V V V B B S V S S S ~ [ ' ' ' ] ] ] +.*.;.;.;.;.&.;.&.&.&.;.&.&.5.5.5.8.8.8.9.9.0.9.9.w.e.u.E.'.'.}.'.'.).[.<X{.*X3X3X3X3X3X;X:X:X>X4X4X4X:X;X4X3XR.9.c./ * X % % = > > > 9 0 i I j.B.f.Z r o . . X                                                                                     HXJXJXJXJXJXJXJXJXJXHXHX                                                                                                                                                                                                                                                ",
"                                                                                                                                                                                                                                                                                                                                                                                                    O O O . . . . . . O # 2 6 6 5 G G G G y b y y y d d n n n m m N N N V V V B B S S S S S ~ ~ ' ' ] ] +.+.$.*.;.;.=.;.&.-.-.&.;.;.-.-.-.5.5.5.5.8.9.9.e.z.n.R.E.E.'.}.}.}.}.}.'.*X4X4X3X3X3X3X4X4X4X4X>X7X7X4X;X;X'.}.2XB.q > X . . . . . . . . . . X , ( +.Z t : $ . . X 3                                                                             JXJXJXJXJXJXJXJXJXJXJXJXJXJXJXHXIX                                                                                                                                                                                                                                            ",
"                                                                                                                                                                                                                                                                                                                                                                                                  # O O . . . . . . O # 2 6 5 5 5 G G G G G G G y y d b b n n n n n n m V V V B B S S S S S [ ' ' ^ ' ] ] ] $.$.;.=.=.=.;.$.$.$.$.;.;.=.-.-.-.5.5.8.9.9.N.R.).'.}.}.}.{.[.[.{.[.{.4X7X7X7X7X4X4X4X4X4X4X4X5X7X4X4X@Xr.Y g.d.= $ . . . . . . . . . . . . . X X . . X . . . . >                                                                     FXFXFXFXFXGXJXJXJXJXJXJXJXJXJXJXJXJXJXJXHXHXIX                                                                                                                                                                                                                                        ",
"                                                                                                                                                                                                                                                                                                                                                                                              . O . . . . . . . O X $ # 6 5 5 5 5 y y y y G y y y y y y y 5 5 5 5 y y d m V V V V Z S S ~ [ ' ' ' ' ' ] ] ] +.*.=.=.=.*.] ^ ~ ^ ^ ] *.=.=.=.=.-.5.5.h.z.M.(.'.'.'.}.{.{.{.*X<X<X3X4X7X7X7X7X7X5X4X:X:X3X3X4X4X<X(.m.&.w * = . . . . . . . . . . . . . . . . . . . . . . . . >                                                             DXDXDXDXDXDXDXFXFXJXJXJXJXJXJXJXJXJXJXJXJXJXJXFXFXJXHXHX                                                                                                                                                                                                                                      ",
"                                                                                                                                                                                                                                                                                                                                                                                          O . . . . . . . . . . O O # 2 6 5 b y y y 5 y y y y 5 5 5 5 6 2 2 2 2 2 2 2 5 d m N N V Z S S [ ' ' ' ] ] ] ' ' ] +.*.d.d.*.] ~ S S S S ~ ] ] *.*.$.;.;.5.h.z.M.(.'.'.'.}.}.{.{.*X3X3X3X4X7X7X4X4X4X4X4X;X;X;X{.1X2X+Xx 9 > X X . . . . . . . . . . . . . . . . . . . . . . . . . -                                                         mXmXmXmXmXmXmXDXFXJXJXHXHXHXHXHXLXHXHXHXJXJXJXJXJXGXGXJXGXKX                                                                                                                                                                                                                                      ",
"                                                                                                                                                                                                                                                                                                                                                                                        O . . . . . . . . . . . O O # # 6 6 b b G G G b b b b y 5 5 6 2 2 : 2 : : = 2 6 y f n n m N D S [ ' ' ] ] ] ] ^ ~ ] *.=.d.d.*.~ S S B S S S S S ' ' ] ] *.;.5.j.z.W.).'.!.'.}.{.{.*X<X<X*X;X4X:X:X:X:X4X4X;X{.'./.B.m.d.% . . . . . . . . . . . . . . . . . . . . . . . . . . . . . -                                                       MXMXMXnXMXMXMXMXDXJXHXLXLXLXLXLXLXLXLXLXLXLXHXJXJXJXJXJXFXFXFX                                                                                                                                                                                                                                      ",
"                                                                                                                                                                                                                                                                                                                                                                                      O . . . . . . . . . . . . O O # # 6 6 b b b b b b b b b y 5 6 6 2 : # # # # # = 2 6 5 d d d f n V S ' ' ' ' ' ^ ^ ^ ] =.d.f.f.@.S V V C V V N V V A S [ ] @.] $.5.8.w.R.!.!.).}.{.{.}.}.*X;X;X:X:X;X;X:X;X;X{._.`.g.k - o . . . . . . . # # # # # # # # = = # . . . . . . . . . . . .                                                       MXnXnXnXnXMXmXNXZXGXLXLXLXLXPXPXLXPXPXPXPXPXPXLXHXJXJXJXJXFXFXHX                                                                                                                                                                                                                                      ",
"                                                                                                                                                                                                                                                                                                                                                                                    O . . . . . . . . . . . . . . O O # 6 5 5 5 5 b b 5 5 6 6 6 6 2 2 7 # # # # # # = 2 6 4 5 y y d g N D F [ ^ ~ ~ ^ ] +.$.*.*.=.d.] V N N C N N N C C V V S ' ] ^ Q %.3.0.m.B.R.R.).).).!.'.*X4X:X:X:X=X:X;X;X{./.&.^ r X . . . . . . X o = r d y 4 4 4 r y y 5 2 $ . . . . . . . . . . o                                                     nXnXnXnXnXnXMXDXJXHXLXLXLXPXPXPXPXPXPXPXPXPXPXPXLXHXJXJXJXGXFXFXHXHX                                                                                                                                                                                                                                    ",
"                                                                                                                                                                                                                                                                                                                                                                                    O . . . . . . . . . . . . . . . O # # # # # # # 1 # # # # # # # # # # # # # # # # 1 6 6 6 5 y d f f N S F S Z Z W +.*.*.+.' ] #.S n n n m m m m m C C C D F S B W $.8.9.m.m.z.z.m.n.n.!.*X;X:X:XXX=X:X;X].*X_.5.* X . . . . . . X > g N N S S Z N N N g f f y r = X X $ $ X . . . . + y                                                   OXa.OXnXnXnXnXMXKXLXLXPXPXPXPXPXPXPXPXPXPXPXPXPXPXPXLXJXJXJXFXFXJXJXJX                                                                                                                                                                                                                                    ",
"                                                                                                                                                                                                                                                                                                                                                                                      . . . . . . . . . . . . . . . . . O . . . O . . . O O O O O O # # # # # # @ # # # 2 6 6 6 5 d d d g V D C l l Z +.+.$.@.' ' ~ V f n n n n m n m m m m C V S B W =.8.8.8.3.3.3.3.7.u.'.;X;X].^.^.:X:X:X;XR.o.u X . . . . . . o u Z ^ / / / +.] ] ' ' ' [ S V C m r d d y # X . . . #                                                     a.a.nXnXnXnXnXMXKXLXPXPXPXPXPXPXPXPXPXPXPXPXPXPXPXPXLXLXHXJXJXJXJXDXDXFX                                                                                                                                                                                                                                  ",
"                                                                                                                                                                                                                                                                                                                                                                                        O O O . . . . . . . . . . . . . . . . . . . . . . . . . . . O O O O O O O @ # # 2 2 6 6 6 5 y d d f g g l Z / +.] +.@.] S m n d b b b n n n M n b m N N V B W $.$.&.:.%.%.&.3.7.u.!.].;X].].:X:X4X;X'.o.w X . . . . . = 2 s W ^ / X.$.$.$.$.{ ] ] ] ] ' ~ S B B V n d > = # $ . o                                                   a.a.a.nXnXnXmXmXNXKXLXPXPXPXPXPXPXPXPXPXPXPXPXPXPXPXPXLXLXLXHXHXHXJXDXmXDXDX                                                                                                                                                                                                                                ",
"                                                                                                                                                                                                                                                                                                                                                                                          # O . . . . . . . . . . . . . . . . . . . . . . . . . . . . . . . . . . O O # 2 2 6 6 6 6 5 4 r d g l l Z $.*.' ] @.#.g r r 5 5 6 5 b b b b b b b n m V Z W / +.;.&.5.8.0.j.N.W.T.H.Q.XX:X>X>X;XW.I q % . . . . . # N ^ ^ { $.X.X.%.&.%.$.{ $.$.$.$.] ^ ~ W Z S B C g r r = . X                                                 a.a.a.a.nXnXMXDXJXJXHXLXPXPXPXPXPXPXPXPXPXPXPXPXPXPXLXLXLXLXHXHXHXLXHXDXmXmXNXDX                                                                                                                                                                                                                              ",
"                                                                                                                                                                                                                                                                                                                                                                                            O . . . . . . . . . . . . . . . . . . . . . . . . . . . . . . . . . . . O @ 7 2 2 6 6 6 5 4 r d m N V S +.] ~ Z S S d 6 5 5 6 6 6 5 6 6 5 y y d n n B ^ / +.:.5.8.h.j.m.M.R.W.T.H.H.XX:X:X4X{.>.% X X . . . . . : D ^ +.$.$.%.o.&.3.&.X._ _ { $.$./ ^ ^ ^ / +.] ] ~ S C 3 X X                                               a.p.a.a.nXnXMXMXDXHXHXJXLXPXPXPXLXPXPXPXPXPXPXPXPXLXLXLXLXLXLXLXLXLXLXHXFXDXDXBXDX                                                                                                                                                                                                                              ",
"                                                                                                                                                                                                                                                                                                                                                                                            O . . . . . . . . . . . . . . . . . . . . . . . . . . . . . . . . . . . . O # 7 2 6 6 6 5 G d g N S S S S ~ S N N d 4 6 6 6 6 6 6 6 2 2 2 6 5 y d N S +.$.;.&.5.8.h.j.e.n.N.Y.!.~.].:X:X;XE.e.W X X . . . . . X $ > f Z / $.X.X.%.8.&._ ! ! ! $.$.$./ / ] +.$.+.+.] ' S r % % u                                           p.p.p.a.OXnXnXMXmXDXHXJXJXLXPXLXLXLXLXLXPXPXPXPXPXLXLXHXLXLXLXLXLXLXLXLXLXJXFXFXDXNXZX                                                                                                                                                                                                                            ",
"                                                                                                                                                                                                                                                                                                                                                                                              O . . . . . . . . . . . . . . . . . . . . . . . . . . . . . . . . . . . . @ < 7 6 6 5 G d g g C D S Z Z S V g d r 2 2 2 2 2 2 2 2 7 7 2 2 4 y d N ^ $.=.&.5.8.8.9.w.w.r.u.T.~.].:X:X;X<X6.w & X . . . . . X X X $ = > t l x z Q X.o.) ! X.%.%.%.$.$.$.$.$.$.$.*.$.] ' V r - 8                                           s.s.p.a.nXnXMXmXmXDXJXJXJXHXLXLXLXLXLXPXPXPXPXPXPXLXLXLXLXLXLXPXLXLXLXLXLXJXFXJXDXMXMX                                                                                                                                                                                                                            ",
"                                                                                                                                                                                                                                                                                                                                                                                                O O . . . . . . . . . . . . . . . . . . . . . . . . . . . . . . . . . . . @ < 7 6 5 d N D D D D Z S D V N d y 5 2 2 2 7 # # # < # # # 2 4 y d B ^ $.-.-.3.8.8.0.w.e.u.u.T.~.'.].}.}.`.! % X X X X X X X X X . X $ o % * , 0 h W _ ) ) 5.g.&.%.$.$.$.$.$.$.$.$.$.*.] ' [ n 9                                         s. .} p.OXnXMXMXmXmXDXJXJXFXJXLXLXLXLXLXPXPXPXPXPXLXLXLXLXPXPXPXPXPXPXPXPXLXFXFXJXBXnXnXmX                                                                                                                                                                                                                          ",
"                                                                                                                                                                                                                                                                                                                                                                                                  # . . . . . . . . . . . . . . . . . . . . . . . . . . . . . . . . . . . O # 7 4 d n A S S Z Z Z D V N m d y 6 2 2 7 7 # # # # # # # # 2 r d S +.$.8.8.3.0.0.w.e.n.n.E.!.'.'.e.U x B > X . . X 9 k x z w % X X X $ & X & 0 s P ! X.3.8.8.&.&.%.%.%.%.%.$.$.$.$.$.*.] [ i 9                                         s. .s.a.OXnXMXmXNXBXDXJXJXFXJXHXLXLXLXLXLXPXPXPXLXHXLXPXPXPXPXPXPXPXPXPXPXHXFXFXFXDXnXnXmX                                                                                                                                                                                                                          ",
"                                                                                                                                                                                                                                                                                                                                                                                                    . . . . . . . . . . . . . . . . . . . . . . . . . . . . . . . . . . . . @ 2 4 d m D S S Z Z Z V N n d d y 6 2 1 7 7 # # # # # # # # : y g S +.-.8.8.0.0.0.e.n.R.R.!.)./.m.K % X X X . . X 8 K %.4.z.) e x B - X % % = 4 d Z / X.%.&.-.&.&.&.%.%.%.%.$.$.$.%.;.=.*.' N i                                         }  .s.a.OXMXmXNXBXBXDXJXJXFXFXJXLXLXLXLXLXLXLXLXLXHXLXPXPXPXPXPXPXPXPXPXPXHXJXFXFXDXnXnXMXmX                                                                                                                                                                                                                        ",
"                                                                                                                                                                                                                                                                                                                                                                                                      . . . . . . . . . . . . . . . . . . . . . . . . . . . . . . . . . . . O : 5 m N D S Z Z Z V V N d r y y 6 2 1 7 7 # # # # # # # = 2 y f ~ $.-.h.j.w.7.q.e.N.R.R.(.N.! h = . . . . X % 8 e Y 1.S.Q.S.t.Y.R.j 8 i k > 4 y l Z W W ! X.%.&.&.&.;.%.$.$.$.$.;.;.d.d.@.S S ~                                      .C  .s.a.OXMXmXBXBXBXDXJXJXFXDXFXHXLXLXLXLXPXLXLXLXLXLXPXPXPXPXPXPXPXPXPXPXLXJXFXFXNXnXnXnXnXMX                                                                                                                                                                                                                      ",
"                                                                                                                                                                                                                                                                                                                                                                                                        O . . . . . . . . . . . . . . . . . . . . . . . . . . . . . . . . . . # y N D D S Z Z Z V N f y y y 5 6 1 7 # # # # # # # 7 = : 4 d f ~ $.&.j.m.e.w.w.e.N.M.B.B.V.t . . . . . % 8 L <.1.A.S.H.H.H.H.G.G.R Y w.%.9 : = = : r s c ( $.$.&.&.&.&.X._ %.%.;.=.d.f.@.[ F V u                                   C v  .p.a.OXMXmXBXBXBXDXJXJXFXFXFXGXHXHXHXIXLXLXLXLXLXPXPXPXPXPXPXPXPXPXLXPXLXJXFXFXmXnXa.OXOXnX                                                                                                                                                                                                                      ",
"                                                                                                                                                                                                                                                                                                                                                                                                          O . . . . . . . . . . . . . . . . . . . . . . . . . . . . . . . . . # d D S S Z Z B V N f d y y 5 4 2 7 # # # # # 2 2 2 2 2 2 y f l W _ o.z.n.e.w.w.e.N.M.c.h.=.> . . . . X w I y.T.Q.Q.Q.H.H.H.H.H.J.A.G.T.q.w * 9 & X $ : d l Z ] -.5.&.%.X._ %.&.;.$.=.d.] [ F V u                                   v v } p.OXOXMXmXBXBXBXBXJXJXJXGXHXHXHXHXHXHXLXLXIXIXLXPXPXLXLXPXPXLXPXLXLXLXLXJXFXFXmXnXa.a.OXnX                                                                                                                                                                                                                      ",
"                                                                                                                                                                                                                                                                                                                                                                                                            O . . . . . . . . . . . . . . . . . . . . . . . . . . . . . . . $ 6 V S S S Z Z V N n d y y 5 6 6 2 7 7 2 7 2 6 6 6 4 6 4 y d C Z ( ! o.z.n.e.w.w.e.z.m.g.l > X . . . X ; J R 1.Q. X X X XL.K.H.J.J.H.H.H.G.i.<.8.q X X O # : s S -.5.&.X._ ! _ $./ ( ^ ] [ N m u -                                   C v  .p.OXOXnXmXBXBXBXBXJXJXJXHXIXIXHXHXHXHXIXIXIXLXPXPXPXLXLXLXLXLXLXLXLXLXJXJXFXFXmXnXa.a.a.nX                                                                                                                                                                                                                      ",
"                                                                                                                                                                                                                                                                                                                                                                                                              O . . . . . . . . . . . . . . . . . . . . . . . . . . . . . # y C F S S D B V N n f d y 5 5 6 6 2 : 2 2 6 6 6 5 b d 5 4 y n S ~ ! Q X.9.z.w.7.9.w.8.$.B = . . . . X ; e 1.A.D.L..X.X.XL.L.K.K.K.K.J.J.H.L. X^.F.e 8 & + O # 3 N $.;.$._ Q Q ! ( E B B [ S d 3 o X -                               b.E i  .p.U.OXnXmXNXNXNXBXJXJXJXHXIXIXHXHXHXHXUXUXLXPXPXLXLXLXIXIXIXLXLXLXLXHXGXFXFXDXmXnXa.a.a.nX                                                                                                                                                                                                                      ",
"                                                                                                                                                                                                                                                                                                                                                                                                                . . . . . . . . . . . . . . . . . . . . . . . . . . . . . 2 n A A D D V N N m f f d y 5 5 6 6 6 6 6 6 6 6 5 d b b d y g S S ^ / ! X.0.9.7.7.8.8.! - . . . . X % w H R H..X.X9X-X9X9X-X.X.X.X.X.XL.L.L..X-X.XL.2.o./ > X O 2 d ~ ^ / / Q Q Q ( ~ B B ~ F d = $ . -                               b.E H } b.U.OXOXNXNXNXmXBXJXJXJXHXIXHXHXHXHXHXUXUXPXPXPXLXLXLXLXIXIXIXIXLXLXHXGXFXFXDXmXa.a.a.a.nX                                                                                                                                                                                                                      ",
"                                                                                                                                                                                                                                                                                                                                                                                                                  O . . . . . . . . . . . . . . . . . . . . . . . . . . # y M S S V N N N m f d y y 5 5 6 6 6 6 6 6 6 4 4 5 d d b f n V ~ ' / X.X.%.5.8.4.3.3.&.B X . . . X % j q.S.H. X-XwXwXwXwXwXwXwXwXwXqXwXwXqXqXeXqX0X-X XQ.z.q X . O 2 t h x W Q Q Q ^ ] B N V V r o . . -                             b.s.E  .} |.|.p.OXNXNXNXNXDXJXJXGXHXHXHXHXHXHXUXUXUXPXPXPXIXIXIXIXIXIXIXIXHXLXHXJXFXFXDXMXa.a.a.a.nX                                                                                                                                                                                                                      ",
"                                                                                                                                                                                                                                                                                                                                                                                                                    $ O . . . . . . . . . . . . . . . . . . . . . . O # : y M A D N m g g f d r 4 4 4 4 6 6 6 5 5 5 5 5 6 5 y d d n N S ' +.$.$.%.3.3.3.8.5.8.+.u . . . . w J R S. X.X9XeXwXdXdXdXdXaXaXaXaXaXaXaXaXrXwXwXeX9X.XL.t.e X X O $ = > s z ( ( ( ^ ' Z d d n 3 $ . . -                             } } E E } |.|.p.OXZXZXZXNXDXJXJXGXHXHXHXHXUXHXHXGXGXIXPXPXIXIXIXIXIXHXHXHXHXHXHXJXFXFXDXMXa.a.a.a.nX                                                                                                                                                                                                                      ",
"                                                                                                                                                                                                                                                                                                                                                                                                                      O . . . . . . . . . . . . . . . . . . . . . O + 2 2 r m N m g g g d d y 4 4 3 2 2 6 6 5 y y 5 5 4 4 4 4 d f N S ' ] +.$.$.%.&.3.3.8.8.f.Z = . . . q w.T.H.H..X.X9XeXrXdXyXyXyXrXrXaXdXdXdXdXdXdXaXrXyXrXrXaXpXY.j > $ $ o - t z ( ^ ^ ~ S g 3 > 3 2 $ . . 3                             } } } } } b.b.| U.AXAXZXNXDXJXJXHXHXHXHXHXGXGXGXGXGXIXPXPXIXIXIXIXHXHXHXHXHXHXJXFXFXFXDXMXa.a.a.a.OX                                                                                                                                                                                                                      ",
"                                                                                                                                                                                                                                                                                                                                                                                                                      O . . . . . . . . . . . . . . . . . . . . O # = 4 r y f m f f d d d r r 4 4 3 2 6 4 5 y y y 5 5 5 5 y d n N S ^ ' ] ] _ X.o.o.3.3.&.$.Z > . . X X L ~. X X.X-X9XeXwXdXdXuXyXyXyXyXdXdXdXdXdXdXdXdXdXfXgXkXkXSX:XI t & o # > t B ~ ( W k f y > = : # $ . . 3                           E E } } } | | | } U.AXAXZXNXNXJXHXHXHXHXHXHXGXGXGXGXGXUXPXPXPXIXIXIXHXJXGXJXHXHXJXFXFXFXDXnXa.a.p.a.OXmX                                                                                                                                                                                                                    ",
"                                                                                                                                                                                                                                                                                                                                                                                                                      + . . . . . . . . . . . . . . . . . . . O # = 6 y f f f f f d d d y r 4 4 3 3 4 4 4 5 5 5 5 5 5 5 y d m N D S ^ / / / _ _ o.o.3.5.&.l * X . & z L q. X X.X.X-X0XwXdXdXdXdXdXuXyXyXuXdXdXdXdXdXdXdXdXgXhXhXkXSX XI l r = = > d B ~ B B s r r 2 : # # # O . 3                           B C E E } | } } } y.VXAXAXNXNXFXHXHXIXUXHXHXGXGXGXGXGXUXIXPXPXPXLXIXGXGXGXGXJXJXJXFXDXDXDXnXa.a.a.OXMXmXZX                                                                                                                                                                                                                  ",
"                                                                                                                                                                                                                                                                                                                                                                                                                      # . . . . . . . . . . . . . . . . . . . O 2 y d n g f f f d d d d r r r 4 4 4 4 5 4 5 5 5 4 5 5 y d f m N D Z Z W ( ! ) X.o.>.%.-.d.N o . . : h./.~.^. X X X-X,XpXaXaXaXaXdXdXdXyXuXdXdXdXdXdXdXdXfXfXgXhXkXSX^.` B r - = 3 t C B B B N f 4 2 7 # # # O .                             C C E  .} | | } } | oXpXVXVXVXZXmXmXKXIXUXUXGXGXGXGXGXUXIXIXIXUXHXGXGXKXKXKXGXJXJXFXDXKXZXnXOXOXOXOXMXMXOX                                                                                                                                                                                                                  ",
"                                                                                                                                                                                                                                                                                                                                                                                                                      $ . . . . . . . . . . . . . . . . . . O = y n n n g f f d d d d d r y d d y y r 5 4 4 6 6 6 5 y y d n f n N l l z P ! ) o.>.o.o.( l 3 X . . X x o.e.F.G.J.A.A.J.H.L.L.-XqXpXaXaXdXuXdXdXuXuXdXdXdXfXdXdXhXkXjXQ.) l r = = = 3 t t l N N n 4 : # # # @ X .                             i i i  .} p.| | | | D.&X$XVXVXVXnXnXZXUXUXUXGXGXGXGXGXUXIXIXGXZXmXZXKXKXKXKXFXFXFXDXmXmXMXOXOXOXOXOX#XOXa.                                                                                                                                                                                                                  ",
"                                                                                                                                                                                                                                                                                                                                                                                                                      # . . . . . . . . . . . . . . . . . O # y n m m N n f d d d d d d f m M m d d y 5 5 5 6 6 6 5 b d b d d d g k l z P Q X.>.4.3.8.B o . . . . . X & I 7.2.2.1.1.1.1.2.2.A.H.J.L.qXaXaXdXyXyXyXuXdXdXdXdXdXhXgXjXT.I l r = = # = - - f N m d 6 # # # # # X X                             u u i  .} p.| | U.U.U.&XoX%XpX$X#XMXMXMXVXZXZXKXKXGXGXUXUXIXGXmXMXZXKXKXKXKXKXDXDXZXMXOXC.C.C.OXOX$X#XOXa.                                                                                                                                                                                                                  ",
"                                                                                                                                                                                                                                                                                                                                                                                                                      # . . . . . . . . . . . . . . . . O : d V A A V N m n f d f f m N V D A m d y y 5 5 5 6 6 5 y b b b d d d f l Z ! _ X.O.>.7.8.g.l X . . . . . X X x %.7.7.<.O.O.O.O.O.<.T J ..,XqXwXaXwXwXwXrXyXdXfXfXfXhXgXjXG.j t 3 # $ $ $ % - f V n y 6 = # # # # o %                             9 u i  .} p.Z.U.U.U.U.$X%X%X$X|.|.OXOXOXOXMXZXKXGXGXGXHXHXHXGXKXKXKXKXKXKXGXKXZXDXZXmXOXC.C.C.OX$X$XOXOXp.OX                                                                                                                                                                                                                ",
"                                                                                                                                                                                                                                                                                                                                                                                                                      + . . . . . . . . . . . . . . . $ = d A A A A V N n m N N V D D A D M b d 5 4 5 5 5 6 6 6 5 y b b n d d d k Z / X.X.o.o.8.3.x t & . . . . X O . . & 9 h a 8 * * * * * 8 8 w ,.Y.S. X>X0X9XwXwXwXdXfXfXgXhXgXsXr.i y 2 # . . X o > n V n y 3 = # O $ = > -                             - - u  .| p.Z.U.U.U.U.oXpXpXoXU.U.U.U.|.$XVXZXGXGXGXGXGXGXGXGXGXKXKXDXZXZXZXmXnXZXZX#Xb.b.U.U.U.|.#XOXC.p.C.                                                                                                                                                                                                                ",
"                                                                                                                                                                                                                                                                                                                                                                                                                      + . . . . . . . . . . . . . . O # y A A A V N N N N V S S F F F S N b 5 5 4 5 5 4 6 6 6 6 6 5 y d n g g k z ( _ _ X.o.3.9.! & . . . . X X $ $ . . . & f s X . . . . . X X % e e e Y 2.A.J..X9X9XeXfXgXgXgXjXsX4.q 4 # O . . . X - d n n y 2 = O . . # 4                               - - p  .| p.Z.U.U.U.U.$XpXpX%XoXoXU.U.U.$X$XVXAXKXKXZXKXGXGXGXKXDXZXZXmXmXMXC.s.C.#Xb.b.v.R.U.U.|.#XOXC.p.C.                                                                                                                                                                                                                ",
"                                                                                                                                                                                                                                                                                                                                                                                                                      O . . . . . . . . . . . . . O # 2 b V M m m n n n N S F F F F A N n 5 5 5 5 5 6 6 6 6 6 6 6 4 4 y d f l z W X.o.o.o.3.-./ 0 X . . . . > 9 , & . . O # 4 > X . . . . . . X X X X X * a J R A.K.P.bXfXkXkXfXaX4XI % O . . . . . X = y y d y 2 2 O . . o                                 - & p } | | Z.U.U.U.U.oX%X0XpXsXsXoXD.&XoX$X|.$XAXAXKXKXKXKXKXKXDXZXZXZXZXnXs.} b.MX#X@X@X|.|.|.|.#X#Xb.s.p.                                                                                                                                                                                                                ",
"                                                                                                                                                                                                                                                                                                                                                                                                                        . . . . . . . . . . . . . O # : b M M m m n g m N V A A A V m d y 5 6 5 6 6 6 6 6 6 2 2 2 3 3 r t k B W _ 3.3.8.8.5.f.B X . . . . & l W W s o . O $ $ O X X . . . . . . . . . . . X % 8 T J.P.9XgXkXkXaX Xq.q . . . . . . . . o 4 y n y 5 2 $ . . o                                 - % - i } | U.U.U.U.U.&XoX.X0XlXAX0XK.K.oXoXU.$XAXAXAXZXZXmXmXmXmXZXDXZXmXC.} } C.VXVX@X4X{.|.$X|.OXb.} } p.                                                                                                                                                                                                                ",
"                                                                                                                                                                                                                                                                                                                                                                                                                        . . . . . . . . . . . . . O O = y M m N m n n m m N M M m n b y 5 5 6 6 6 6 6 6 4 6 2 : 2 4 r f k W / %.&.8.7.0.3._ B > . . . . . & I X.%.Q q * & X . X X X X . . . . . . . . . . . X ; J  XqXrXgXkXkXaXS.) - . . . . . . . . $ 2 y d y 4 2 O . . o                                 = X % p H | U.U.U.U.U.U.&XoXoX0XpX%XK.K.K.K.D.&X$X$X$X$X$XMXNXZXZXDXKXZXZXMXb.} C.VX#XY.E.E.|.$XU.| }  . .s.                                                                                                                                                                                                                ",
"                                                                                                                                                                                                                                                                                                                                                                                                                        . . . . . . . . . . . . . . O # y N m N N N m n n n n n d y y 5 5 5 5 6 4 4 4 4 4 6 2 6 y d N B ~ ] %.5.3.7.9.7.3.j X . . . . . % q I Y ` U J e w i > $ O $ X . . . . . . . . . . X j Y R qXdXdXhXhXkXsXt.j o . . . . . . . . . # 3 6 = : # O . . o                                 o X X % 8 } |.|.U.U.U.D.U.D.&XoX0XzXwXwX0X%X.XoXoX&X&X$X$XMXZXZXZXZXZXZXZXZX#XE 6.#XU.y.y.y.w.|.U.} v } } s.                                                                                                                                                                                                                ",
"                                                                                                                                                                                                                                                                                                                                                                                                                        O . . . . . . . . . . . . . O : f N N V V N N N N m n y y 5 5 5 4 4 4 4 4 4 4 4 4 4 5 n V S ^ ' ^ _ %.3.3.7.9.0.5.k . . . . . X q I ` <.<...1.<.<.R.{ % X . X . . . . . . . . . . ; ,.:XL.dXfXfXgXgXjXsXY % . . . . . . . . . . . + # O $ O . . .                                   o X . X % i b.U.Z.U.Z.Z.D.U.U.oXpXlXlXkXgXlXzXpX0XoXoXoX$X$X#X#X#X#X#X#XMXMXb.H L | | | y.y.y.U.U.} i  . .                                                                                                                                                                                                                  ",
"                                                                                                                                                                                                                                                                                                                                                                                                                        $ . . . . . . . . . . . . . o 4 N S D D Z S S S V C n b y 5 5 5 4 4 4 4 4 4 4 4 4 6 y N S ' ] ] / _ o.3.7.7.9.8.%.r . . . . . & K ` R 1.H.H. X:X>X5X4.8 X X X * 9 ; % X X . . . % p 1.qXrXfXgXfXgXgXjXpXL . . . . . . . . . . . . O # O O . . . .                                   o . . . X & p H } U.| | | D.U.&X.XzXdXlXdXzXwXeX0X%XoXoXoX&XU.p.p.p.OXOXU.| } } H T | | y.y.| U.b.z p  .}                                                                                                                                                                                                                   ",
"                                                                                                                                                                                                                                                                                                                                                                                                                      # $ . . . . . . . . . . . . X : r N S S S F [ F S V C n b y 5 5 4 4 4 4 4 4 4 4 4 4 3 y N ~ ^ ] ] X.o.>.7.7.7.9.$.k & . . . . X * U ,.1.A.J.K.0XaXaXpXXXq.x ; ; Q q.T J i % $ X & L A.-XrXuXdXgXfXgXgXjXpXj . . . . . . . . . . . . . $ O O . . . .                                   X . . . . X ; p } b.p.| | Z.U.D.D..XwXzXdXdXzXwXeXwXwX0X0XoXU.| | U.|.$XU.| | | | S.U.U.U.U.| b.b.i u s.b.                                                                                                                                                                                                                  ",
"                                                                                                                                                                                                                                                                                                                                                                                                                      O O . . . . . . . . . . . X : r f V S [ [ [ ' ' S n n b y 5 5 4 4 4 6 6 4 4 4 4 4 r r d l ~ ^ / _ _ >.7.e.e.9.j.W % . . . . X % w Y 2.A.L.P.P.wXdXdXdXlXsXY.p 8 Y Q.A.2.` w % % i XXsXlXdXdXdXgXgXfXfXjX5Xj . . . . . . . . . . . . . O O O . . . .                                   o . . . . O X * } b.p.| | Z.Z.Z.Z.D..XlXSXkXkXkXkXkXkXkXSXAXsXoXD.oXoX%X$X|.U.U.U.U.&X&X&XU.Z.U.b.B u s.                                                                                                                                                                                                                    ",
"                                                                                                                                                                                                                                                                                                                                                                                                                    O . . . . . . . O O O # 2 > > g V V S ' ' ' S S S m b y 5 5 5 5 5 6 6 6 5 5 5 4 d d d f k l W / X.o.3.7.w.r.e.0.h.Z X . . . o h j J ..A.A.L.-X%XwXdXdXdXdXjX XR R H.-X.X.XT.x 9 8 L pXlXlXfXgXgXgXgXgXfXSX5Xh . . . . . . . . . . . . . . . . . . . .                                     u X . . . X & i | | | | Z.Z.Z.Z.D.D.0XlXlXlXlXgXkXkXkXkXSXSXaX0XpXpXpXpXoXoXU.U.U.U.&X&XU.Z.U.b.k u  .                                                                                                                                                                                                                    ",
"                                                                                                                                                                                                                                                                                                                                                                                                                    O . . . . . . O O $ O # d d s S ' ^ ' +.+.#.N f d y 5 5 5 4 4 6 5 6 6 5 5 d d d f N V Z Z ( X.%.%.3.7.e.r.r.e.3./ r . . . . , ! O.Y S. XI.P.eXwXyXdXdXdXdXlXaX0XqXqXqX9XqXXXI j e T pXlXfXdXgXgXgXgXgXfXSX7Xi . . . . . . . . . . . . . . . . . . . .                                       o $ . . . % w i H | | U.U.Z.Z.A.Z.D..X0XeXeXzXgXgXlXdXdXlXlXzXzXzXlXzX.X&XD.U.U.U.&X&XU.Z.b.{ i u C                                                                                                                                                                                                                     ",
"                                                                                                                                                                                                                                                                                                                                                                                                                    O . . . . . O O # $ $ X > Z ~ @.=.^ S S V V d 4 4 2 6 6 6 6 6 6 6 6 5 5 y d n n N B ^ / / $.&.3.3.4.w.r.r.e.z.%.9 X . . . & 8 I <...G. XL.-XwXdXdXdXdXdXfXlXlXdXdXdXwX-X-XG.H e H T qXdXdXgXgXgXgXgXgXfXSX5Xq . . . . . . . . . . . . . . . . . . . .                                       % $ . . . X & 8 p L } | ` | | y.| R I.P..X%XzXlXgXzX9XP.%XwXzXzXdXdXlX0X&XD.Z.Z.Z.D.U.U.U.| E p p C                                                                                                                                                                                                                     ",
"                                                                                                                                                                                                                                                                                                                                                                                                                  = $ . . . . O O O $ o : 4 l +.=.d.=.S 0 , 0 > 2 2 2 2 2 2 6 4 5 5 5 5 y d d n n N V S ^ / $.%.3.3.4.7.r.F.r.w.z.{ & . . . % h a Y 1...J..XP.9XwXdXdXdXfXfXfXfXfXfXgXfXdXeX-XJ.R 1.S.J.rXfXdXgXgXdXgXgXgXgXSX7Xq . . . . . . . . . . . . . . . . . . . .                                       & $ . . . O $ % % w i e p H T | Z.D.K..X%X%XzXlXlXwXP.K.P.0XzXzXzXzXdXpX.XD.Z.| Z.U.U.U.U.} i i v                                                                                                                                                                                                                       ",
"                                                                                                                                                                                                                                                                                                                                                                                                                  # O . . . O O O $ # : N F +.d.f.=.' D : > > 2 2 6 2 2 2 6 4 5 y y d d n m m N N V S ~ ^ / / &.5.4.4.q.r.Y.r.6.5.B X . . . u _ ) ,.S.A.L.9X9XeXwXuXdXfXfXfXfXfXfXfXfXgXfXdXaXpX0XpXaXwXlXgXgXgXgXgXgXgXgXgXSX7Xq . . . . . . . . . . . . . . . . . . O X                                       - o . . . X $ $ % 8 i i p p H A.U.oX%X0X0XeXzXlXdXzXeX%X%X0XqX9X%X9XeX0XoXU.Z.Z.Z.U.U.U.}  .i }                                                                                                                                                                                                                         ",
"                                                                                                                                                                                                                                                                                                                                                                                                                . O . . . . O O O # $ 4 F @.@.f.f.+.g r > : 2 2 6 4 4 4 4 4 y y b n n n n m N N V S ~ ^ / / X.3.0.7.q.q.Y.W.z._ x - . . . . 0 _ O.t.H.J..XwXeXwXrXuXdXdXfXfXfXfXfXgXgXgXgXjXjXlXlXlXlXlXfXgXgXgXgXgXgXgXhXkXSX3Xw . . . . . . . . . . . . . . . . . . O o                                       - % . . . . X o % 9 k E i w T D.K.P.%X0XeXeXzXzXwXeXeX9X9X%XP.K.K.K.K.D.D.A.| Z.U.U.Z.} i p i }                                                                                                                                                                                                                         ",
"                                                                                                                                                                                                                                                                                                                                                                                                                O . . . . O O + # # = y #.d.C ^ ' S d > 3 2 2 6 4 4 5 5 y y b b n n n m m N N N V ~ ( / X.$.&.0.9.q.q.t.r.x.v./ * X . . . . * K L i.A.I.P.wXwXwXrXuXdXdXlXfXgXkXkXgXkXkXkXkXkXgXfXgXgXgXgXgXgXgXgXgXhXgXhXgXSX:Xw . . . . . . . . . . . . . . . . . . O =                                       9 - X . . . . o - p E _ ) H T D.K.K.P.P.P.P.%X9X%XP.P.P.K.K.I.I.J.D.I.A.A.| | | U.U.| H  .E i                                                                                                                                                                                                                           ",
"                                                                                                                                                                                                                                                                                                                                                                                                              O . . . . . O O # # # : 4 V D t s r r r > 2 3 4 4 4 y y y y d n f n n g g g g g l B W ( _ o.&.3.7.7.q.q.e.w.w.5.h X . . . . X 9 j J R A.I.-XwXwXwXrXyXuXdXdXfXkXkXkXkXkXkXkXkXkXkXgXgXgXgXgXgXgXgXkXgXhXhXhXgXjX>Xa X . . . . . . . . . . . . . . . . . O =                                         r X . . . X & 8 p Y | ` e H I.K.K.P.P.P.P.%X%XP.P.P.P.P.K.J.I.I.D.I.A.S.y.y.| | | H i  .E  .                                                                                                                                                                                                                          ",
"                                                                                                                                                                                                                                                                                                                                                                                                              . . . . . . O O # # = : 2 3 > > r 3 > > > 2 3 5 5 y y y d d f n n n g g f d g f z Z ^ / %.&.3.7.7.7.q.e.e.9.3.z % . . . . % 9 h L J ..J.K.9XrXwXwXrXyXuXdXdXfXkXkXkXkXkXkXkXkXkXkXkXkXkXkXkXkXkXkXkXkXkXkXkXkXxXpX2.I & . . . . . . . . . . . . . . . . . $                                           X . . . X & 8 H | S.| H T K.9X%X%XeXeXwXwXwXeX9X%X%X%X9X.XJ.I.I.I.D.S.w.v.| } H e p i  .                                                                                                                                                                                                                            ",
"                                                                                                                                                                                                                                                                                                                                                                                                            . . . . . . O O # # # = = : 3 2 3 2 2 2 2 2 3 4 5 y y y d d g n N N N n g d f f k Z / $.%.&.4.3.7.7.7.q.w.9.9.-.s . . . . o f B K I Y 2.H.L.eXrXwXwXwXrXyXuXdXdXgXkXkXkXkXkXkXkXkXkXkXkXkXkXkXkXkXxXxXxXxXxXxXxXxXaX>X'.q X . . . . . . . . . . . . . . O O . =                                         % X . X X % w J | Q.H.A.I..XwXeXwXzXzXzXyXzXzXzXwXwXwXqX0X.X.XK.L. XT.W.b.E i p i  .}                                                                                                                                                                                                                               ",
"                                                                                                                                                                                                                                                                                                                                                                                                            . . . . . O O # # # # = 1 2 6 6 4 4 4 4 5 4 4 5 4 y d d n N N N N V N N g f f k Z / $.-.3.4.4.4.7.7.7.7.7.3._ B = . . . . = B ( I Y R A. XL.eXrXwXwXrXrXyXuXdXdXfXfXkXkXkXkXkXkXkXkXxXxXxXxXxXkXxXxXxXxXxXxXxXxXxXdXqX^.e X . . . . . . . . . . . . . O @ O O 2                                         % % X X X * w T 1.oXoX.X.X.XP.P.wXzXzXzXzXzXwXwXeX9X9X.XK.K.0XK.I.H.r.9.( p p p i }                                                                                                                                                                                                                                 ",
"                                                                                                                                                                                                                                                                                                                                                                                                          # . . . . . O @ # 7 2 2 6 6 6 6 6 5 5 5 5 5 5 5 y y d d n N V V V V N N k f f k Z ^ / %.3.3.4.>.>.4.7.7.7.0.%.9 X . . . . . * z Q I Y R S..XP.9XrXwXwXrXrXyXdXdXlXfXfXjXkXkXkXkXkXkXxXxXxXxXxXxXxXxXkXkXxXxXxXxXxXxXlXpX^.w X . . . . . . . . . . . . . @ # O . : r                                         9 & X X * p L | D.D.oX.XoXI.I.eXwXwXwXwXeX9XP.K.J.J.A...H.>XH.R 1.Y L q 8 p i i                                                                                                                                                                                                                                   ",
"                                                                                                                                                                                                                                                                                                                                                                                                          O . . . . O O # 7 2 6 6 6 6 6 6 6 4 5 5 5 5 y y d d d g N C V S V N N m N N Z W ^ / / X.o.3.>.<.<.<.7.7.7.9.$.& . . . . . X * L L J R R D.-XP.eXrXwXrXrXrXyXyXdXdXfXfXfXjXkXkXkXkXkXxXxXxXxXxXxXxXxXxXkXkXxXxXxXxXkXdXpXXXq . . . . . . . . . . . . . O # < @ O = >                                           8 % % * w H Y A.D.oXoXQ.I.J.wXzXwXeXeX%XP.P.K.J.D.1.T 2.Y.y.Y U e 8 u u i i                                                                                                                                                                                                                                     ",
"                                                                                                                                                                                                                                                                                                                                                                                                        . . . . . . O O # 2 6 6 6 6 6 5 4 4 3 4 4 5 5 y d f f g N V B S C N g f l Z S ^ ^ / / X.X.o.o.<.<.<.,.q.q.3.&.Z X . . . . . X w L T T ..A.K.eXwXwXwXwXrXrXrXrXyXdXdXfXfXfXfXgXgXkXkXkXkXkXxXxXxXxXxXxXxXxXkXkXxXxXxXxXqX].z.* . . . . . . . . . . . . . O # < # O $ =                                           8 & % & 8 e T A.oX.XoXQ.D.K.wXwXwX9X9X.XP..X.X.X^.1.e p p 8 8 w w 8 u E }                                                                                                                                                                                                                                       ",
"                                                                                                                                                                                                                                                                                                                                                                                                        . . . . . . O # # 2 6 6 6 6 6 4 4 4 3 4 r y y d d f g g C B S S C N m k Z ^ ^ ^ / / / X.X.%.o.<.,.q.q.r.n.X.t & . . . . . = 0 j <.1.A.L..X9XeXeXeXeXwXrXrXrXrXrXyXdXdXfXfXfXfXfXgXkXkXkXkXkXkXxXxXxXxXxXxXkXkXkXkXkXSX XL 9 X . . . . . . . . . . . . . O # 7 # O O o                                             & % ; w L Y y.oXoX^.Q.Q.K.0XwX0X.X.X.X9X0XqXqX:Xt.e 8 8 8 8 8 p 8 p }                                                                                                                                                                                                                                         ",
"                                                                                                                                                                                                                                                                                                                                                                                                      $ . . . . . . O # # 1 1 2 6 6 6 4 4 4 4 r d d d d f n n N V S S ~ S S S S ' ] ' ~ ~ W ( / X.%.>.>.q.r.F.W.R._ & . . . . . . 3 k L ,.A.J.-XeXeXeXeXeXeXwXrXyXyXrXrXyXyXyXdXlXfXfXfXfXfXgXgXkXkXkXkXkXkXkXkXkXkXkXgXdXqX>Xq.% . . . . . . . . . . . . . . . O # 7 7 O . o                                               - * t E ) | U.Q.Q.G.H.K.0X0X.XK.L..X-XqXpXpXpX'.` K i u 9 9 u i i                                                                                                                                                                                                                                           ",
"                                                                                                                                                                                                                                                                                                                                                                                                      O . . . . . . O # # 1 # # 2 6 6 5 5 5 r y d d d f f n n N S S F [ [ [ ' ' ' ^ Z B l z W X.%.5.6.,.t.F.T.T.R._ % . . . . . . & 9 e R A.J.9XeXeXeXeXeX9XeXwXyXyXrXyXyXyXrXrXdXfXfXfXfXfXfXgXgXkXkXkXkXkXkXkXkXkXkXjXsXXX,.W X . . . . . . . . . . . . . . . O 7 6 7 O . o                                                 * i B Q I R 1.1.A.A.J..X>X XH.K. XL. X-X:XXX'.&.E B C u u k                                                                                                                                                                                                                                               ",
"                                                                                                                                                                                                                                                                                                                                                                                                    # O . . . . . . O # # = = = 2 6 6 5 5 y y y d d d d d f n n m n m V S S S S S B z z Z / &.&.%.3.7.r.F.Q.Q.T.R.z X . . . . . X & w e Y A.K.9XeXeXeXeXeXeXeXwXrXrXyXyXyXyXrXyXuXdXfXfXfXfXgXgXgXgXkXkXkXkXkXkXkXkXdX XT.4.w X . . . . . . . . . . . . . . . . O 2 6 7 O . o                                                 * - u i e T R A.H.H.H. XoXQ.H.Q.^.H.A.A.R R <.K i i u p 8 i                                                                                                                                                                                                                                               ",
"                                                                                                                                                                                                                                                                                                                                                                                                  $ O . . . . . . O # = = 3 6 2 6 5 y y y y d d d d f f f f n g d d d N V C N B B B B W / %.8.&.&.3.7.F.Q.^.~.T.z.u . . . . . X o & 0 e Y A.K.eXeXeXeXeXeXeXeXeXwXrXyXyXyXyXyXyXyXuXdXfXfXfXgXgXgXgXkXkXhXkXhXgXdXdXqX1.J 0 . . . . . . . . . . . . . . . . . . # 6 5 2 + . $                                                 & % 8 q p H Y S.4X:XT.Q.Q.G.S.Q.^.T.F.S.` ` _ x q t 9 p i i                                                                                                                                                                                                                                               ",
"                                                                                                                                                                                                                                                                                                                                                                                                O . . . . . . . O $ = 2 4 r y y r y y d n n g m N N C N m g n n f y d m N k N B ( ^ / _ X.%.&.&.3.>.t.T.^.XX].R.5.- . . . . . $ = > t e L ..K.pXqXeXeXeXeXeXeXeXeXrXyXyXyXyXyXyXyXyXdXdXfXfXfXgXgXkXkXkXhXgXgXfXaXaX5Xw.q X . . . . . . . . . . . . . . . . . . # b b 6 # . X                                                 & X - 9 p H Y y.XXXXt.t.t.2.1.S.T.Y.Y.x.6./ E i q u 9 i }                                                                                                                                                                                                                                                 ",
"                                                                                                                                                                                                                                                                                                                                                                                              $ . . . . . . O O $ # 2 r r r r y y d g N N N B B S V V V N N N N N f d n N k l W $.;.&.&.&.3.3.3.>.,.F.~.~.].).3.x X . . . . . = 3 r t w w H 2.XX X9XeXeXeXeXeXeXwXwXyXyXyXyXyXyXrXrXyXdXfXfXfXgXkXkXkXkXhXgXfXaX-X,X^.%.> . . . . . . . . . . . . . . . . . . . 2 b m 5 # . X -                                               & o - 8 q ( h.y.Y.x.,.,.1.1.<.<.,.<.` ` L i e w 8 - 8 i ]                                                                                                                                                                                                                                                 ",
"                                                                                                                                                                                                                                                                                                                                                                                          # O . . . . . . . $ : 3 > r r t t f f f k l C B B Z Z S Z Z Z Z B B B S V N k V B B / ;.8.8.8.8.7.7.7.7.2.F.~.T.!.x.h % . . . . . + 2 4 r r - * w J R .. XqXeXeXeXeXwXwXwXrXyXyXyXyXyXyXyXyXyXdXfXfXgXgXkXkXgXfXdXdX.XT 1.1.e . . . . . . . . . . . . . . . . . . . . 2 m C d = . X -                                               & % - 9 t E { ) ` ` ` 6.y.,.<...T T Y Y Y I Q K q * % - C                                                                                                                                                                                                                                                 ",
"                                                                                                                                                                                                                                                                                                                                                                                        . . . . . . . . . . = y f d r s s f k l l z B B z Z W ( ^ ^ ( ( ^ ( ( ~ ~ ~ ~ B B ] $.&.5.9.0.0.7.7.q.e.u.F.Q.~.W.x.&.- . . . . . . # 3 4 r r r 9 0 i J T Q.>X0XqXeXwXwXwXwXrXrXyXyXyXyXyXyXyXyXdXfXgXfXfXgXfXdXuXyXrX.XT 1.t.a X . . . . . . . . . . . . . . . . . . . 2 N D n 3 o O = 3                                             - o - u i i i w w e I 4.r.t.2.S.S.S.G.T.r.4.0.5.{ k * % q                                                                                                                                                                                                                                                 ",
"                                                                                                                                                                                                                                                                                                                                                                                      . . . . . . . $ $ $ $ 3 n N k f s k B B B B Z Z Z Z W ! / / ! ! ! ! / / / / / ( B z $.5.8.9.w.9.w.q.q.q.t.F.!.^.~.r.` t X . . . . . . o > r r t d f t t e w T 1.1..XqXqXwXwXwXrXrXyXyXyXuXyXyXyXuXuXdXdXdXdXdXdXdXuXuXdXwX-X>X5X>.X . . . . . . . . . . . . . . . . . . X 4 S [ S y = $ o & &                                           ; o - r u t w 8 e L ) w.x.S.G. X>X,X>X:X^.t.q.9.-.B * % p                                                                                                                                                                                                                                                 ",
"                                                                                                                                                                                                                                                                                                                                                                                  # $ . . . . . $ = 2 4 - & r C B C k k l B Z Z Z Z B ~ W ( / / / / ! ! _ _ X.$.$.$.^ ( W $.5.8.9.w.w.q.q.q.t.u.W.E.~.R.z.W X . . . . . . . = > u t f k k f f t 8 w H T  XqXqXwXwXwXrXrXyXyXyXyXyXyXyXyXyXyXyXyXyXyXuXuXuXuXuXdXaXaXqX,.X . . . . . . . . . . . . . . . . . . X r ' @.S r 3 = $ o %                                           & o & - 9 r 9 w E 3.z.Y.W.G.H.>XpX>X>X:XXXY.e.h.=.l % X 8                                                                                                                                                                                                                                                 ",
"                                                                                                                                                                                                                                                                                                                                                                                # O . . . $ # 2 4 d d d d y m S S S B B B S Z Z B Z ~ ~ ~ ^ ] ] { / / _ X.X.$.$.$.$.$.%.%.&.5.0.9.w.w.q.q.t.Y.T.!.E.W.7.P > . . . . . . . o 9 f k l B B B B B l h h e J r.Q. X>XqXeXwXyXwXwXwXwXrXyXyXyXyXyXyXyXyXyXuXuXuXuXuXdXyXrXqX<.X . . . . . . . . . . . . . . . . . . X 0 ^ ] C r 4 : $ $ o                                         w % % % & - 9 8 w I 9.W.W.T.G.H.-X5X,X X X].E.9.5.{ t % % p                                                                                                                                                                                                                                                 ",
"                                                                                                                                                                                                                                                                                                                                                                              + . . . . $ = y n n m m N V V S S S Z S S N m k N f k C N B S S ~ ^ ^ ! _ $.$.$.$.$.%.&.5.5.8.0.9.0.7.q.q.q.r.}.}.'.R.w.K % . . . . . . . . > B ( W W Q ( Q ( ! / ( E i 8 e H T A..X9XqXrXwXwXwXwXwXwXwXrXrXyXyXyXyXyXuXuXuXuXuXuXyXrXqXY X . . . . . . . . . . . . . . . . . X % 0 W ] l u r 4 $ X X                                         8 % % % & - 9 w w K 4.x.W.T.T.H. X XK.A.2.S.w._ ! W 9 % % p                                                                                                                                                                                                                                                 ",
"                                                                                                                                                                                                                                                                                                                                                                            O . . . . = 4 y n n m V A A V V d 3 > > > 2 = = o & o % = & = - - - u k W { %.;.%.%.%.%.3.5.5.0.7.7.7.7.q.u.n.F.W.!.E.w.) q . . . . . . . . . > ( _ Q ! ! I I ! _ _ _ ! K w 8 8 L q.H.>XqXqXqXwXwXeXeXwXwXwXwXrXyXyXyXuXuXuXuXuXdXdXrXrX>X) . . . . . . . . . . . . . . . . . X * h h W $.W f d y + . X                                           ; % & * - 0 0 w K 3.w.x.Y.T.H..X-XL.A...,.` L z z - % % 9                                                                                                                                                                                                                                                 ",
"                                                                                                                                                                                                                                                                                                                                                                          . . . . . # 6 y d n m n n d y 6 4 = X . . . . . . . . . . . . . . . . = t B ] =.;.$.$.$.&.3.3.3.7.7.7.4.4.r.!.}.!.Y.Y.w.L * X . . . . . . . . . * E ` Y Y Y Y Y Y O.<.<.o._ K w w ( ) J ..A.A.J.-XeXeXeXwXwXwXwXrXyXyXuXuXuXuXdXdXfXfXdXaX4XK . . . . . . . . . . . . . . . . . X 0 W W / $.W f n y $ . X                                           ; & * * 9 t k h K _ >.,.2.G. X,XqXqX XG.q.` j z k - & % w                                                                                                                                                                                                                                                 ",
"                                                                                                                                                                                                                                                                                                                                                                        $ . . . . O # : 2 4 4 y r : # X . . . . . . . . . . . . . . . . . . . . o > 3 t f t t z $.&.&.&.3.0.7.7.7.7.e.W.!.E.T.Y.e.e X . . . . . . . . . X q &.w.q.t.q.q.q.2.2.2.q.q.q.>.L q h q w a J R A. XqXqXeXwXwXwXwXwXrXyXyXdXdXdXdXfXfXjXsXQ.4.9 . . . . . . . . . . . . . . X & % * x _ X.$.$.W f n y $ . X                                           * & ; - u C W E L j j J Y S. X>XpXsX5X].x._ j z i - & % p                                                                                                                                                                                                                                                 ",
"                                                                                                                                                                                                                                                                                                                                                                      # O . . . O O $ # # # $ O . . . . . . . . . . . . . . . . . . . . . . . . . . . . . X X - ( $.X.o.8.9.e.w.q.7.,.t.W.!.~.!.B.z . . . . . . . . . . . l j.Y.S.S.S.S.S.S.S.S.G.G.S.r.,.L a i , 9 w a i.2.^. XL..X9X9X9X9XeXeXwXrXyXyXyXyXaXsXW.8 X . . . . . . . . . . . . . . . X k B x Q _ X.X._ P f m y $ . X                                           * & & - 9 C ~ W K i e J T G.:X>XsXsX>X^.x._ z i u - & % u                                                                                                                                                                                                                                                 ",
"                                                                                                                                                                                                                                                                                                                                                                    X . . . . . . O . O O . . . . . . . . . . . . . . . . . . . . . . . . . . . . . . . . . . X > 0 h / 5.9.z.z.r.q.q.t.T.~.~.)./.z . . . . . . . . . . . > L Y q.t.A.A.A.A.S.S.G.G.G.G.S.q.<.! 0 & % & w w J R R ..I.K.K.P.P.9XeXeXwXwXwXwXqX5Xo.X . . . . . . . . . . . . . . X X & B ^ Q Q ) X.X._ Z f n y $ . X                                         i * % & - 9 C ~ W E I _ 4.t.^. X.XqX5XQ.F.4.Q x i - % % % 9                                                                                                                                                                                                                                                 ",
"                                                                                                                                                                                                                                                                                                                                                                    . . . . . . . . . . . . . . . . . . . . . . . . . . . . . . . . . . . . . . . . . . . . . . . X > l Z _ 0.z.n.r.t.r.T.~.~.'./.x . . . . . . . . . . . X ; w <.y.2.2.2.2.A.S.G.G.G.G.G.F.S.w.! 9 o X - * 9 L Y <.G.Q.H.^. X,XpXpXwXaXaXaXpX7X/ . . . . . . . . . . . . . . . 2 y 9 Z / ! ! ) X.X._ Z f n 5 O . X                                           * % & - 9 i B W Q ) 7.W.^.:X.X X>X>XG.r.<.K B C - X X % 9                                                                                                                                                                                                                                                 ",
"                                                                                                                                                                                                                                                                                                                                                                  O . . . . . . . . . . . . . . . . . . . . . . . . . . . . . . . . . . . . . . . . . . . . . . . . . X & w ! M.W.r.r.u.T.~.~.'._.K . . . . . . . . . . . . X % ! <.1.2.2.2.S.S.G.G.S.S.S.S.t.q.o.q % o = X . % * w ) ` ` Y R 1.S.H.A.J.H.G.1.3.u . . . . . . . . . . . . . . X d S l W ! Q ! ) X.$.$.Z f d 6 . . X                                           - X % - - t z W ) >.r.E.XX>X>X>XpXpX~.W.3.Q ~ ~ 3 X X % 9                                                                                                                                                                                                                                                 ",
"                                                                                                                                                                                                                                                                                                                                                                  O . . . . . . . . . . . . . . . . . . . . . . . . . . . . . . . . . . . . . . . . . . . . . . . . . . X * x c.M.r.e.r.F.G.Q.~._.Q X . . . . . . . . . . . . . 9 w Y t.t.t.2.t.2.S.S.S.A.S.t.2.>.I x k > X . . . X X % % % ; 8 e J J T Y Y J i % . . . . . . . . . . . . . . . = N B E Q ! ! ! $.$.] S d y 6 O X o                                           * X - t 0 k E Q ` >.t.S.Q.,X>X-X>X5XW.w.3.Q W C > . . o 9                                                                                                                                                                                                                                                 ",
"                                                                                                                                                                                                                                                                                                                                                                  O . . . . . . . . . . . . . . . . . . . . . . . . . . . . . . . . . . . . . . . . . . . . . . . . . . . X % h %.9.e.r.t.t.G.T.R.o.W r . . . . . . . . . . . . . % K 7.q.t.2.2.2.2.S.A.S.S.S.2.q.7.%.! x 9 X . . . . . . X X % > 0 0 q h s 0 & . . . . . . . . . . . . . . . . 3 ^ ( P I I Q ! { ^ Z m r 4 2 $ X %                                           * X r S C / $.%.>.q.t.2.J. X.X X XXX<.T L j q - X . . % 9                                                                                                                                                                                                                                                 ",
"                                                                                                                                                                                                                                                                                                                                                                  O . . . . . . . . . . . . . . . . . . . . . . . . . . . . . . . . . . . . . . . . . . . . . . . . . . . . X & z $.j.M.u.t.F.G.T.x.z.B X . . . . . . . . . . . . X 9 j ` q.t.2.2.2.S.A.S.G.G.A.t.t.7.>.! j 9 X $ . . . . . . . . . . . . . . . . . . . . . . . . . . . . . . . t *./ Q I ! ! ( ( k r 3 2 = # = &                                             ; X 9 N i / 6.3.w.S.S.A.H. X X X X^.<.J J j w % . . X & 9                                                                                                                                                                                                                                                 ",
"                                                                                                                                                                                                                                                                                                                                                                  . . . . . . . . . . . . . . . . . . . . . . . . . . . . O O . . . . . . . . . . . . . . . . . . . . . . . X X & > l / ) ,.r.F.W.Y.n.! * X . . . . . . . . . . . . . % j ,.t.t.2.2.A.S.H. XH.A.S.S.t.,.>.o.x 9 > . . . . . . . . . . . . . . . . . . . . . . . . . . . . . . . 9 ^ / Q I I K z B t 2 = = # & >                                             q ; % & 8 8 z _ <.r.T.G.D.H. X X X X^.,.U Q Q k % X X X ; 9                                                                                                                                                                                                                                                 ",
"                                                                                                                                                                                                                                                                                                                                                                  O . . . . . . . . . . . . . . . . . . . . . . . . . O O @ O O O O O O O . . . . O . . . . . . . . . . . . . . . . X X * 3.u.r.F.G.W.t.>.W & . . . . . . . . . . . . X * I t.F.G.A.A.G.H.Q.H.J.D.S.S.2.q.q.Y L l & . . . . . . . . . . . . . . . . . . . . . . . . . . . X X X * j K P I Q K h f r > # $ $ %                                               9 % & % * w K ) <.Y.~.G.H.H. X X^.Q.W.<.) _ ;.^ - X . X ;                                                                                                                                                                                                                                                   ",
"                                                                                                                                                                                                                                                                                                                                                                  X . . . . . . . . . . . . . . . . . . . . . . . . . O O O @ @ O O O O O O O O O O O O . . . . . . . . . . . . . . . . & W o.7.t.F.T.T.E.M.i % X . . . . . . . . . . . X e r.!.^.Q.H.H.J.J.H.H.J.A.A.2.2.t.,.o.;.3 . . . . . . . . . . . . . . . . . . . . . . . o = & % 0 k t e K Q Q ! -.-.~ 0 3 = o $ o &                                               9 % & * 8 q K Q O.~.XXXX X X:XXX^.T.t.` ) _ =.] 9 . . X u                                                                                                                                                                                                                                                   ",
"                                                                                                                                                                                                                                                                                                                                                                    . . . . . . . . . . . . . . . . . . . . . . . . . O O @ @ @ @ # # @ # @ # # # # # # O O O O O O O X . . . . . . . . . X * I 7.F.T.T.~.Y.Y j i * . . . . . . . . . . . * P >.r.^. X^.H.A.J.K.H.J.A.A.A.S.q.e.h.f . . . . . . . . . . . . . . . . . . . . . . X > Z h q Q %.X.) o.o.X.X.-.=.C = = # $ o 3                                               k - - - 9 9 t z K ) !.{.{.XX:X:XXXQ.S.,.) Q Q / C & . . &                                                                                                                                                                                                                                                     ",
"                                                                                                                                                                                                                                                                                                                                                                    . . . . . . . . . . . . . . . . . . . . . . . . . . O @ @ # # # # # 7 # # # 7 2 2 # # # # 7 2 2 # O . . . . . . . . . . X q o.w.q.F.E.Y.t.4.6.Q h > . . . . . . . . . . X * L T.:XXX XJ.H. X XH.J.A.A.S.S.r.j.t X . . . . . . . . . . . . . . . . X O . X X X 0 / ! I o.3.>.>.3.o._ Q ~ N > $ X X $ o                                               9 8 & - 9 0 u t i q w j L a J U R 1.2.t.4.` / W z 9 X X X -                                                                                                                                                                                                                                                     ",
"                                                                                                                                                                                                                                                                                                                                                                      . . . . . . . . . . . . . . . . . . . . . . . O O O O O # # # 7 7 2 6 6 6 6 6 6 2 2 2 2 6 6 2 $ . . . . . . . . . . . . X 9 h a O.q.t.t.t.y.>.%.j X . . . . . . . . . . X w w.{.XX X XL..X X XL.H.A.S.F.q.Q > . . . . . . . . . . . . . . . . O O O X o & ; h o.o.>.>.>.3.3.3.X.( Z f > o . X o -                                                 * & % - r 0 u t t w * ; ; % ; 8 e T 1.w.` ) / W k - X X X *                                                                                                                                                                                                                                                     ",
"                                                                                                                                                                                                                                                                                                                                                                      # O . . . . . . . . . . . . . . . . . . . . . . . O O O O # 7 7 6 6 6 6 6 6 5 5 6 6 6 6 6 : # $ O O O . . . . . . . . . . . X 9 K I >.t.S.t.q.,.Y e 8 % X . . . . . . . . X e ) 2. XXX X X.X.X.X XA.A.S.` * X . . . . . . . . . . . . . . . . O # o > g z x ) 6.6.>.>.>.3.&._ Z s r = $ . . X &                                                   % X % - 0 u t t i w e K I I U T T R t.7.` Q E B 9 % X X -                                                                                                                                                                                                                                                       ",
"                                                                                                                                                                                                                                                                                                                                                                        # . . O . . . . . . . . . . . . . . . . . . . . . O O O O # 7 2 6 6 6 6 5 5 5 6 6 6 6 6 2 2 2 2 2 2 2 2 : # $ . . . . . . . o - q I O.q.t.t.r.r.q.,.Q i 8 & & $ . . . . . X % J ~.XX X.X.X.X-X XA.A.r.) % . . . . . . . . . . . . . . . . . $ = > s +.&.%.>.>.>.6.3.o._ K t > & X . X . X X                                                   - X X % - 0 u t i h a Y W.].XX XQ.2.1.,.` J i t 0 & o X u                                                                                                                                                                                                                                                         ",
"                                                                                                                                                                                                                                                                                                                                                                        # O . O . . . . . . . . . . . . . . . . . . . . . . . . . . O O # 7 1 2 4 6 6 6 6 6 5 5 5 5 5 y d d 5 5 5 d 4 # $ O . . . . . . & 8 e o.w.q.t.t.S.t.S.w.O._ { t X . . . . . X w 6.r.^.XX.X.X-X XA.2.r.! % . . . . . . . . . . . . . . . . . $ : 0 l $.&.o.>.o.>.o.%._ E t * o . . . . X =                                                     9 X . % - 9 0 0 i j L R G.L. X X^.S.2.y.I 8 * * o . X o t                                                                                                                                                                                                                                                         ",
"                                                                                                                                                                                                                                                                                                                                                                        $ . . O . . . . . . . . . . . . . . . . . . . . . . . . . . . . . . . # 2 6 6 5 6 5 6 6 5 4 5 d d d 4 3 d d y 2 2 4 2 # O . . O . X - ( _ Y <.2.A.S.G.T.Y.Y.z.! i > & . . . . X * e t.XX.X.X-X XA.2.w.P X . . . . . . . . . . . . . . . . . o > 0 l %.3.o.o.o.) _ ! z u - & $ . . . $                                                         9 X . % 9 0 0 0 q J U R ..A.A.A.A.S.S.x.) 8 ; o X X o - i                                                                                                                                                                                                                                                         ",
"                                                                                                                                                                                                                                                                                                                                                                        . . . . . . . . . . . . . . . . . . . . . . . . . . . . . . . . . . . O # # # # # # # 2 5 d d d d r 4 4 d f f d d g N n 2 # O O O O o - * 8 ) r.t.G.H.H.G.T.T.Y.x.h.f.B $ . . . . X j q.^.-X>X-XA.2.w.E X . . . . . . . . . . . . . . . . . o 4 s Z ;.&._ _ _ K W ( B t > 3 6 6 # #                                                           - X . % q t t i e J Y ..1.A.A.1.....R ` K i i u o = y k                                                                                                                                                                                                                                                           ",
"                                                                                                                                                                                                                                                                                                                                                                        O . . . . . . . . . . . . . . . . . . . . . . . . . . . . . . . . . . . . . . . . . . # 2 6 d d d 4 4 4 r g g f g C C V m y 3 = # $ O X o & K 3.<.S.G.H.H.H.Q.Q.E.n.9.! > o $ . . . % w q.XXXXH...2.r.K X . . . . . . . . . . . . . . . . . $ 4 f Z / ( z x z W / $.*.[ S V V m 1 =                                                           * X . & u k B E L ` t.S.Q.^.Q.D...T H J e q C N 3 = u                                                                                                                                                                                                                                                             ",
"                                                                                                                                                                                                                                                                                                                                                                      $ X . . . . . . . . . . . . . . . . . . . X O . . . O $ $ $ $ $ . . . . . . . . . . . . . O $ 2 5 4 4 4 r r g C l l C C C C N d y 4 2 # $ o X * w L n.Y.G.H.H.H.H.T.Y.x.9.X./ ^ r . . . X e O.1.G.A.H.E._ o . . . . . . . . . . . . . . . . . $ 2 2 3 > , 9 t l ^ ;.=.d.@.' F C y o O =                                                         * X X & t l W ! ` q.Q. XXX.X XH.A.1.<.>.) t i V y & 9                                                                                                                                                                                                                                                             ",
"                                                                                                                                                                                                                                                                                                                                                                    O . . . . . . . . . . . . . . . . . . . . . O $ $ o = 2 1 : = = = = $ X . . . . . . . . . . . . # 2 : : 3 r r f Z B B Z Z Z B N m n d d y y r r > & h ) <.F.G.H.H.H.G.G.Y.Y.M.m.k.W & X . X X % h (.T.XX3X5.o . . . . . . . . . . . . . . . . . O $ $ X X & u Z ] @.*.=.@.' S n d 2 $ . . =                                                       % X X - r t E _ ) q.Q. XXX.X XQ.Q.XX'.).v.i 0 n 3 X r                                                                                                                                                                                                                                                             ",
"                                                                                                                                                                                                                                                                                                                                                                    . . . . . O . . . O . . . X O O # # $ O O $ $ # $ # 3 y y y y y y y r 4 3 > = o $ X . . . . . . X O X X o > 4 g Z S ~ ~ ~ Z Z B N N g g N D S Z C h s * e e.'.~.T.G.G.F.S.r.r.x.e.7.3.X.( 0 X X > x e <.w.( o . . . . . . . . . . . . . . . . . X o & * 9 0 E $.*.] ^ ~ S B g y 4 = O . X =                                                       % X X o & % t K I <.1.2.S.H.H.Q.^.XX~.R.5.0 & & $ X                                                                                                                                                                                                                                                               ",
"                                                                                                                                                                                                                                                                                                                                                                  $ . . . . . . O O O O O O O O # # # = # # # # # = = : 4 d m n n n m N V V S V N g d 3 o $ . . . . . . . . . X = d V F ' ' ^ ~ W Z B N l k l Z S ^ ^ ^ / z a I ,.Y.!.W.F.F.S.r.t.t.t.Y.E.!.R.&.u O O . X * 0 f o . . . . . . . . . . . . . . . . & u k W $.&.%.X.Q h 9 - 9 u t t r r : O X X & =                                                     X X . . . X 9 j L T T T T T 1.H.G.t.,.` W 0 & X . X                                                                                                                                                                                                                                                               ",
"                                                                                                                                                                                                                                                                                                                                                                . . . . . . . O . . O $ + # O # # # # 2 2 2 4 4 y d f m N m N N g n N C V Z S Z S Z Z C N m r > : X . . . . . . X = : 3 r r s Z ^ ^ S B C l l l l ^ +.$.$._ Q L I 4.e.q.u.Y.Y.F.r.r.S.F.T.T.~.@Xl.= . X X . X $ . . . . . . . . . . . . . . . X > C ^ $.8.M./.N.e.o.L i q q w 0 s d d 4 $ X X X X                                                     X . . . . X 9 j L Y ....R R 1.G.1.Y U j i 9 = $ . X                                                                                                                                                                                                                                                               ",
"                                                                                                                                                                                                                                                                                                                                                              O . . . . . . O O . O O + # # # # # # # = 2 4 y d m V S S B N N N l l C Z Z ~ ( ^ / / / $.=.=.*.] ^ N > & o X . . . . . . . X & l F ^ ~ S S Z l k l ( $.&.&.X._ X.&.o.L e 4.(.E.T.W.T.T.T.T.Q.XX3X/.0 & & X . . . . . . . . . . . . . . . . . X > S / / _ 3.w.r.n.Y.n.r.e.9.8.$.W z f d > $ X . . X                                                     X . . . . X u K U i.2.H.H.H.H.H.2.Y U j 9 % o X . -                                                                                                                                                                                                                                                               ",
"                                                                                                                                                                                                                                                                                                                                                            + . . . . . . X O O . O O $ # # 7 # # # # = 4 d g m V S [ ' ^ ~ ~ ~ S Z ~ ] +.+.+.$.$.$.&.-.g.g.-.;.=.+.^ ~ l > . . . . . . . . o > 4 3 r V S S C l l ( $.-.8.3.&.3.8.%.! e ) 9.7.Y.~.~.Q.T.H.G.G.~.{.e.h.V.' $ . . . . . . . o : 2 > X . . o = r t t B Q ! >.q.t.F.F.W.R.R.M.m.9.! ^ l > o X . . . X                                                     X . . . . X t Q I i.S.L. X X X XG.q.4.X.h % X . . >                                                                                                                                                                                                                                                               ",
"                                                                                                                                                                                                                                                                                                                                                          . . . . . . . O O O O . . O $ # # # 2 2 : = 4 f m D S S S ^ ] ] ] ] ] / / +.+.$.$.$.$.&.&.&.5.8.8.8.&.&.-.-.-./ s - & X X X X . . . X O O = m D S S S ~ ] $.&.9.j.z.j.j.9.8.5._ 0 e e.{.~.Q.H.H.H.S.G.XX{.1X2Xg.o . . . . . . o g N D d . . o Z =.=.s X 0 j ! e.).'.~.E.T.W.W.Y.N.9.X.X.] u X . . . . o                                                     X . . . . X u K ` 2.G. X X.X.X XQ.T.R.M./ % . . . >                                                                                                                                                                                                                                                               ",
"                                                                                                                                                                                                                                                                                                                                                        X . . . . . . . O . O O O O O O # # = 2 2 4 r m N D D S S ~ ^ ^ / / ] / / / +.+.$.$.X.%.&.&.&.8.8.9.0.3.&.j.V.B.k.-.;./ ~ l u & X O . . . . O 3 3 r Z #.@.] z j _ j.m.m.m.z.z.j.Q > x / 4.!.;X:X>X>X^.G.T.W.Y.0.e % & & X X X X f *.~ Z s X . r l.V.k.W ; 9 a Q M.3X4X3X}.E.W.W.Y.n.m.h.$.$.N = X X . . =                                                     X . . . . $ & w o.E.].:X,X-XXXQ.G.G.Y.m./ X . . X                                                                                                                                                                                                                                                                 ",
"                                                                                                                                                                                                                                                                                                                                                      . . . . . . . . O . X . . O O O O # : 2 2 5 d g N V S S S S ~ ~ ^ ^ ^ ^ / ^ / / +.X.%.o.&.&.3.3.8.8.w.0.8.0.m.B.B.m.m.k.g.g.;.^ r o X . . . . . . . X : 4 f Z z z _ h.j.m.m.m.m.m.h.k.$.& & ) {.>X:X>X XG.A.2.<.J 8 a ) %.$.=.Z 9 ~ f./ ^ l * = Z V.V.l.W ; 0 P ! m.@X1X[.).R.n.x.N.n.m.k.$.^ S d > X . . >                                                     X . . . . . X % P e.Y.T.^.^. XS.2.2.r.7.z X . . X                                                                                                                                                                                                                                                                 ",
"                                                                                                                                                                                                                                                                                                                                                      . . . . . . . O O . . . . O O $ # 2 2 4 y d f g N V S S S ~ ~ W ( ( ( ( ( ( / ! _ X.%.3.3.3.8.3.8.0.e.z.r.z.M.M.M.m.m.z.z.h.h.h.-.+.Z > o . . . . . . . . = V ^ ] *.=.$.X.&.h.c.M.m.`.g.> % q O.2.~.>X>X^.G.t.7.Y J O.7.e.z.V.N X 3 Z ^ ^ ~ C S f.f.^ Z s 9 k ( / %.8.w.9.9.9.4.3.3.3.5.$.W S S S d X . X =                                                     % . . . . . . X w e e J T Y <.R 2.E.W.9.h X X . X                                                                                                                                                                                                                                                                 ",
"                                                                                                                                                                                                                                                                                                                                                      O . . . . . . O O . . O O O O # : 4 4 5 d f f g N D Z S ~ ~ W W ( ( ( ( ( ( ! ! X.X.o.8.0.w.z.z.n.n.n.n.n.n.N.N.n.N.N.N.N.m.M.(.`.B.g./ s & o X . . . . . $ 4 d f g l z z ! &.5.9.9.9.5.Q P K * w <.{.:X^.Q.F.r.>.` O.q.q.r._ % X X r S ~ ~ S S ' C & > 0 s l W / X.X.X.&.3.&.%._ Q W W h t C F D 4 X . . &                                                     % . . . . . . . 0 j a J J T Y T <.w.7.5.x X X . X                                                                                                                                                                                                                                                                 ",
"                                                                                                                                                                                                                                                                                                                                                      O . . . . . . O O O O O O O # # : 6 4 r d g g g l C B Z W ( ( ( / / ! ! _ _ X.%.8.j.z.M./.`.[.[.[.).R.Y.N.n.n.n.n.n.n.n.W.R.R./.R.n.w.m.h.-.d.S X . . . . . . X X X > s k W $.X.X.X.) 3.m.`.k.> X w ) <.r.T.F.u.w.o.Y O.q.r.L & % o > N B Z l s 0 & o & = > r l Z / / $.=.d.-.$.W l k l t 9 r r > o . . . X                                                     % X X . . . . X k 5.w.r.r.Y.x.>.O.Y L j 9 X . X X                                                                                                                                                                                                                                                                 ",
"                                                                                                                                                                                                                                                                                                                                                      X . . . . . . . O O O O O O # # : 6 4 r d f f l l l l z E ! / $.$.$.%.5.5.8.0.9.m.M.R.).[.[.[.<X<X}.).E.W.Y.n.n.Y.W.E.E.).'.}.[.}.).).[.`.`.`./ % X . . . . . . . . X = > r B W W Q _ 3.9.n.m.z t x w 8 ` !.Y.w.7.) e e O.q.>.3._ 0 = d C V l g > & $ $ $ X & 9 f B ~ ^ ^ ^ Z k t t t t r > > o o X . X %                                                         > X . . . . X K 9.n.Y.Y.Y.q.` ` o.Q q % . X X &                                                                                                                                                                                                                                                                 ",
"                                                                                                                                                                                                                                                                                                                                                      . . . . . . . . . . . O O O # # : 2 2 > y l l l l l l z W Q _ %.%.3.0.j.z.z.e.e.x.n.n.!.[.[.{.*X*X{.{.].}.'.).!.).'.}.{.<X<X3X3X3X*X{.[.).n.e.! * % X . . . . . . . . X X $ 4 l B W ! ! X.o.3.X.&.k.! a 7.`.N.w.X.j 9 ; e ) e._.`.l % r C S V N g 4 # # $ $ o % > r t s s t u 9 0 9 9 r > = & o o X X &                                                           r $ . . . . & P 7.u.r.F.r.O.L P W l 9 X . . % 8                                                                                                                                                                                                                                                                 ",
"                                                                                                                                                                                                                                                                                                                                                      . . . . . . . . . . . O O O # # = : > > u k l z z z W W Q ) o.%.3.4.9.e.x.x.r.r.r.u.u.W.'.}.}.].].*X;X;X3X3X3X*X{.{.*X*X;X3X;X3X4X3X;X*X}.E.W.z.3._ W Z f X . . . . . . . . $ > s x z c P I I ) 3.c.h.8.M.M.0.X.j 0 > > * i o.(.).B o 3 V S S S S N 4 = $ o = > 9 0 9 9 9 0 u 9 > > > > = & o o X X X %                                                             o . . . . & P 7.r.r.t.y.Y J j w > o . . . &                                                                                                                                                                                                                                                                   ",
"                                                                                                                                                                                                                                                                                                                                                      X . . . . . . . . . . O # $ $ # > 2 > > 9 q h j j z ! ) ) o.o.3.4.7.q.e.r.r.u.F.F.u.Y.E.~.'.'.'.^.].*X;X;X;X*X{.].].].*X*X;X;X3X4X4X3X3X3X3X}.W.M.B.B.B.=.> X X . . . . . . . X r l z x z P W X.-.-.$.$.&.&.! c q q g d > w a r./.( = # d V S S ~ S d : $ = r r t t t t 0 u 0 9 9 > > > > = o o $ X X o - >                                                       u o X . . . % P 7.r.r.t.q.4.` e & X . . . X 9                                                                                                                                                                                                                                                                   ",
"                                                                                                                                                                                                                                                                                                                                                      $ . . . . . . . . . . O # # # 3 3 r u 9 t z W Q Q ! _ o.o.<.>.4.7.q.q.r.r.u.F.Y.Y.Y.W.T.!.~.~.'.'.'.].].].].{.].].].].*X*X;X;X;X3X4X4X4X4X4XE.7.9.j.j.8.$.l f 4 # . . . . . . . n ' S c c Z ( +.$./ K z z z h q w Z :.Z 0 j U 7.N.E & $ # 3 r d g y 4 y y r r s f k k k k h q q 9 * * * - & o $ $ $ $ X X X 9                                                     q % X . . X * L 7.r.t.r.F.E.c.h X . . . . X                                                                                                                                                                                                                                                                     ",
"                                                                                                                                                                                                                                                                                                                                                        X . . . . . . . . O O = 6 3 3 r u 0 t x / %.%.o.o.o.>.>.,.7.q.q.t.t.r.u.Y.Y.Y.Y.W.W.W.!.~.~.'.'.'.}.].].{.;X;X;X;X3X3X*X{.'.!.E.R.E.).).'.N.7.9.7.4.o.X.;.=.@.n . . . . . . . 2 d r , , , , 0 r 9 0 9 w 9 0 9 w X.j.&.X.n.n.Y.n.! - . . . . X o . 4 f.l.l 0 q q a K / $.$._ / W h h h 9 % = o $ $ $ X X X >                                                     0 % $ . X 0 j I 7.r.t.F.T.'.m.h . . . . . &                                                                                                                                                                                                                                                                     ",
"                                                                                                                                                                                                                                                                                                                                                        $ . . . . . . . O O O : 4 > > r 0 t j K ! o.o.o.>.6.4.7.7.q.t.r.r.r.Y.Y.Y.W.Y.Y.W.W.W.!.!.~.'.'.'.}.}.}.{.{.{.{.'.'.).E.Y.x.e.e.w.w.w.e.e.7.7.7.4.4.>.&.&.;.*.N & $ + $ . . . . X X . . . . . X X X & * > q q e Y q.q.t.~.].XX4X@Xh.t X . . . . . o V ~ x P L P I X.8.h.l.l.h.h.5.;.+.0 & % & o $ $ $ $ o * 9                                                   q % X X & h W ` q.r.t.F.~.'.z.h X . . . X -                                                                                                                                                                                                                                                                     ",
"                                                                                                                                                                                                                                                                                                                                                        $ . . . . . . . O O # 2 3 > r f k x K I ) O.O.o.<.>.7.7.q.q.e.x.x.r.n.u.Y.Y.F.u.u.n.R.!.).).'.'.'.}.[.}.}.}.).Y.e.w.w.7.7.7.7.7.9.9.9.9.q.q.q.9.7.7.4.4.3.&.$.^ B V V b # . . . . . X & & X o o X X & > 0 z X.>.q.F.H.H.:X>X>XpX6X7Xk.0 X . . . X X % ; P `.(./.N.z.z.9.9.9.9.9.8.5.$.h 0 u f > o o $ o % & & *                                                 0 % X X & q c Y q.r.F.Q.].}.m.h $ . . . X 8                                                                                                                                                                                                                                                                     ",
"                                                                                                                                                                                                                                                                                                                                                        O . . . . . . O O # # 4 4 r k B B W P ! o.>.>.o.o.>.4.7.7.7.7.r.r.e.e.e.e.e.e.q.7.7.e.N.R./././.(.(.).).).(.W.e.7.7.4.4.3.4.3.4.4.4.7.w.e.r.Y.Y.r.r.t.q.q.4.3._ ^ ^ S d # . O . . X t ^ / z z z s r s k z I w.E.T.:X-X,XqXpXsXpX5X6XR.W t % & 9 u i x e <.'.).E.R.z.0.3.3.3.8.8.3.3.&.$./ / =.t % % o o & % % ;                                                 0 % X X & q L Y q.r.F.].;X3XM.k : O . X 8                                                                                                                                                                                                                                                                       ",
"                                                                                                                                                                                                                                                                                                                                                      O X . . . . . . O O O # 3 4 s l z B E P ! o.%.o.o.o.o.o.o.o.o.o.4.3.8.7.9.w.w.w.9.0.8.3.8.0.0.3.3.4.7.7.7.9.9.9.0.9.9.w.w.7.7.w.w.e.e.r.r.Y.!.].].].~.T.G.F.Y.e.I w w 8 % X $ $ . X X K c.m.h.3.X.^ Z N C ( ) >.~.:XpXaXaXaXjXjXqX X5X[.3._ E W g.B./.}.~.Q.G.t.2.7.>.>.o.o.o.>.4.3.3.&.%.$.&.-.k & * % & % & & * u                                               t & X X & z ) O.u.F.G.~.].{.z.s = O . X t                                                                                                                                                                                                                                                                       ",
"                                                                                                                                                                                                                                                                                                                                                    O . . . . . . . . O O # = 4 r g C z z z P Q _ / ! ! ! ) ) _ X.X.X.o.o.o.3.3.8.0.9.8.8.3.3.3.3.o.o.o.o.O.O.O.O.<.>.7.w.x.Y.W.R.E.E.E.~.~.~.^.].:X:X:X:X:XXX^.].].E.<.L K z k f y r = % % L r.r.n.7.` ! S V V ^ ! i.:XpXaXjXjXjXjXjXwX-X5X;XN.3._ / ;.3.q.~.:X XQ.G.S.y.>.<.O.O.<.>.4.4.>.o.o.o.&.3.Q j h 9 * * % % % 9                                               k & X X , ! o.4.!.{.~.S.q.x.&.t o . . X                                                                                                                                                                                                                                                                         ",
"                                                                                                                                                                                                                                                                                                                                                  $ . . . . . X . . O O + # 2 y y N V B l z B W ( P Z W ( / / / / / _ X.X.X.X.X.X.o.o.o.o.o.&.%.3.3.3.9.e.9.w.w.w.e.r.u.Y.W.E.~.'.^.^.^.]. X XXX:X,X:X:X>X,X,X XXXXX^.F.q.z.g.*.@.[ [ C 9 8 <.T.S.G.t.<.P k r r f q U ;X>XqXjXjXjXjXjXjXaXsX>X~.n.>.! P e H t.^. X^.^.!.Y.u.t.q.r.Y.R.N.r.7.4.7.w.z.z.0.3.5.P t 0 * % % * 8                                             k & o X 9 X.3.7.'.;X~.2.<.w.%.s = . . X                                                                                                                                                                                                                                                                         ",
"                                                                                                                                                                                                                                                                                                                                                $ . . . . . X X O O $ + # # 2 6 r n V C l l B Z c c c W ( ^ / / / ^ ( ! ! / _ X.o.o.o.O.o.o.>.3.3.7.9.x.R.R.R.).'.{.{.].].^.].^. XXX X X X X X X-X-X,X,X>X>X>X,X,X:XXXT.F.x.%.z B S F C 0 e Y.].H.XXQ.i.a * X $ X X q F.J.-XjXjXjXjXjXjXjXsX>X].].Y.z./ w L E.].^.^.~.Q.T.T.T.W.E.}.{.{.'.E.E.E.E.R.W.x.n.m.&._ W * % % * 8                                           i 9 & X X 0 &.7.q.E.].T.2.,.e.5.k = $ X *                                                                                                                                                                                                                                                                         ",
"                                                                                                                                                                                                                                                                                                                                              # X . . . . . X O O $ + # # # 1 1 > r d d s f l N Z Z Z ~ ^ ^ / / / ( P z K Q o.3.0.0.7.7.9.e.z.N.N.n.n.Y.R.R.W.T.~.].;X:X:X:X:X:X:X,X,X,X,X,X-X-X-X,X>X>X>X>X>X>X,X:X XQ.F.w._ 8 - = = = & 8 7.~.^.>XXX..U e = $ O X * <.G.,XsXaXfXjXjXjXjXjX>X:X5X4X_._ 8 W M.Y.F.T.T.T.T.T.T.T.T.~.].{.{.}.'.'.'.E.E.T.E.R.9.l.$.> % % * 8                                           8 * o X X 0 &.w.t.E.~.F.t.q.z.5.s o $ &                                                                                                                                                                                                                                                                           ",
"                                                                                                                                                                                                                                                                                                                                              $ . . . . . X $ $ # # # # 7 7 2 2 3 > 3 r u t f f C Z Z Z ~ ~ ~ ^ / P z K P ) 3.0.9.w.r.N.R.R.R.R.R.W.Y.W.T.T.F.G.Q.].:X:X:X:X:X,X,X>X>X>X>X>X>X>X>X>X>X>X:X^.].].~.T.T.Y.w.%.z & o . . $ X X ) F.A.:X XA.G.z.B = . . X c !.:X5XpXjXjXjXjXfXfXaXpXpX>X).Q % u ! I <.Y.Y.T.Q.Q.Q.Q.Q.Q.].XX].].].'.~.!.T.E.E.E.N.z.$.9 % % * w                                           8 * o X X q &.q.u.T.T.F.r.t.x.5.u X X &                                                                                                                                                                                                                                                                           ",
"                                                                                                                                                                                                                                                                                                                                            $ . . . . . . O # # = 2 2 1 7 1 2 3 3 3 > > r r u 0 s s h h l z z W Q K Q o.3.8.9.w.w.e.n.R.R.R.W.Y.Y.Y.F.F.F.G.G.H.Q. X:X:X>X>X>X>X>X5X5X5X5X>X:X:X].^.Q.u.,.U U L a a e i 0 * X . . . . . . X t L J Q. X X:X3X>., . . . s N.q.S.,XxXxXjXjXfXfXjXjXaX5X'.&.- = % * K m.E.'.XXXX X^.^. XXXXXXX].^.~.Q.~.!.E.E.!.N.9./ > % % * 0                                           w % X X X 0 &.7.u.T.T.G.F.Y./.&.> X X &                                                                                                                                                                                                                                                                           ",
"                                                                                                                                                                                                                                                                                                                                          $ X . . . . . X $ # = 2 2 2 6 2 2 2 3 6 3 3 3 r u 9 9 0 q q e e a a K ! ) %.8.9.9.w.w.e.e.r.Y.Y.Y.F.S.F.F.F.G.G.Q.Q.^. X X:X:X>X>X>X>X5X5X5X5X7X7X<X).R.R.z.9.! q & X . . . . . . . . . . . . . . X % e t. X-X>X>XF.I s $ . & h a Y :XsXjXcXjXjXfXjXjXjXqX].h.> . . X 9 %.9.n.!.~. X X X XXXXX X^.Q.G.T.'.}.'.!.(.m.5.W * % X * t                                           8 % X . . q o.>.u.Q.G.G.Q.~.[.h.> X %                                                                                                                                                                                                                                                                             ",
"                                                                                                                                                                                                                                                                                                                                          X . . . . . X X $ # = 2 6 6 2 2 2 2 3 3 3 > 9 9 0 0 0 h ! X.$._ ) ) _ 3.3.3.7.7.7.7.q.q.q.t.t.r.F.G.G.G.Q.~.^.]. XXXXX:X:X:X:X:X:X:X^.G.F.q.4.%._ Q z x k k f 9 & X . . . . . . . . . . . . . . . . X 8 w.~. X,X>X XT.B.V X X o & U ~.,XaXjXjXjXjXjXjXjXpX;X4.- . . . o > q a <.t.H.Q.^. X X X X^.H.S.S.T.!.Y.w.4.5.=.~ > X X %                                             * X . . . s o.>.W.~.G.Q.:X;X<X8.> X 9                                                                                                                                                                                                                                                                             ",
"                                                                                                                                                                                                                                                                                                                                        # . . . . . . X O O # 2 2 6 6 2 : : > u r 9 9 9 * 8 W P ! 5.j.z.9.0.3.3.4.4.4.7.7.7.7.q.q.t.t.t.t.S.T.Q.^.^.XX=XXXXX:X:X:X4X:X:X4X4X3XE.w.o.e & X X . . . . . . . . . . . . . . . . . . . . . . . . . . X K w.G.-X0X-X:X*XW X X X X h n.^.sXjXjXfXjXjXjXjXpX7Xc.- . . . . . X 8 >.r.~.;X:X:X:X:X:X:XXXG.S.r.q.<.I j B ] N = X X X                                             ; X . . X h 3.,.T.~.H.^.5X5X<X/ X X 9                                                                                                                                                                                                                                                                             ",
"                                                                                                                                                                                                                                                                                                                                        . . . . . . . . $ # # 2 2 6 6 2 > > 0 l B h x x j j 5.5.o.0.9.9.7.4.4.4.7.7.4.7.7.q.q.t.t.r.S.F.F.G.Q.^.^.^.^.^.XX].~.!.T.r.r.r.x.x.c.5.Q k & X . . . . . . . . . . . . . . . . . . . $ + + O . . . . . . X w J A.>X0X>X5Xi.a l : . * 0.*X5XaXjXjXjXjXxXjX:X4Xg.= . . . . . . & _ 0.n.}.3X3X4X4X3XXX].~.W.r.7.3./ i u t 3 o . . X                                             & X X X X x 4.,.~.].Q.^.5X6X7X/ X X                                                                                                                                                                                                                                                                               ",
"                                                                                                                                                                                                                                                                                                                                      . . . . . . . . . $ # # = 2 2 6 2 > , q $.-.$.%.%.o.o.3.3.6.>.,.4.,.4.y.y.7.,.,.4.,.q.q.q.t.r.S.F.G.G.Q.^.Q.Q.G.F.T.Y.e.8.) w w w 9 * - & X X . . . . . . . . . . . . . . . . # = : 2 3 y M b # . . . . . . . X ; ` 5XqXpXsX,X'.1X^ X X ~ 0.t.=XsXaXjXjXjXsX1.3.l o . . . . . . X * q j ! ) I ) _ Y Y <.Y.Y.6.o._ W t 9 = o . . . %                                           t % X X X X x 4.2.].:XXX:X5X7X<Xz . X                                                                                                                                                                                                                                                                               ",
"                                                                                                                                                                                                                                                                                                                                      . . . . . . . . O + + # = 1 3 3 > 0 q j 8.9.3.3.>.o.o.O.O.O.O.<.<.,.,.y.y.,.,.,.,.,.y.q.q.r.F.Y.E.E.T.~.~.!.T.q.Y L j t r > % X X . . . . . . . . . . . . . . . . . . . . . # 4 y n N n n m r o O X . . . . . . X _ 6XpXaXfXaXpXCX3.X X & w a ,.^.,X>XsXsX6XU q * $ . . . . . . . . . X & * * 8 w w e U N.R.O.K B i - o $ O . . X                                             t % X . . X z 4.2.].:X:X:X7X3Xz.9 . X                                                                                                                                                                                                                                                                               ",
"                                                                                                                                                                                                                                                                                                                                    X . . . . . . . . O + # # = - > 0 0 h W X.0.0.6.o.o.O.O.` ` ` ` R <.1.1.1.1.2.2.y.y.y.q.q.q.w.r.w.w.x.N.W.W.M.c.o.x 0 - X . . . . . . . . . . . . . . . . . . . . X o o $ O $ : 4 y t f f f 3 & & = = $ . . . . . . t E.XXqXaXfXaXsX<.% X . . , X.e.'.*X;X4X<X! 0 = X X . . . . . . . . . . $ $ o % 8 w x 3.j.-.^ ~ t = X . . . X &                                             u % . . . % P 7.t.~.:XXX:X4X}.! & . X                                                                                                                                                                                                                                                                               ",
"                                                                                                                                                                                                                                                                                                                                    $ . . . . . . . . . + # # = r ~ B z Q X.%.4.>.O.O.O.O.O.` ` Y Y <.1.2.2.1.2.2.2.t.r.t.e.w.9.9.9._ j j h i i t t > & o X . . . . . . . . . . . . . . . . . . . # y V D n d 4 4 r d d f k m N d r y y y 4 # . . . . . X e T A.qXaXaXsXG.U s X . o , s Z z x h h 9 > > 0 s l l l r X . . . . . . . . . . . X * 0 k k f > $ . . . X =                                               t X . . . % ! 7.t.T.Q.^.:X4X}.K X . X                                                                                                                                                                                                                                                                               ",
"                                                                                                                                                                                                                                                                                                                                  # . . . . . . . . . O + # = & t *.{ / _ ) ) O.O.Y Y O.O.O.O.<.` <.y.S.F.t.2.2.t.r.r.r.7.O.) Q W W E 0 * % X X X X . . . . . . . . . . . . . . . . . . . . . . . 3 S [ F N n g g g N N N B B B N m m g y r 2 o . . . . . % e 2.>X>XqXqX>X7X`.r . o o X X . . . . X % w P 8.M.`./.;.> . . . . . . . . . . . . . . X $ $ . . . . . o                                                 0 X . . . % _ z.W.^.].XX:X7X4X! X . X                                                                                                                                                                                                                                                                               ",
"                                                                                                                                                                                                                                                                                                                                  # . . . . . . . . . . + # & * t ] _ _ _ ) ) Y O.O.` <.<.<.<.,.<.,.r.Y.T.W.F.Y.W.W.Y.m.9.e % % X X X . . X O O $ O . . . . . . . . . . . . . . . . . . . . . . X 6 m V C g g N N C V B B B B B B N C l s r N m : X . . . X W R.~.L.L.-XqXsX7XW * 4 > : & X . X * q j J U ,.F.'.).h.u . . . . o d 9 X X . . . . . . . . . . . . . o                                                 8 o X . . ; %.n.!.4X4X:X:X7X4X! X . X                                                                                                                                                                                                                                                                               ",
"                                                                                                                                                                                                                                                                                                                                # O . . . . . . . . . . X $ r t z Q _ ) _ ) ` O.<.<.<.<.<.<.,.7.q.t.r.r.u.e.q.4.>.o.%.$.~ - X . . . . . . X X . . . O . . O O O . . . . . . . . . . . . . . . . $ 4 n N m k m N V B B B B B B Z B S S B f s B S C f : X . . 9 K O.2.H.-X>X5X}.Y q 0 > d g d * e 5.}.{.E.1.R ..G.W.4.u . . . . > d.$.e h t X . . . . . . . . . . . X                                                 - o X . X * 3.n.!.4X>X>X>X7X1Xz X X X                                                                                                                                                                                                                                                                               ",
"                                                                                                                                                                                                                                                                                                                                $ . . . . . . . O # = = = = t B E W ! ) ) ) Y O.<.,.<.<.<.,.4.w.n.n.N.x.9.3.x 8 ; % % X X . . . . . . . X $ # 2 2 6 2 : # # $ # @ . . . . . . . . . . . . . . O = y g m k g N V S S B B B B Z Z Z ^ ^ S l t h W / +.N , X X . % w U T.:X:X:XT.>.) z k Z Z W Q >.Y.;X5X5X:X X X^.E.9.t . . . . % / &.` 3.5.B & X . . . . . . . . . .                                                 - $ . . X w 3.u.T.;X:X:X>X7X[.h X X %                                                                                                                                                                                                                                                                               ",
"                                                                                                                                                                                                                                                                                                                              $ . . . . . . . . # 6 y y f m l z z K ! ) ) ` Y <.t.t.,.,.q.7.>.4.9.9.3.%.Q z > X X . . . . . . . . . . . O 2 C A F F F n 2 : : # # O . . . . . . . . . . . . . # 2 d g g k g N S S S B B B B W ~ ( / ] W z h z ;.l.g.-.^ N : X X X q w.'.~.~.T.u.r.8.X.Q W ! >.F.^.:XqXqXqXpXpX;Xw.&.u . . . . X K 4.q.e.z.-.g o O . . . . . . . . .                                                 - X . . & h 3.r.F.~.:X:X>X4X/.q % X %                                                                                                                                                                                                                                                                               ",
"                                                                                                                                                                                                                                                                                                                              o . . . . . O O $ 2 y y N S ~ W E K K ` ` O.O.<.r.E.T.Y.Y.W.m.&.Q W h & X X . . . . . . . . . . . . . $ X o 4 S F F F A n 2 : : 7 < @ . . . . . . . . . . . . O 2 y n n g g k C S ~ ~ Z B B B ( ] $.$./ z W Q ! 9.z.j.h.h.f.l & X X X 0 j O.7.7.,.t.e.7.Y I >.F.^.,X>XqXqXqX5X7XY.a j > . . . . X j 4.q.t.7.&.Z = O . . . . . . . . . >                                               - X X . & P 3.r.F.H.^.:X:X3Xz.8 X X &                                                                                                                                                                                                                                                                               ",
"                                                                                                                                                                                                                                                                                                                              = . . . . . # = : n N N B ~ W ( Q Q ! o.4.4.7.q.r.Y.Y.n.7.I x t 0 u > . . . . . . . . . . O = 2 3 3 n D N g f S V C C n y 2 3 : 7 7 O . . . . . . . . . . . . $ y m m n m g f N ~ ' ' ~ Z z Z / $.;.;./ j I 3.6.w.w.9.9.w.j.X.l % . . . . % w J <.t.G.r.,.1.S.^. X,X,XqXqXqX:XE.6.w * & X . . X X a <.q.q.>.) l > $ . . . . . . . . . o                                               * X X . & z >.r.F.G.^.XX;X{.9.* X % *                                                                                                                                                                                                                                                                               ",
"                                                                                                                                                                                                                                                                                                                            > o . . . . O 2 4 d N V Z W ( W Q ) _ _ o.3.9.e.r.e.w.9.j.X.* % X . X . . . . . . . . X X $ o y V S S [ #.' S B Z V m d y y 5 6 1 # # O . . . . . . . . . . . O # y C N m N m f N ~ ' ] ] ^ Z W / $.&.;.$.j Y x.Y.W.Y.Y.Y.u.z.j.g.f . . X . . X w ,.Q.^. X^.^. X>X,X-X-X>X5X5XQ.O.K 0 > 3 # O O o & e ` q.y.O.I x s : O X O . . . . . . . X                                             * & X X * j o.e.F.G.^.XX].).&.* % * w                                                                                                                                                                                                                                                                               ",
"                                                                                                                                                                                                                                                                                                                            O . . . . . $ : r d N B l W Q Q ) ) o.o.o.3.3.3.3.! j 0 0 9 X . . . . . . . . . . . = r y t f S [ ' ' ' ' S C C S C n y y y 5 3 1 = # O . . . . . . . . . . . # 6 y C V C V C f l ~ ] ] ] / ^ ( / $.%.&.&.U i.W.T.~.^.^.~.W.Y.B.m.^ & $ . . . . % o.^.:X>X>X>X>X0X-X X XXX:X:XR.K * = 5 5 # O # = - w ` t.y.Y L z V 4 O O $ O . . . . . . %                                             % o X X 9 P >.r.F.^.:X;X].R._ * % q                                                                                                                                                                                                                                                                                 ",
"                                                                                                                                                                                                                                                                                                                          X . . . . . . $ 3 r d k l x P _ o.o.o.o.o.&.&.! e w 9 % . . . . . . . . . . . . . $ # y [ [ ' ' ' ' ' ] ] ' Z l N S C g y y y 5 2 1 1 # O . . . . . . . . . . . = 5 y m V C B N k N ~ ^ ] ^ ^ W P ! $.&.&.&.U i.Q.Q.Q.^.^.Q.F.R.R.j._ ] f O . . . . q q.G.H.-X>X-XL.H.A.A.G.T.Y.8.t X $ # # O . $ # % 8 ` r.q.O.L K S y $ O O . . . . . . . &                                             & o o o q I 4.t.r.^.4X;X'.m.Q * ; i                                                                                                                                                                                                                                                                                 ",
"                                                                                                                                                                                                                                                                                                                          . . . . . . X o r d k l h j P o.o.o.3.&.X.;.d.' > % & X X . . . . . . . . . . . = 4 y m ] @.+.+.+.] ' ] ] ^ ~ B B S V f y y y 5 2 = 1 # $ . . . . . . . . . . . = 5 y m C V S B k B ~ ~ ^ ^ Z z z W X.%.o.o.T R ^.^.L. X X^.E.Y.w.3.&.k.^ o . . . . X w w H ..L.-XH.H.G.Q.W.<.I h = . . O O . . . . X ; ) x.r.6.! Q S 3 X X X . . . . . . . X                                         N r o $ $ & a I >.t.t.Q.;X].E.z.W % *                                                                                                                                                                                                                                                                                   ",
"                                                                                                                                                                                                                                                                                                                        . . . . . X X X = d ^ ( / ! ! ) o.&.o.o.X.x k N r $ $ $ . . . . . . . . . . . $ = y n C S ' +.+.+.+.] ] ] ] ^ ^ ~ ~ ~ S m f y y 4 = = 1 # O . . . . . . . . . . O = 5 y m C S S S Z ~ ^ ^ ^ ^ W K P / $.X._ O.Y ..XX XL. X X^.~.u.7.>.o.5.W 9 r & X o > o X 8 Y ~.^.G.t.G.{._._ * X X . . O O . . . . . % Q x.x.7._ ! ~ 0 . o 4 3 = o . . . . X 9                                     t 9 = $ $ X % j U >.q.t.T.E.r.e.5.z & %                                                                                                                                                                                                                                                                                   ",
"                                                                                                                                                                                                                                                                                                                        . . . . . X X X > k +.$.$.%.%.%.%.%.o.! Z q & . . . . . . . . . . . O # # # = 1 y y n V S ' ] ] $.+.+.+.] / ^ ^ ^ ~ S S B C N n 4 = # 2 # O . . . . . . . . . . O 1 y y n C S S ~ ^ ^ ~ ^ ] ] / _ %.8.8.o.Y <.S.H.:X XL. X X^.T.r.7.<.Y U I P P h 0 k ] y $ & i I Y T J T ` ! t % X X X o # # . . . . . % Q x.r.w.o._ ] s & r [ [ V y : o . . X * 0                                 z u - o o $ X % j I O.7.t.Y.r.<.) W t % %                                                                                                                                                                                                                                                                                   ",
"                                                                                                                                                                                                                                                                                                                      $ . . . . . $ > d N Z ] $.$.$.$._ ! ! / x s > X . . . . . . . . . O # 2 6 5 b n b d n N B ~ ] +.$.$.$.$.$.+.] / ^ ^ ~ S V V N m n 5 2 # 7 # O . . . . . . . . . O O = y y n C S ~ ~ ~ ~ B ( ] $._ $.%.5.8.o.U <.^. XXX X X XXX^.G.t.y.<.Y L L I L j L Q d.n # o & ; w j x a q 9 % & > 4 r 4 4 2 $ . . . . % Q r.x.r.>.o.] l u V [ #.^ N N n o . X X &                             w a L w w ; % X X ; e j O.4.q.n.w.Y a w % X X *                                                                                                                                                                                                                                                                                 ",
"                                                                                                                                                                                                                                                                                                                      . . . . . . = g D S ^ +.$.$.;.] l q 9 , & X . . . . . . . . . O # : 6 5 n m N V A S S S Z ( ] $.$.;.=.-.-.;.$.$.] ] ~ B C N m n n 5 2 2 # + . . . . . . . . . O O + 2 y b n V S ~ ~ ~ Z B ^ $.$.$.$._ ) _ O.U 1.^. X X X X.X:X XH.F.F.r.<.L J L J J L ) / r : > > * t $.$.( h 0 > d S D N d r 4 # . . . . % I r.Y.x.4.o./ l N ' ] +.+.~ S S = X X X % 9                         * 8 J G.S.S.Y e w w z j e I >.7.7.O.L 8 % X . X *                                                                                                                                                                                                                                                                                 ",
"                                                                                                                                                                                                                                                                                                                      . . . . . X = r d g Z B l z W Z u % X . . . . . . . . . . . O O # 4 d d N S S ~ [ ' ] ' ] / +.$.;.-.g.k.k.l.g.=.] ] ~ B N m n n b 5 2 # # O . . . . . . . . O O O # 1 5 b m V S ~ ^ ~ Z Z ^ $.%.&.&.$.K I O.R A. X X X-X,X,X,X:XQ.G.G.F.Y e J L L I ` ) ( 9 2 f d u t B z 0 * & & g ' S l f r 3 # . . . . % I w.S.Y.q.%.( t B *.] ] { ^ ~ S 3 X X X X -                       i 8 e 2.sXjXjXaX>X>X]._.K 8 L ) O.O.Y a 8 % X . % u                                                                                                                                                                                                                                                                                 ",
"                                                                                                                                                                                                                                                                                                                    $ . . . . X : 2 > r r 0 , * & > > # $ . . . . . . . . . . . O # = = r N k B ^ ' ' ' ] ] ] +.+.$.$.;.-.g.k.k.k.k.=.$.+.~ m d d y d b 5 # O O . . . . . . . . . O O O # 1 y n N V S ~ ~ W Z Z / $.;.&.-.&.K J <.1.H.-X-X-X,X>X>X>X,X^.H.T.S.J 8 J I I ` ` _ B > 3 d d t w e q 8 * & w l Z W z s r > o . . . . % K ,.S.Y.w.3.E - f ] ^ ~ / / ^ ] f X . . X % u                   w 8 p H J.fXkXcXcXxXSXjX:XL 8 e J Y <.7.` w * - 3 0 N ^                                                                                                                                                                                                                                                                               ",
"                                                                                                                                                                                                                                                                                                                    o . . . . # 5 n d d r > = & X X X X O . . . . . . . . # = = = d f > f Z B B ( ^ ^ ^ ^ / ] +.$.$.$.&.-.g.k.k.k.g.;.$.$.^ k t y y y b 5 # O . . . . . . . . . O O O @ # = y n N Z S Z Z Z Z W / %.;.;.=.;.K e 1.G. X,X,X,X0X0X>X>X,X X^.XX}.U 8 a U U L I Q k & > r d t h _ 5.%.) P Q / ( W z k r > o . . . . % L <.t.Y.r.9.W % - B B E W ( ] =.S o . . . X *                 h 8 H <.J.9XdXhXcXcXcXhXjXaX^.2.1.y.y.r.E.N.I L x z h 0 9 * p                                                                                                                                                                                                                                                                           ",
"                                                                                                                                                                                                                                                                                                                  4 O . . . . . 6 y d d y > & $ $ X O O O O . . . . . . o = 2 3 r V S B ^ *.] ^ ^ / ^ / ^ / / ] $.$.%.-.-.h.k.k.k.g.;.$.*.' V n y y y b 5 # . . . . . . . . . . O O O # # = y n V S Z Z z z W / $.;.-.$.( W j e t.^.-X-X-X-X0X,X,X,X>X:X^.XX4X` p U <.` Y ) P 9 X = r g x P 0.`.`.M.z.0.h.%.! ( l t r = . . . . % a R S.T.S.z./ & X u z E ! / $.=.' = X . . . X &             i w ; R >XaXuXhXkXcXxXcXhXhXkXjXsX5XQ.S.G.T.F.,.R Y U J e * ; 8 i                                                                                                                                                                                                                                                                         ",
"                                                                                                                                                                                                                                                                                                                  # . . . . . . O $ # : : # O O $ O O # # # # # $ o o = > 3 3 3 t S ] $.=.d.-.-.&.%.;.$.$.] / / $.;.;.-.-.g.l.k.k.5.;.;.*.] S N n y y y 6 O . . . . . . . . . . . O $ # # = y n V S Z Z Z z ( $.-.-.-./ t q a e 2. X-X-X-X-X-X-X-X,X>X:X^.S.t.J H R q.q.o._ h o X & r B Q X.N.).!.!.Y.e.z.5._ / B k d > . . . . % e R S.T.Y.M.$.% X 9 l W ! _ $.;.~ & X . . . X &           9 % ; 8 ..qXdXfXhXhXhXxXkXhXhXgXkXjXaXL.J.H.L.H.J.H. X:X>X;Xr.I * ; L                                                                                                                                                                                                                                                                       ",
"                                                                                                                                                                                                                                                                                                                # . . . . . . . . . . . . . . O O $ # 2 5 5 4 2 2 y f f d n N N B ^ *.;.=.-.-.5.5.-.-.-.-.-.;.$.$.$.$.$.%.-.g.k.k.f.%.;.=.] S C d y y 5 2 O X . . . . . . . . . X O $ # # = y n N B Z z W ( X.-.-.-.-.( 0 e a H 1. X-X-X-X-X.XL.L. XXX:XQ.R T Y R 1.<.i.X.z - . X > l W _ >.n.E.E.!.Y.r.x.9.o.$.W k g 3 . . . . % e Y S.T.r.z.! & . > l E Q _ _ ! x * X X . . X X         d = X ; 8 ..wXdXhXhXhXgXkXhXgXhXkXkXkXjXwX-XqXqXwXaXjXjXSXSXSXCXT.j i K                                                                                                                                                                                                                                                                       ",
"                                                                                                                                                                                                                                                                                                                X . . . . . . . . . . . . O O O # 7 6 5 y d y r 4 d N N V S S ~ ~ ] *.=.-.-.-.5.5.5.5.5.8.8.8.;.$.$.$.$.$.;.g.k.k.g.;.;.;.] S V n n b 4 # O O . . . . . . . . . O O $ # # 1 b n N B Z z ! :.&.-.-.-.-.W w x Y T A.-X-X-X-X XL.H.H.H.^.Q.2.J R G.G.Y.q.Y a * X o > t Z ! ) >.u.E.~.}.E.u.N.z.3.&.^ l k 4 . . . . X 8 T G.T.2.4.W % X 9 l W Q _ o.) L q , & X X . X >   & X $ . X 8 J J.rXdXhXhXfXdXdXdXdXgXkXkXkXxXjXdXdXlXfXfXgXkXkXkXkXjXsX:X).K x                                                                                                                                                                                                                                                                     ",
"                                                                                                                                                                                                                                                                                                              $ . . . . . . . . . . . . # 2 2 # 2 6 5 y y d y r r t f k l B Z ^ ^ ( +.=.=.-.-.5.5.&.&.-.-.-.-.;.$.$.$.;.$.;.g.k.k.f.;.=.=.] [ S N n b 2 O . . . . . . . . . . . O O $ # # 1 b m N Z Z ( X.-.-.-.$./ ~ x w ` T.H. X,X>X-X X XH.H.H.H.H.H.2.J T G.H.T.M.X.0 X . > ~ ^ / ) O.<.F.'.].;X!.Y.R.N.0.-.] B N 3 . . . . X ; J T.Q.1.O.K & % u z z I O.4.w.7.3.$.l > o . . . X . . . . X e ..-XdXuXdXdXuXwXwXwXwXdXgXkXkXxXxXkXkXkXhXhXhXhXhXhXxXxXSXSX;X8 t Q                                                                                                                                                                                                                                                                   ",
"                                                                                                                                                                                                                                                                                                              $ . . . . . . . . . . . . # 6 5 6 5 d d d y t t t t f N l l B ~ ^ ^ Z Z / ;.=.;.&.&.;.-.5.5.-.-.-.;.;.;.;.$.;.g.g.g.d.;.*.*.] S C m y 6 # . . . . . . . . . . . . O O $ # # 2 n N V W ^ +.$.&.-.-./ q * w e ,.:X,X-X-XL.J.J.J.J.J.H.^.^.^.G.2.2.t.t.,.) z > . . > ^ / _ o.7.e.~.;X;X;X~.W.R.N.0.5._ B N 3 . . . . X % e Q.].q.>.K & * h W Q <.w.Y.R.R./.m./ 0 & X . . . . . . . % J ..-XdXuXuXuXwXeXeXeXeXwXfXkXkXxXxXxXxXkXkXkXkXhXhXhXkXxXxXjX5XL h K                                                                                                                                                                                                                                                                   ",
"                                                                                                                                                                                                                                                                                                            X . . . . . . . . . . . . . $ 2 2 2 5 y y d n n g f d m S S Z ~ ^ ^ ^ B h W $.;.;.;.%.&.&.-.g.g.g.8.-.=.;.$.$.*.=.=.d.=.] ] ' S N d y 3 # O . . . . . . . . . . . . O O $ # # 2 n N S ^ +.;.=.;.+.+.Z , & w J A.,XqX-X.XJ.A...2.A.A.H.H.G.G.H.G.G.r.,.I w > o . & s ^ _ o.7.e.W.].:X;X;X~.W.R.M.w.8.$.W N 3 . . . . . X e ~.;Xr.7.W * q ! &.0.x.Y.Y.Y.W.E.B.X.q * . . . . . . . . w 2.J.-XwXeXeXwXwXwXrXwXeXwXdXdXfXkXkXxXkXkXkXkXkXkXhXhXhXcXxXxXjX!.3.o.                                                                                                                                                                                                                                                                  ",
"                                                                                                                                                                                                                                                                                                            $ . . . . . . . . . . . . . O $ # # > > 3 d m C N N g k V S S ] ] ' ^ z 0 l ] $.;.$.;.=.-.f.g.g.g.f.-.-.=.$.+.+.+.+.*.+.^ S Z N d 4 2 # O . . . . . . . . . . . . . O $ # # # 6 n V S / +.;.=.+.k 0 , * w Y 1.J.-X9X-X-XL.J.J.J.J.G.G.G.2.1.1.1.2.,.o.j * & $ $ f ^ $.%.o.>.q.W.;X:X;X;X~.E.R.M.e.8.%.W V 4 . . . . . X e ~.;XF.e.$.q x 3.9.x.Y.Y.F.S.T.~.!.>.z 9 X . . . O . . X L ^.-X9XeX9X9XeXwXdXjXdXwXqXwXwXyXdXgXhXkXkXkXkXkXkXkXkXcXxXxXxXSX>XM.3.                                                                                                                                                                                                                                                                  ",
"                                                                                                                                                                                                                                                                                                            $ . . . . . . . . . . . . X $ $ $ o : > r r k B S S V k N Z ~ ] @.] ~ k 9 s ^ +.$.$.=.=.=.-.-.-.g.f.d.=.=.+.+.] / ^ ' ^ ~ Z V m y 4 : # X . . . . . . . . . . . . . O O $ # : 4 d N B ~ / +.$.+.0 & * 8 a u.H.L.-X9X-X-X-X,X,X>X>XH.G.t.2.1.<.<.Y L i 9 o = # = N / %.8.>.>.t.T.;X:X;X;X!.W.R.N.9.8.$.W B r . . . . . X e ~.:XF.e.-.l W 3.w.t.S.S.S.F.T.'./.8.X.k % X . . . . . X L  XqXqXeXeX9XeXwXlXjXlXwXwXzXwXwXdXuXdXhXhXhXkXkXkXkXkXkXxXxXxXjX X6.I                                                                                                                                                                                                                                                                   ",
"                                                                                                                                                                                                                                                                                                          = X . . . . . . . . . . O O $ $ = = > 9 f C B B [ ' ~ B k f B S +.=.@.~ t 9 s ^ ] +.+.+.+.+./ / $.=.-.-.=.=.@.+.] ' ^ ~ S S S S m 5 2 # O . . . . . . . . . . . . . . O $ $ # : 2 y f f k Z ~ +.~ , & a ` i.Q. XL.-X-X-X,X,X,X>XpX>XA.....<.<.>.O.j 8 % o . 2 n d ^ X.8.z.r.u.T.].;X:X;X*XE.n.N.r.7.3.X.W Z r . . . . . X e ~.:XF.e.5.W ! 4.e.t.S.S.F.T.'.[.m.z k r $ $ O . . . . . e S.>XqXqX0X-X-X-XqXaXqX-X9XwXwXwXdXyXdXfXhXhXhXhXhXkXkXcXcXxXxXjX^.` e                                                                                                                                                                                                                                                                   ",
"                                                                                                                                                                                                                                                                                                          # . . . . . . . . . . O O O $ = > > r s B ' ] ] ] ] ' B k f C S +.=.+.~ s 9 k ~ ^ / +.+.+.^ ^ ^ / $.=.=.=.*.@.+.' ' [ S S F F S m 2 # $ . . . . . . . . . . . . . . . O $ O # : 2 y y r s l Z ^ ^ 9 & a 7.F.^.L.L.,X,X,X,X,XqXqXpX^.R T T T Y X.K * X . . . 4 F ^ -.&.z.R.!.'.].*X;X;X;X*XE.u.n.e.8.3.X.~ S r . . . . . X e '.:Xr.7._ a L >.q.2.F.Q.~.'.)././ % X X X $ $ . . . . . 8 R H..X.X.X XL.L.L.-XL.I.L.0XqXaXaXdXfXgXhXhXhXhXhXhXhXcXxXxXxXAXG.Q J                                                                                                                                                                                                                                                                   ",
"                                                                                                                                                                                                                                                                                                        $ . . . . . . . . . . O $ $ $ # : 3 r f N ~ ^ / +.+.$.] Z l k l Z +.+.+.^ l 0 s Z ^ +.] ' ^ ^ ^ ] ] +.+.@.@.+.] ' ' [ S S S F F V d = # O . . . . . . . . . . . . . . O O + $ = 2 4 y r r r f D F ^ t w L 4.F.Q.G.A.XX>X>X:X>X>X>X>XG...Y J a a h , X . . . . > l z %.0.N.E.~.].].*X*X;X;X*XE.N.N.z.0.5.$.^ S d . . . . . . e ~.].q.o.j % w >.r.r.Q.].'.Y.4.! q X . . X X # $ . . . . % J A.J.L. X XK.H.H. X XJ.J..X>XqXpXaXlXjXxXxXxXkXkXxXhXkXkXxXSXCXW.Q e                                                                                                                                                                                                                                                                   ",
"                                                                                                                                                                                                                                                                                                        . . . . . . . . . . O # # $ $ # : r r g N ~ +.$.$.$.$.+.Z l s l Z ] =.$.+.^ f s Z ~ ^ ' [ S S ^ ^ ^ ^ ^ ^ ' ' ' ' [ F S V V V V y 2 # O O . . . . . . . . . . . . . . O O # # 2 4 4 y r r r d N D N r q X.e.e.q.Y J Y i.i...1.1.2.'.;X}.R.X.q ; & X . . . X - t x Q w.`.[.}.}.].].*X*X*X*X*X!.W.M.z.9.8.$.^ [ d . . . . . . e T.~.y.>.h % w ,.T.T.~.E.r.>.X.x 9 o . . = d V d X . . . * .. X X X X XK.H.H. XXXH.A.A.H. X-X-X0XqXaXaXlXlXlXfXfXaXaXaXsX7Xo.i w                                                                                                                                                                                                                                                                   ",
"                                                                                                                                                                                                                                                                                                      $ . . . . . . . . . O # # # # # = > r d k B ^ *.;.$.$.$.$.W x s l W +.=.-.=.+.B f l Z Z Z D V N C C V Z Z S F [ [ [ F S V V V M b : # O O O . . . . . . . . . . . . . . O O # 2 6 4 r r r r r r d r > > > c Q I U J e H J J J J T T e.'.W.9.x & X X . . . X - k ( -.j.R.).[.{.].*X*X*X*X*X*X*X!.R.R.N.9.8.%.] ' d . . . . . . e T.E.,.o.h % e u.~.^.~.r.<.) ( 0 & & X % k *.l.@.> $ = X e W.>X>X.X.X.X X XH. X>XG.R T T ..J.J.J.L.L.L.L.L.L.L.L.L.J.2.<.j * % 8                                                                                                                                                                                                                                                                   ",
"                                                                                                                                                                                                                                                                                                      $ . . . . . . . O O O # # # = = > 4 d k B Z / =.-.&.%.&.$.Q z x P ! +.&.-.-.$.Z l l l k g f g s d f l C D Z S F S S D V N m m n y = $ O O O . . . . . . . . . . . . . . O # # 2 4 4 r y y r r > : = o X $ & * w U y.2.S.G.2...R T e e L e , % X . . . o > 9 h K _ B.[.).E.!.].].{.*X*X*X*X*X*X!.R.R.M.h.8.%.] ] g . . . . . . e F.T.<.I 9 % a W.~.~.~.,.I ! l & X * t i W ;.d.^ t S d.r w <.G.H.L.-X>X>X XS.S.Q.S.T T 1.A.J.L..X.XL.L.L.J.J.I.A.A...R e % X X *                                                                                                                                                                                                                                                                   ",
"                                                                                                                                                                                                                                                                                                    # . . . . . . X O O @ @ # # : 2 2 r g C Z Z W / $.;.%.-.g.h.h.h.h.9.8.%.8.g.d.=.W l l k k s r r r d d g N V D S S S N n n d d y 4 2 $ O O . . . . . . . . . . . . . . . . O + # 2 4 y y d f d 3 = $ $ X . $ o & w i.].:X:X,X XQ.T.Y.<.e ; X . . . . $ & r k B / 3.9.).[.).E.!.}.*X*X*X*X*X*X*X*X!.R.R.M.9.9.%.] ] g . . . . . X e t.F.Y L 9 % L '.~.Q.E.o.e t & . X 9 ( ( ! $.! q 0 =.V.m % w H R I.0XpX>XT...R 2. XJ.J.>XpXwXrXaXfXjXaXaXqXqX-X-X.XXXT.6.8 . X *                                                                                                                                                                                                                                                                   ",
"                                                                                                                                                                                                                                                                                                    O . . . . . X O O O # # # # 2 3 r f D S ~ Z Z ( ^ $.%.5.h.k.m.`.`.`.(.M.c.l.g.-.+.W B z l s 0 0 r r d d g m N D S V n r 4 2 3 = = # O O X . . . . . . . . . . . . . . . O O O # = 6 y y n m d > o X o o o r Z P Y q. X:X XL.H.J.S.W.x.j X . . . . X 3 r 0 E _ 5.n.M.).'.).!.).{.*X*X*X*X*X*X].{.!.R.R.m.9.9.%.{ +.m . . . . . X w t.Y.` L 9 % I '.~.~.R.) * X . . X 9 ^ / X._ I e i ] f.> X 8 e T A.0XpX>X1.Y T 1.-X>X-XrXfXdXaXfXkXSXSXSXSXSXjXaXaXpX>XT.x % % 8                                                                                                                                                                                                                                                                   ",
"                                                                                                                                                                                                                                                                                                  . . . . . . O O O O O # # # # 2 d f N Z ~ W Z z E Q / X.5.8.8.j.B.B.B.B.M.c.j.h.8.-.-.d.-.;.] W z s 0 0 0 > > r r d d 4 = = # # # + + O O . . . . . . . . . . . . . . . O O O @ # # 2 y y n N r = o & - 9 0 z 5.z.W.~.^.H.J.A.A...R Y P 9 . . . . . o N Z l $.5.3.e.n.R.).).).'.{.*X*X*X*X*X*X{.{.).R.R.m.9.5.%.{ *.N . . . . . X 8 q.Y.,.` t % I '.~.E.x.P X . . . X 9 W / X.) I a W $.] & % K >.T R -XpX>XA.R .....XeXeXyXdXdXuXrXfXxXSXSXSXxXkXdXaXaX>X^.,.e w w                                                                                                                                                                                                                                                                   ",
"                                                                                                                                                                                                                                                                                                  . . . . . . O O O O # # # # = 4 m N N Z Z Z l l B W ! _ &.5.8.8.9.8.9.w.j.j.j.h.h.h.k.V.V.B.k.g.$.h 9 , * & & & % & = = o # # # $ O O O . . . . . . . . . . . . . . . . . O O O $ # 2 4 r f m 4 X X X > B ( P ) ,.r.G.T.G.S.S.S.t.Y e w % . . . . X & B $./ 5.9.8.r.N.R.!.!.!.).[.*X*X*X*X*X*X*X*X).R./.M.7.5.o.{ *.C . . . . . X 8 y.Y.r.0.x % I !.!.Y.4.x X . . . X * P _ ) ) I I _ $.^ 8 w _ Y H R .XqX>X^.S.S.J.9XwXwXuXdXuXuXuXdXjXkXkXxXkXfXdXdXlXjXsX'.J L                                                                                                                                                                                                                                                                     ",
"                                                                                                                                                                                                                                                                                                  . . . . . . O O O O # # # # 2 d N V C C C k s s l B ( / _ $.$.;.%.&.5.8.h.h.j.h.h.h.j.c.c.m.m.j.8./ z z x h s u u r 4 2 = # # + O O O . . . . . . . . . . . . . . . . . O O + $ $ # 4 d d m m 2 o = = % N $.Q L U Y Y Y Y Y Y Y ) j * & X . . . X : 9 l $.&.8.0.7.e.n.R.(.).E.!.}.{.*X*X*X*X*X*X*X).R./.M.0.3.X./ @.n . . . . . . 8 ,.S.r.j.l % I E.!.Y.` h o . . . . * K _ ) ) ` ) _ %.$.i a I e 8 T H.>XXXG.Q.H.L.eXrXyXdXdXdXdXdXdXfXjXjXjXfXfXdXfXfXjXAX;XJ e                                                                                                                                                                                                                                                                     ",
"                                                                                                                                                                                                                                                                                                2 . . . . . . O O O O # # # # 4 m V V N l l k f f k B B ~ ^ ] +.+.$.$.&.5.8.h.h.h.h.h.h.z.c.m.B.M.m.c.h.h.8.;.;.$.^ ~ N n 4 # + + . . . . . . . . . . . . . . . . . . . . O O # # # # 4 b d m n 4 = 2 r = t =.( h a h j e e w 8 * * X . . . . . X > k Z { &.3.5.3.4.w.z.W.R.R.R.E.}.{.{.*X<X<X<X*X*X).R./.m.8.&._ ( ' r . . . . . X 8 ,.S.r.9.h % I E.E.r.` l o . . . . & h Q ) ) ) X.o.%.;.x e U J 8 w Y 1.<.R G.H.K.9XrXdXdXfXfXfXlXfXfXfXlXjXfXdXdXdXfXlXsX].H e                                                                                                                                                                                                                                                                     ",
"                                                                                                                                                                                                                                                                                                # . . . . . . O O O @ @ # # = y f N l C C l l g g k l B ~ ^ ] +.] ^ / $.$.$.-.g.h.h.9.9.j.m.m.M.M.M.m.c.j.h.h.h.g.=.@.[ n 5 # # O . . . . . . . . . . . . . . . . . . . . . O O $ $ = 6 4 4 4 4 4 = : 3 > > #.B * % & & % X X X X . . . . . X X & d ^ ;.-.&.5.5.5.3.9.e.N.R.R.Y.E.[.{.{.*X3X<X<X<X{.).R.B.z.3.$.( B C 3 . . . . . X w y.S.e.5.t % ) E.T.q.I k $ . . . . . * j ! X.o.o.%.%.$.K J ) 6.L ; 8 e 8 e <.1.A.L.qXwXyXyXdXdXlXlXlXlXlXlXlXfXdXlXdXaXsXF.e e                                                                                                                                                                                                                                                                     ",
"                                                                                                                                                                                                                                                                                              $ O . . . . . . . O O O # # # 2 d d d k B S V C N f d t m S ^ [ [ ~ Z W W ( / $.-.g.h.h.9.j.z.z.z.z.z.z.z.j.h.h.h.g.f.=.' C y # O O . . . . . . . . . . . . . . . . . . . . . . O O $ # = 2 2 : = # # # o $ X : = X X . . . . . . . . . . . . $ = r l W $.&.&.5.5.3.3.0.9.z.N.N.Y.R.[.{.{.<X<X<X<X<X{.).M.m.h.3.X.( B B > . . . . . X w q.S.q.X.> ; ` T.W.r.Q s o . . . . . % w Q o.o.o.o.X.{ Q L ` z.7.w 8 w * 8 e J R I.P.9XeXeXwXrXdXdXjXjXjXjXjXjXjXjXfXfXsXY.e e                                                                                                                                                                                                                                                                     ",
"                                                                                                                                                                                                                                                                                              . . . . . . . . . O O O # # = 4 n f g Z S S N g d r r r t N Z S D Z Z Z Z Z ^ $.-.g.h.h.h.h.h.9.8.9.9.j.j.j.j.z.j.k.g.d.' m y # . . . . . . . . . . . . . . . . . . . . . . . . . O O $ # # # # # $ o X X . . . . X o X X X . . . . . . . O = 3 u l B W X.%.o.3.8.5.3.0.w.z.N.N.N.R.[.[.{.<X<X<X<X<X[./.m.z.9.%.$.( ~ S = . . . . . X e t.Y.7.( & ; Y T.T.r.! r X . . . . . X 9 / 3.3.&.X._ ! / P I 7.r.,.>.h % % q L R A.L.9XeXeXeXeXeXwXlXSXSXSXSXSXSXSXSXSXCXn.w e                                                                                                                                                                                                                                                                     ",
"                                                                                                                                                                                                                                                                                            . . . . . . . . . . O O O O # = 4 d n N S S V s r 0 9 - - > > r f g N C B B Z ^ $.=.f.g.h.h.h.8.5.3.3.8.h.j.z.z.c.c.k.g.=.' n 4 + . . . . . . . . . . . . . . . . . . . . . . . . . O O O # # # # $ 2 S l g l t * % * 9 0 > > = X . . . O O $ 4 g N Z ( Q X.%._ o.3.5.3.9.z.z.x.x.x.R._.}.}.*X<X<X<X@X[./.m.c.5.%.$./ ' S = . . . . . X i x.Y.7.P & * <.G.T.n.Q > . . . . . . X * W %.9.8.o.) ! ^ W x Y S.].{.Q X % t I <.H.K.-XeXeXwXwXwXwXlXjXSXSXSXSXjXjXSXsX;X) 8 e                                                                                                                                                                                                                                                                     ",
"                                                                                                                                                                                                                                                                                            O . . . . . . . . . O O O $ # = 4 d m C Z ~ Z B z l s , > > > 9 t h l Z S Z S ^ +.;.-.f.g.g.g.5.-.-.5.5.g.h.h.c.c.k.l.f.*.S y 3 $ . . . . . . . . . . . . . . . . . . . . . . . . . O O O # # # # o t -.g.-.l.V.) w j W Z s s 4 $ . . . + # 3 d S S ~ ^ ! X.%.o.o.&.5.3.9.z.z.z.z.z.N.).).'.*X<X<X<X@X[.(.m.z.5.$.$.] ' S = . . . . . X L Y.S.4.Z * q q.G.G.Y.Q X . . . . . . . X * Q 9.0.3.X.Q W l e a i.^.3X! X X 9 L <.H.L.9XeXeXwXdXdXdXlXlXlXjXlXlXzXqX>Xq.a 8 * w                                                                                                                                                                                                                                                                     ",
"                                                                                                                                                                                                                                                                                          2 $ . . . . . . . . . O O O $ # = r f k B Z ~ ^ / $.+.^ l s s s k B ( / / ^ B B W ~ +.=.=.d.d.-.d.-.;.;.;.;.;.5.g.g.g.f.=.' N r = $ . . . . . . . . . . . . . . . . . . . . . . . . . . O O O $ o & 9 x X.3.3.9.x.7.Y >.o.! h r > $ . . . # = r g S ~ ^ { $.%.&.%.&.3.5.8.9.w.z.z.z.z.N.R.E.}.[.{.[.@X[.`.M.m.j.&.$.$.] ' D $ . . . . . X L Y.S.4./ f x q.G.G.Y.! X . . . . . . . . X x 8.8.8.%.( W l 0 w L R.1XW X X , L 1. X-XwXyXzXdXdXdXdXdXlXlXlXfXjXaX>XXXY ; & * w                                                                                                                                                                                                                                                                     ",
"                                                                                                                                                                                                                                                                                          = O . . . . . . . . . O O O O o = d m N B B ( ^ $.$.$.$.] ~ W W / ;.5.5.&._ W h l l Z B l z ^ +.=.=.$.$.] $.+.;.;.^ ( ] S k y > # . . . . . . . . . . . . . . . . . . . . . . . . . . . . O X X X q &.5.o.>.,.q.r.x.w.>.! x 0 & $ X . . $ = r y f B ~ / $.&.&.5.3.5.5.5.8.0.0.4.9.N.M.N.R.R.[.*X}.)._.)./.c.j.g.%.{ $.[ [ N $ . . . . . X L r.r.4.;.[ Q q.S.F.Y._ X . . . . . . . . . > ( &.f.;.^ k r > * q &.k.t . X 9 L 2. X9XwXdXuXdXdXdXdXdXdXdXdXdXlXqX.X].` % X % 9                                                                                                                                                                                                                                                                     ",
"                                                                                                                                                                                                                                                                                        X X . . . . . . . . . . O O O $ = y V S Z Z W / _ X.%.%.%.$.$./ _ &.8.h.z.c.j.8._ ( z l t * , C ' #.' ~ ] +.] ] ] +.W l Z k r 3 # O . . . . . . . . . . . . . . . . . . . . . . . . . . . . . X & * I c.7.Y <.,.w.Y.w.O.L w & X . . . . . $ > t f k B W / %.-.5.5.5.5.5.8.9.0.3.4.7.N.M.N.R.).*X<X[._.`.B.m.j.h.g.-.$.+.S V d . . . . . . X L r.r.3.;.k h 4.S.F.Y.X.& . . . . . . . . . X 9 W ] ] C r o . X % 9 u X . X * L 2.L.P.9XwXrXyXyXyXyXyXyXuXuXuXyX9XJ.G._ X . X                                                                                                                                                                                                                                                                       ",
"                                                                                                                                                                                                                                                                                        X . . . . . . . . . . O . X X # y N S S S W ( _ $.X.%.%.%.X.X.X.X.o.7.9.m././.B.m.5./ W k 0 t l g g m m ' @.[ Z S ^ Z s f r 3 & $ . . . . . . . . . . . . . . . . . . . . . . . . . . . . . . o k j o.x.<.Y Y R <.7.Y a 0 X . . . . . . $ : r f l l z W / &.&.5.8.8.0.8.9.j.z.9.7.7.z.N.R.[.<X4X4X<X[./.N.j.8.8.l.g.d.] t 3 2 . . . . . . X L e.w.4./ > w <.S.F.Y.X.& . . . . . . . . . . . & > 3 = $ . . . . . $ . . X 8 L 2.H.J.P.eXeXeXrXrXyXyXuXdXdXdXdX9XK.E.o.% X ,                                                                                                                                                                                                                                                                       ",
"                                                                                                                                                                                                                                                                                        X . . . . . . . . . O O . X X : N V B B B ( ! _ %.o.%.o.o.o.o.>.>.>.q.u.R.).(._./.z.5.&.( k t > o o o = t n y 4 r r > > = = # $ . . . . . . . . . . . . . . . . . . . . . . . . . . . . . . . & $.3.7.e.y.1.R R Y Y J j l 2 X . . . . $ = y g l B Z / / _ %.&.5.9.9.9.9.9.z.z.h.e.e.w.M.[.1X4X2X1X[./.B.m.m.8.8.g.-.*.' u > = . . . . . . . e 6.7.4.Q & w <.S.S.N.o.& X . . . . . . . . . . . . . . . . . . . . O O . o 0 I t.Q.J.P.9XeXeXwXwXwXwXzXzXwXwXeX.XH.r.K X % h                                                                                                                                                                                                                                                                       ",
"                                                                                                                                                                                                                                                                                      > X . . . . . . . . . O O O X o r V S N k z ( ! _ %.&.o.>.>.>.>.e.R.Y.E.~.].{.{.{.'.W.z.h.%.W t * X o . . . . . . . X X X $ $ O . . . . . . . . . . . . . . . . . . . . . . . . . . . . . . . X 9 %.7.w.r.t.S.2...i.i.Y K Z 4 O . . . X = y m V B W ] $.! Q ! _ 3.8.9.9.9.9.9.3.9.z.z.0.9._.1X@X1X1X_.(.B.B.B.h.-.;.] ~ B r 4 = . . . . . . . * L >.3.P % 8 <.S.r.n.&., . . . . . . . . . . . . . . . . . . . . . O + + 3 l j ` 2.A.A.K..X9XeXeX9X%XbXbXP.P.L.H.2.L ; X %                                                                                                                                                                                                                                                                         ",
"                                                                                                                                                                                                                                                                                      : . . . . . . . . . . . . . $ 3 y n C l l ( _ _ o.>.6.3.>.>.>.>.e.'.~.'.].].XX;X;X].E.R././.c.-.~ r > o X . . . . . . . . . . . . . . . . . . . . . . . . . . . . . . . . . . . . . . . . . . & h %.9.e.t.r.F.G.F.F.Y.9.K 0 o O . . O # 2 d N B B ( $.$.Q x j Q 5.8.8.8.9.9.3.o.9.m.z.5.3.z.m.m.m.z.9.8.h.h.h.8.-.$.Z l g r 4 2 . . . . . . . % j o.5.Q % 9 >.r.t.r.o.q & . . . . . . . . . . . . . . . . . . . . O # + o - * w Y Y R A. X>X0X>X-X-X-X-X.X X X^.q.e % % ;                                                                                                                                                                                                                                                                         ",
"                                                                                                                                                                                                                                                                                    = # . . . . . . . . . . . O O = y y f k B E ! X.o.O.>.4.,.>.,.,.,.q.T.~.^.].].XX:X:X;X].].4X7X4X+Xk.~ 0 & X . . . . . . . . . . . . . . . . . . . . . . . . . . . . . . . . . . . . . . . . . X > h ! >.7.,.q.F.~.^.E.Y.9.j % O . . $ 2 5 y n N B B W ] $.! P I _ &.5.5.5.9.9.3.3.9.m.j.5.&.-.&.&.-.&.X./ $.$.=.=.d.*.Z C g 4 4 2 . . . . . . . * x _ 8._ % 9 4.t.t.t.o.x d = . . . . . . . . . . . . . . . . . . . O # + + % % 9 W I Y <.t.S.S.S.S.S.T.S.2.t.e.0.j ; % t                                                                                                                                                                                                                                                                           ",
"                                                                                                                                                                                                                                                                                    X . . . . . . . . . . . . O $ = y t f l W / o.o.O.<.<.,.,.,.,.7.7.t.F.~.^.^.^.XX:X:X:XXXXX;X4X4X_.X.j w % X X . . . O O . . . . . . . . . . . . . . . . . . . . . . . . . . . . . . . . . . . $ > t h j I Y Y ,.Y.}.Y.) x > X . . O # 5 b n m N V B Z ( _ $.X.X._ X.X.X.&.5.0.3.3.j.j.8.%.$.=.=.=.=.=.*.+.+.*.=.=.=.@.' ^ V 4 4 2 . . . . . . . & 0 h -.$.& , >.r.t.q.o./ ^ 4 . . . . . . . . . . . . . . . . . . . . O O O $ o - 9 8 8 8 8 8 8 8 8 8 p w w w w 9 % X %                                                                                                                                                                                                                                                                             ",
"                                                                                                                                                                                                                                                                                  X . . . . . . . . . . . . O O $ 3 y t k B / g.9.4.>.<.<.2.2.2.2.2.2.2.t.T.^.].^.^.XXXX:XXXXX:X;X3X{.w.3.%.Q ( ~ f & $ O O . . . . . . . . . . . . . . . . . . . . . . . . . . . . . . . . . . . $ : r 0 q e a L L O.9.Q 8 % $ . . . + 2 y b n m m N V B B / $.$.%.$._ _ _ %.3.8.7.5.9.g.-.] ] *.@.+.' #.#.' ' ' ' [ S S S S V 4 4 : . . . . . . . o 0 0 +.+.% , <.r.t.q.>.$.@.f X . . . . . . . . . . . . . . . . . . . . O O X X * * 8 * * % % % % % % ; - * % % % % X %                                                                                                                                                                                                                                                                             ",
"                                                                                                                                                                                                                                                                                  $ . . . . . . . . . . . O O O o r n k l E ! 3.e.r.,.,.2.F.G.T.!.T.F.F.u.T.;XXX^.Q.Q. X:XXXXXXX:X3X4X).)._.`.(.V.;.t > = O . . . . . . . . . . . . . . . . . . . . . . . . . . . . . . . . . . . O # : > > 9 w i h K z - % $ . . . O # 6 5 5 G b b n m N Z ] / / $.$.%.%.%.%.&.5.5.5.5.-.$.S V N n d y y y r r r r r t f C S n 2 : # . . . . . . . $ s s l l % 9 >.r.t.q.>.%.=.m X . . . . . . . . . . . . . . . . . . . . . $ & > h K P I I L j K Q l 8 - = $ $ X X & - *                                                                                                                                                                                                                                                                             ",
"                                                                                                                                                                                                                                                                                  o . . . . . . . . . . X $ $ $ & r k l x x P I q.Y.t.2.2.T.^.;X;X;X~.T.F.F.].].^.Q.H.^.:X:XXXXX].].}.W.E.'.).)./.j.! k N 3 $ . . . . . . . . . . . . . . . . . . . . . . . . . . . . . . . . O . X $ $ o o & - 9 9 d y = $ . . . . + # = = # # # 7 : : 4 s Z ( / $.{ $.$.%.%.%.&.&.&.;.*.' V r : = = = # # o o & - > 9 9 t k t > = $ O . . . . . . . > , q 9 X 9 o.r.t.t.,.%.*.f O . . . . . . . . . . . . . . . . . . . . . o r B _ %.%.&.&.X.) %.8.$.t = + O . X X >                                                                                                                                                                                                                                                                                 ",
"                                                                                                                                                                                                                                                                                2 $ . . . . . . . . O O # = = & > s B W P I ) Y q.T.F.r.F.~.].;X:X;XT.2.1.1.G.~.~.^.].:X:X:X:XXXQ.W.W.S.Y.'.{.{.<X@XB.;.@.t $ . . . . . . . . . . . . . . . . . . . . . . . . . . . . . . O O O O . . . . . . . X X + # O . . . . X X X . . . . . . . . X X > 9 l ^ ( W / $.$.$.] / / +.] ' N = $ $ $ X X X X X X % ; * * w w 9 * % X . . . . . . . . . X t 0 X w >.Y.Y.r.4.o.( > X . . . . . . . . . . . . . . . . . . . . . o t { 5.3.o.6.4.>.o.>.8.;.r # + O . X X 0                                                                                                                                                                                                                                                                                 ",
"                                                                                                                                                                                                                                                                                $ . . . . . . . . . O + # # = > 0 x W Q X.3.0.4.r.Y.u.r.u.W.E.E.).).Y.q.t.r.Y.E.}.].;XXX:X:X:X:X~.W.T.Y.E.'.{.{.3X<X`.5.=.C o O . . . . . . . . . . . . . . . . . . . . . . . . . . . . X X X X X X X X X . . . . . . . . . = > 9 t i u 9 > 9 9 > , 0 > > o = = r g k N Z ^ ^ ~ S S S S F S d & X , w 0 q a K j e a J L U I I I K x 9 X X . . . . . . X % V l X w >.r.Y.Y.w._ z & . . . . . . . . . . . . . . . . . . . . . . X 0 E o.o.o.>.4.4.4.4.h.;.t $ O . . . X 9                                                                                                                                                                                                                                                                                 ",
"                                                                                                                                                                                                                                                                              . . . . . . . . . . . O + # = - u x Q ! ) 3.9.h.z.x.x.e.4.Y L j j K _ %.%.5.3.0.z.N.n.Y.Q.].XX:X:X].~.~.'.E.'.'.~.}.@X`.8.=.C o $ O . . . . . . . . . . . . . . . . . . . . . . . . X X % * w j x x x K / B $ . . $ $ O O . O S -.5.z./.).R.x.n.n.N.N.B.B.( - o $ # : 4 d g m N g m f r d d 4 = $ 9 u.=X,X,XqXsX:XG.G.G.G.T.W.F.r.w.9.W 9 3 $ . . . . . X - B B % w o.w.r.x.w._ x % . . . . . . . . . . . . . . . . . . . . . O X & * j ! I Y o.o.%.3.g.$.t $ . . . X X                                                                                                                                                                                                                                                                                   ",
"                                                                                                                                                                                                                                                                              . . . . . . . . . . . O + # = u k Q o.%.3.&.5.5.8.9.5.5.Q w % % X X % & % % % * > w w J t.].;X;X;X;X].].].'.E.F.1.t.E./.8.=.B & $ . . . . . . . . . . . . . X o X X X . . . . X % w i L Y <.r.'.{.].].~./.k.r . X $ # # O O X z 8.7.r.!.{.].].].].].'.)./.P % X . . . . X X X X X $ $ X X O X X X t 5XSXcXcXcXxXpX^.^.^.^.^.Q.T.S.t.4.! t u # . . . . . . & N S & * ) 7.7.4.6.o.E 0 > o . . . . . . . . . . . . . . . . . . . X X & * e L a a ! P W / ^ Z > $ X & % 9                                                                                                                                                                                                                                                                                     ",
"                                                                                                                                                                                                                                                                            = . . . . . . . . . . . O + # > f B ! o.%.&.Q h q t t u t 0 % X X $ . . . . . . . . . X ; I M.R.R.E.}.].].{.].].W.t.q.Y.z.X./ N o $ O . . . . . . . . . . X = 3 f N N N f 9 * 9 w a Y ,.t.F.G.Q. X:X:X:X].W.j.d X X $ # # O X . h o.<.2.T.].XXXXXXXX].^.!.Y.X.q - X . . . . . . . . X X . . . . . X h 5XSXcXcXcXfX^.2.Y.T.T.T.T.G.S.1.<.I q r = . . . . . . o r r X & K >.6.<.` _ ! W S 4 O . . . . . . . . . . . . . . . . . . X , j ! &.o.L x ( z h s t , X . & f                                                                                                                                                                                                                                                                                         ",
"                                                                                                                                                                                                                                                                            2 . . . . . . . . . . . O + = u l ( _ o.$.] h % X X . . . . . . . . . . . . . . . . . . . & 0 0 0 a 7.R.).}.*X3X3X'.Y.n.4.I W l o $ . . . . . . . . . . . X r f N ~ W ( W j e L U R y.S.G.H.H.L. X-X-X,X^.q.Q > . . . O O O X . q o.,.t.F.Q.XXXXXXXX].].~.).R.9._ 0 X X X X X . X X o & o X . . . X h pXxXcXcXcXaX1.L ` 6.7.t.t.t.t.,.>.I h r & . . . . . . o = & X % q _ 3.>.` ) _ ] ] d $ . . . . . . . . . . . . . . . . . X & j 3.w.z.0.K q q 9 - & o X . . %                                                                                                                                                                                                                                                                                           ",
"                                                                                                                                                                                                                                                                          2 = . . . . . . . . . . . O = r l z ! X.X.Q l - X . . . . . . . . . . . . . . . . . . . . . . . . X % W ! W ) w.}.3X{.!.N.>.K W B & X . . . . . . . . . . X & v C B W Q _ _ ` <.q.S.T.Q.Q.Q.H. X X-X-X-X:X!.I 9 o . . . $ $ O X . t 8.z.n.r.F.].XXXX^.^.^.^.'.}.).z.) Q $._ W e w q q q h 0 X . . . . h pXxXcXvXfXaX..e a I ` <.<.,.,.4.3.W s r o . . . . . . $ o X X X 9 Q 3.3.o.! ! / ] g X . . . . . . . . . . . . . . . . . X ; j 4.w.q.<.a 8 ; % % o $ . . . %                                                                                                                                                                                                                                                                                           ",
"                                                                                                                                                                                                                                                                          $ . . . . . . . . . . . . $ = t Z ^ ! $.$.x & . . . . . . . . . . . . . . . O + + + O O O X . . . . . X X X % I `.4X1X)./.3.K E S > X . . . . . . . . X = & u C S B E Q ` O.<.,.S.T.^.^. X X X.X-X-X>X,XXX7.w X . . X = > : # O . r h.z.r.r.F.'.:XXX^.^.XXXX].;X{.(.9.0.x.n.n.<.T L J a j q X . . . X a qXcXvXvXfXaXH.T T L I ` <.<.,.>.) z t > o . . . . . . = 2 : X X % h $.5.%._ / ( ~ f X . . . . . . . . . . . . . . . . . % 8 j >.q.1.,.` I K z B s o . . . %                                                                                                                                                                                                                                                                                           ",
"                                                                                                                                                                                                                                                                        O . . . . . . . . . . . . O $ r f W $.$.^ ( t X . . . . . . . . . . . O # = > r y y d y y 2 : = o . . . . . . X > W / W W %.$.E ~ [ r $ . . . . . . . . = y f n C S B K I Q ` <.<.2.S.G.Q. X XXX-X-X,X-X XT.` & O . . & f ( B > X . 0 $.3.7.,.r.'.XXXX].:X:XXXXX;X3X@X7.` q.r.F.G.G.G.r.<.O.Q > . . . X J pXcXvXiXiXdX,X,X:Xt.<.4.q.y.4.) j q 9 & . . . . . . . : m n # X X * / &.&.X.Q W S t o $ . . . . . . . . . . . . . . . . % 8 L ,.q.t.t.r.e.w.9.;.N X . . X *                                                                                                                                                                                                                                                                                           ",
"                                                                                                                                                                                                                                                                        . . . . . . . . . . . . . . = g l W ;.;.^ t o . . . . . . . . . . . # : y n N N C V S S V N f r r - o . . . . . . . . X X > f k S ' t o . . . . . . . . = y m N C C k x L I Y <.1.1.2.S.T. X:X:X:X XH.D.A.t.Q & $ $ & u ( k.l.f X . 9 / o.<.<.r.'.].].:X>X:XXX:X;X3X(.` U <.2.S.H.^.XX^.t.4.$.u $ . . X a ,XiXiXiXiXrXqX0XpXQ.t.t.q.q.6.U e 0 > $ . . . . . . . = n N = . X * B $.%.$./ ( W f - $ O O . . . . . . . . . . . . . . % 8 L 4.q.t.r.r.r.e.9.&.k X . . % i                                                                                                                                                                                                                                                                                           ",
"                                                                                                                                                                                                                                                                      O . . . . . . . . . . . . . O > k B K $.=.~ - . . . . . . . . . . O # 4 d V S B B B B ~ ~ ~ ^ ~ ~ ^ ' S y 2 # O . . . . . . X = u S #.m o . . . . . . . . o r n N C N k i j L Y <.y.y.2.S.G.Q.^.^.T.S.1...<.6.z = + $ > B ! 8.-.r X . > W ) O.<.r.~.^.].5X5X:XXXXX].{.x.L a I Y ......A.2.Y U z 9 + O . X e -XtXtXtXiXtX-X XXXG.S.S.t.q.,.I a s r # . . . . . . . # n m # . . & 0 W ! / { ] W t > # + O O . . . . . . . . . . . . . % 8 I 7.q.t.t.r.r.e.9.&.k X . . -                                                                                                                                                                                                                                                                                             ",
"                                                                                                                                                                                                                                                                      . . . . . . . . . . . . O O $ > l B K / ( t & . . . . . . . . . O # 2 n N C B z l l z W ( { $.$.$.*.*.] ~ V n 3 + O . . . . . $ o y V y # . . . . . . . . # r k N C N f t i L I >.q.y.y.q.t.t.2.2.1.1...R <.%.k o $ # 9 l z K k : X . > Z ! O.<.r.'.~.].5X5X>X:XXX].{.z.L a L L U T R <.<.T L x r # + $ X e -XtXtXtXiXrXL.J.H.G.G.~.Y.r.q.O.K x r = + O . . . . . o d C = . . X & 0 h ] ;.$.B u > = # # $ . . . . . . . . . . . . . % 8 ! w.r.r.r.q.7.4.3.$.k $ . . *                                                                                                                                                                                                                                                                                             ",
"                                                                                                                                                                                                                                                                    . . . . . . . . . . . . O O $ $ > k ( ! W t X X . . . . . . . . . 2 d n D V B B z z x x z / %.%.$.$.{ _ / ] [ S n 3 # O . . . . . . . $ O . . . . . . . . . o 3 f l B B k i j L I <.4.,.7.q.q.,.<.<.1.2.t.q.>.$.s $ $ = r t h h t 3 # . - B ! O.<.r.'.~.^.5X6X5X:X:XXX{.R.P a h e e L >.w.3.Y K l r = # $ o e -XtXtXtXiXtXL.A.A.S.T.].~.S.q.>._ W f : # + . . . . . o d V 2 . . . o % t ] ;.] s - % & = # $ O . . . . . . . . . . . . X 8 I w.x.Y.Y.x.7.o.Q ( s o X X %                                                                                                                                                                                                                                                                                             ",
"                                                                                                                                                                                                                                                                  . . . . . . . . . . . . . O O + $ 9 z / / B > . O . . . . . . . . $ d A S S Z Z z W _ %.&.%.%.&.%.%.$.$.$.$.$.] S m r 3 = $ . . . . . . . . . . . . . . . . . $ = u k l B s h a J I ` <.<.<.<.,.<.R R <.t.W.Y.0.( , X = - u t t t t r = . = Z ! ` <.r.].^.=X5X6X5X5X:X:X3X}.I a q 9 9 z $.%._ Q z l r = # + o e -XiXiXiXiXrXL.A.A.S.G.^.T.S.1.<.O.Q k 2 2 # . . . . . o d C 2 X . . $ X 9 B ^ ^ k t t u > > = O . . . . . . . . . . . . % 8 L 7.R.E.E.).x.) K l 0 X X & 8                                                                                                                                                                                                                                                                                             ",
"                                                                                                                                                                                                                                                                  . . . . . . . . . . . . O O $ # - k ( $.$.l - . . . . . . . . O $ # d V V V B Z E ( &.k.V.m.c.j.5.&.&.&.5.f.-.( h f n m n 5 # . . . . . . . . . . . . . . . . . X 0 h x l s h a J L Y Y Y Y Y R R R Y ..S.F.r.&.h o o = - u h h t t r : X > W ! ` <.u.XX:X>X5XpX5X5X7X:X4X<XX.h 0 > > 0 > > * 9 9 9 3 # + o % e -XiXiXiXiXaXL.A.2.A.S.G.G.2.1.<.O.! h 3 2 + . . . . . o y N 2 $ $ O $ X - B ~ W W ^ ^ Z C N r $ . . . . . . . . . . . X ; w I x.'.E.E.(.z.) W l 9 o % q                                                                                                                                                                                                                                                                                               ",
"                                                                                                                                                                                                                                                                  . . . . . . . . . . . . . . # - t ^ ] =.@.r X . . . . . . . . + = 2 n D V C B W / _ 5.l.j.j.h.8.5.&.3.5.8.l.g.{ l B V n n n = . . . . . . . . . . . . . O . . . % t x K ( ( W I U T Y Y Y R R R ..2.S.F.Q.Y.>.j * X & * 9 x z k h s r > o > W Q ) <.r.].:X5X5X5X5X5X5X>X4X<X&.h r > = o X . . . X X o O O X X e ,XvXvXiXiXfXL.A.2.t.2.t.t.2.1.1.<.! s r = . . . . . . X r N r o $ $ $ $ & t B z W / ] W B l t o X . . . . . . . . . . X w j O.W.E.Y.u.W.e._ ( l > % &                                                                                                                                                                                                                                                                                                 ",
"                                                                                                                                                                                                                                                                $ . . . . . . . . . . . O . $ 3 y k ^ *.=.] = . . . . . . . . . # 6 4 n S S C Z ^ $.%.&.5.5.5.5.&.&.&.3.3.9.l.l.-.] ^ V r r d = . . . . . . . . . . . . . O . . . * a K I o.5.3.<.<.,.2.t.A.A.G.G.H.Q.^.].].'._ ; X X & 9 t ( / W l s r r & * z Q o.<.F.].:X:X5X5X5X5X5X>X7X<X_ t r : # X X . . . . . . . . . X e ,XcXvXvXiXfX X1.1.y.q.y.,.2.t.t.7.! t y # . . . . . . X r n y = $ $ O $ o - u k B / +.^ z h 0 & o X . . . . . . . . . % e I >.W.Y.t.r.x.7.X.^ k > X ;                                                                                                                                                                                                                                                                                                 ",
"                                                                                                                                                                                                                                                                . . . . . . . . . . . O O $ o y f f S *.] S = . . . . . . . . . # 6 y V S V k B ^ $.$.$.$.%.%.&.&.&.&.3.3.9.h.l.5.$.+.Z u r r # . . . . . . . . . . . . . O . . . * j L Y <.>.<.<...2.G.^.XX,X:X:X:X:XXXXX'./.E X X - t q j / ! Q z h t u - & l / o.7.R.}.^.:X>X5X5X5X5X:X7X@X! q r : # $ O . . . . . . . . . X e qXcXcXcXiXfX X1.<.>.>.<.<.,.u.n.z.! u 3 # . . . . . . X 3 n d 2 $ . . . $ % 9 k B ( / +./ ( B l g y = . . . . . . . . % a U <.W.Y.t.q.w.0.$.( f & X ;                                                                                                                                                                                                                                                                                                 ",
"                                                                                                                                                                                                                                                              $ . . . . . . . . . . . . O $ = y m k B ~ r = . . . . . . . . . . # = : y n f f B ( / $._ _ X.$.%.%.&.&.&.3.h.j.h.-.$.+.Z s r > $ . X . . . . . . . . . . . . . . . * j U Y <.,.......A.J. X:X-X,X>X,X:X:X{.w.z - X % h W K K ! ! ( z k f r > % k ( _ 3.m.Y.Y.!.;X4X5X4X^.].3X`.Q q 0 9 , : o O . . . . . . . X % J tXcXcXcXfXjX^.Y j s t a a U O.o.%.l - & $ . . . . . . X 3 n d 2 . . . . X X & u Z ( ( / / / ^ W Z S g # X . . . . . . % j I <.W.W.r.q.4.3.%.W r & % *                                                                                                                                                                                                                                                                                                 ",
"                                                                                                                                                                                                                                                              $ . . . . . . . . . . . . $ # > N S S B d o . . . . . . . . . . . O $ $ = 3 r t N ~ ^ / / / X.$.%.&.&.%.o.&.8.h.h.&.$.$.S t r = X O . . . . . . . . . . . . . . . . * L I Y ,.2.2.A.J.H. X-X-X,X,X,X>X:X4X_.! X . % q E Q K I Q Q ( z h t u > & d s q e x U U <.r.Y.W.u.,.q.R.j.x q e a a 0 = = $ O . . . X o - * Y tXcXcXcXuXsXt.a & X X & * w h x l 9 & X . . . . . . . X 3 n n 2 . . . . . . . & t B W ( ( / ^ ( ~ ~ N : X . . . . . . % L ` <.Y.E.n.q.>.3.-.Z u - & 8                                                                                                                                                                                                                                                                                                 ",
"                                                                                                                                                                                                                                                              X . . . . . . . . . . . . o 3 r C [ [ N & . . . . . . . . . . . . . . . $ = - u N ~ ( ^ / _ $.%.%.&.&.%.X.X.&.8.8.%.$.$.~ t r = O O X . . . . . . . . . . . . . . . * K ) <.2.S.G. X-X,X>X>X,X,X,X>X:X].W.5.t X X 0 Q ` ) I K K P z z l s u - o > > * * w a a U ` i.Y Y Y ` O._ j e L O.O.j w 9 > > o $ & r s a w i.aXcXcXtX9X XY 8 & = $ & 9 l z B W k 0 > = . . . . . . . > n d > X . . . . . . X o 9 l B B W ^ ^ ~ S N r # . . . . . . % K O.<.Y.!.Y.q.6.5.&.l > * & *                                                                                                                                                                                                                                                                                                 ",
"                                                                                                                                                                                                                                                            # . . . . . . . . . . . . o = d k N F ' y X . . . . . . . . . . . . . . $ o & - 0 N ~ ( ^ / _ $.%.$.&.&.$.X.X.X.%.X.! / ] S d r 2 # + O . . . . . . . . . . O O . . . & h I O.y.S.G.^.:X>X>X>X>X,X>X>X:Xt.L q X . X i _ >.<.o.Q K K x z l k r - X X = 9 0 a x P ) >.<.<.<.<.) L a a L ,.Y.S.<.L i u 0 = r S f.&.Y U ..tXiXiXtXbXL.Y w 9 r 9 s Q _ ! ! ! / ( [ V = . . . . . . = g r = X . . . . . . . . X u k l l h x l N l n 3 X . . . . . % K <.,.Y.!.R.7.>.o./ s - % & *                                                                                                                                                                                                                                                                                                 ",
"                                                                                                                                                                                                                                                            O . . . . . . . . . . . X > r f S N d y o . . . . . . . . . . . . . O O $ = > 9 t B ~ ( / / $.%.&.&.&.&.$.$.X.X./ Q W W ^ B d y y = # @ O . . . . . . . . . . . . . . X 9 j Y ,.2.t.G.Q.XX:X>X,X:X:XXX{.3.w % X X ; a O.,.4.3.! x P z l l k s , X . X , t z Q ) >.w.q.t.r.x.8.j * 8 a 2.^. XQ.y.I j h 0 f B X.X.>.....bXtXtXtX-X X` a h W W ! o.o.X.! _ / / ] S : . . . . . . = r : $ X . . . . . . . . . o > 0 0 q s h f f m 4 . . . . . . ; ! >.,.F.).).N.o.I W t % & ; 8                                                                                                                                                                                                                                                                                                 ",
"                                                                                                                                                                                                                                                          $ . . . . . . . . O . . X o > f k S m o . . . . . . . . . . . . . . X O $ # 3 y k B Z W W ^ $.%.&.-.-.5.5.-.&.%.%.X./ ( W Z V d d d : # # O . . . . . . . . . . . . . . . & q P %.7.w.r.W.'.{.;X{.].}.).`.-.> X X % a ` 1.2.y.8.W e W W z l l s 4 $ . X & 0 z ! O.7.t.r.F.W.R.z.h % % a F.:X-X-XG.R J j s t 9 t j ,.T.A.L.9XeXeX-X:X,.I P ! X.>.>.>.o.) X.! P x t : O . . . . . = 4 = X $ . . . . . . . . . X o & 0 s k l k f g r X . . . . X * ) 7.y.n.}.4X_.o.K W t & % 8                                                                                                                                                                                                                                                                                                   ",
"                                                                                                                                                                                                                                                          . . . . . . . . . O O O o = r l N F V o . . . . . . . . . . . . . . $ = : > d N B Z Z Z W ( _ X.%.-.8.g.h.g.8.5.&.$.$.^ W Z V g n d : # + . . . . . . . . . . . . . . . . X , 9 t h k z P W Q ! ! ! P K z d X X X 9 o.q.2.2.y.4.x w z ( K K z l d # . X & > h ) O.,.t.S.G.G.T.x.x X X e u.^.L. XH.1.R ` Q B N l x O.Y.G. X,X9XqXqX>Xq.I L L I o.3.3.o.X.X.! W h 0 > $ . . . . . # r : $ $ O . . . . . . . . . . o 3 r s C V N g 4 O . . . . X 8 o.q.t.Y.}.4X+Xz.%.] k % % w                                                                                                                                                                                                                                                                                                   ",
"                                                                                                                                                                                                                                                        O . . . . . . . . . O O o r d k Z C N 4 X . . . . . . . . . . . . . O : 4 d g N Z S ~ W Z W / $.X.X.-.h.h.9.9.8.3.&.$./ ^ W ~ C g N y # # O . . . . . . . . . . . . . O $ X X X X . . . . . . . . . . . . X . . X X w O.2.2.2.q.3.j w x ( P P ( ( B = . . & 9 h ) O.,.2.S.G.G.W.x.x X X & J Y 1.H. X^.^.~.x.o.( x e a Y <.A.L.L.L.L.G.Y I L L Y 6.4.3.%.%.X._ ! W z 3 $ . . . . . = r 3 o $ $ O . . . . . . . . . . X & > N D N n 6 X . . . . X w o.w.r.Y.R.Y.m.c.g.*.k % % q                                                                                                                                                                                                                                                                                                   ",
"                                                                                                                                                                                                                                                        . . . . . . . . . . O # 4 g N V S V r o . . . . . . . . . . . . . O # : d m N D S ~ ( ( ( Q / $.$.X.5.9.h.9.9.8.3.&.X./ / ^ ~ l r y 2 # # O . . . . . . . . . . . . . $ # = o o X . . . . . . . . . . . . O O X X % a ,.2.2.2.q.6.x w x Q I Q / ^ B & . . = > h ! ` <.2.1.S.H.T.r.x . . X % w ` T.^. XXXXXW.<.I L e w i H R J.L.L.J.2.Y Y U Y <.e.e.6.3.o.) ` ` Q B r . . . . . X 2 y 3 # # # O . . . . . . . . . . . . = y n 4 2 # . . . . . X w o.w.u.E.E.n.9.&.$.Z > X *                                                                                                                                                                                                                                                                                                     ",
"                                                                                                                                                                                                                                                      . . . . . . . . . O O # 2 d N C C S N = . . . . . . . . . . . . . . $ : 4 g C D Z ^ ^ / / ! / X.%.%.o.3.8.9.0.0.9.3.%._ / / / ^ s , : # O O X . . . . . . . . . . . . . o r t t r > o O $ O . $ = : = = $ O O O O X * L 2.2.2.1.y.4.x w P X._ ) _ ( t X . O : > e P I <.1.1.A.H.T.u.K X O . . X * x Y 1.Q.G.S.A.W.x.O.e p p R XX-X-X XG.t.<.Y i.1.T.F.,.>.<.<.<.<.) K r . . . . . X r y r : = # O . . . . . . . . . . . . O + # X . . . . . . X X w >.e.F.!.).R.j.! z 9 X X 9                                                                                                                                                                                                                                                                                                     ",
"                                                                                                                                                                                                                                                      . . . . . . . . . . O = d g V V N N r . . . . . . . . . . . . . . . $ > r g Z Z ~ / X._ _ / ! _ %.%.o.&.3.3.3.0.9.9.3.X._ $.$./ s , : # O X . . . . . . . . . . . . . . & f B W / z 0 > 9 > > f B B N f 3 = $ # O % w U 2.1.2.1.y.4.j w W &.%._ Q W t X . X = - e ! Y <.1.2.S.Q.Q.u.P o O . . . . X % J T.:X:XXX:X'.t.T e e T G.L.H.H.G.F.t.1...2.^.Q.t.,.<.q.F.r.>.! t . . . . . $ y d y 4 = $ . . . . . . . . . . . . . . . . . . . . . . . X X w 6.r.F.E.).R.5.W k - . X 9                                                                                                                                                                                                                                                                                                     ",
"                                                                                                                                                                                                                                                    $ . . . . . . . . . . $ = d N V V N r & . . . . . . . . . . . . . . . # > r l Z W ( / X.X.X.) ! _ %.o.o.o.3.3.3.0.9.9.8.3.%.$.$./ q , > : X X . . . . . . . . . . . . . . = k Q _ ) L e w w w e x E j h i 0 > = = = % w I 1.1.2.2.2.6.j w P &.5._ ! E i X . . # & i ! ` <.1.1.S.Q.Q.F.! X . . . . . . X 9 ` r.r.S.T.Q.T.S.S.t.S.H.H.J.A.A.F.F.F.A.J.,X:XG.1...G. X^.q.3.h . . . . . X y n y y = O . . . . . . . . . . . . . . . . . . . . . . . X % e 4.n.Y.E.).M.X.x s = . X >                                                                                                                                                                                                                                                                                                     ",
"                                                                                                                                                                                                                                                    . . . . . . . . . . X = 4 g V V N r X . . . . . . . . . . . . . . X X = 4 d B ^ / X.X.%.%.o.X.X.X.&.%.o.o.3.3.3.0.9.h.h.9.3.&.$.( s r d : X X X . . . . . . . . . . . . . X i ) ` ` Y T I ` ` ` ` ) L L j h 0 > > > > e Y 1.1.1.1.q.3.j 8 P &.3._ ) W t X . . # & t ! ` <.2.2.S.Q.Q.W.) X . . . . . . . X % * 8 e q.T.].;X4X:X:X XH.A.A.A.A.G.H.J.L.>X>XH.1...G.,X:Xr.7.k X . . . . X 4 f d y 2 $ . . . . . . . . . . . . . . . . . . . . . . . X * e 4.u.E.}.}.z.I h t & . . -                                                                                                                                                                                                                                                                                                     ",
"                                                                                                                                                                                                                                                  O . . . . . . . . . O o 2 y N V V r o . . . . . . . . . . . . . . . O $ 2 d g Z +.$.$.o.%.&.&.&.&.%.&.3.3.o.3.3.3.8.9.9.9.8.5.5.%.! Z l f > X X . . . . . . . . . . . . . . X w ) <.<.,.y.t.r.r.Y.Y.q.,.6.>.%./ h s t q j ` 1.1.1.1.q.4.j 8 P &.&.) ) W h X . O # & t ! ` <.2.2.A.H.^.~.! X . . . . . . . . X X X 8 j I <.1.2.S.J.H.H.J.H.L. X XH.H.L.>X,XH.1...A.,X:Xt.7.l X . . . . X 3 y y y r = O . . . . . . . . . . . . . . . . . . . . . . % 8 a 7.Y.~.{.[.z.K i t # . . %                                                                                                                                                                                                                                                                                                     ",
"                                                                                                                                                                                                                                                  . . . . . . . . . O O = r g N C N > . . . . . . . . . . . . . . . . O # 5 m N D +.$.:.%.&.8.8.8.8.5.5.8.8.8.9.9.9.w.j.9.8.3.3.&.&.$./ / S r X X . . . . . . . . . . . . . . X w I ` R <.1.2.t.S.S.S.S.S.S.Y.x.5.W k t e L Y 1.1.1.2.t.7.x w P &.o.Q Q W h & . O # o w I ` ,.2.2.S.H.^.~.) X O . . . O . = = $ . X o & * 8 w J 2.T. X:X:X,X>X>X,X X X X,X,XH.A...A.-X Xt.7.z X . . . . X 3 d y y r 2 $ . . . . . . . . . . . . . . . . . . . . . . % j o.R.'.}.'.).h.P s t = . . %                                                                                                                                                                                                                                                                                                     ",
"                                                                                                                                                                                                                                                # . . . . . . . . . $ o > y g g N m 2 . . . . . . . . . . . . . . . . + 2 n A D S +.+.-.-.8.g.h.l.g.-.&.&.&.-.5.8.j.m.m.8.%.%.o.o.&.&.%.$.+.g o X . . . . . . . . . . . . . . X * L I Y <.<.2.S.S.S.S.A.2.t.r.w.>.K e e a J Y 1.1.2.2.t.0.x w Q &.X.I W l t : . X O X w P ` ,.2.A.G.H.Q.T.! X . . O 4 4 = > > > = o X $ X % 8 K 3.r.W.T.H.H.^. X X X X-X-X,X XH.A.A. X^.q.&.l . . . . . X > f d r r 2 $ . . . . . . . . . . . . . . . . . . . . . . - Q z.}.].'.E.R.8.z 0 > # . X %                                                                                                                                                                                                                                                                                                     ",
"                                                                                                                                                                                                                                                O . . . . . . . . . o > y n g g m f = . . . . . . . . . . . . . . . . O # d m d g N Z ^ ^ ] ] ^ ^ ( W z z z z x z ! h.l.! j c P ! X.&.=.=.d.N $ X . . . . . . . . . . . . . . . * e J Y R <.2.S.S.A.1.1...1.1.,.>.L e e a L Y <.1.1.2.t.9.z w P %.X.I P h t : X O O X 9 K ) ,.2.A.G.Q.^.W.! X . . # y n t * u N ' d = = $ o o % & & * * w J ,.~.:X:X,X-X-X,X XH.2...G.~.7._ t . . . . . X 3 n d r r 2 $ . . . . . . . . . . . . . . . . . . . . . . 9 _ R.{.'.E.R./.l.l > = $ . X                                                                                                                                                                                                                                                                                                       ",
"                                                                                                                                                                                                                                              X . . . . . . . . . X : r N N n d f 4 X . . . . . . . . . . . . . . . . . O # o o o & > > > > : = % % & > 0 0 0 t q x +.+.l w w j P ^ / / @.@.m $ O . . . . . . . . . . . . . . . ; e J U Y ..1.t.A.2.2.2.1.1.1.1.,.I e e j I ` <.1.1.2.t.w.x w P %.o.! P k u & X O O X w K Y <.2.A.G.Q.Q.Y.I X . . . = n N s l ^ *.[ m y 2 = = $ . . . . . & q L Y <.S.^.XX:X^.G.2.2.G.Y.O.P , . . . . . X r n d r r : . . . . . . . . . . . . . . . . . . . . . . X 0 3.E.].'.E.R./.g.h > o X . X                                                                                                                                                                                                                                                                                                       ",
"                                                                                                                                                                                                                                            O . . . . . . . . . O : r d N N N y 2 o X . . . . . . . . . . . . . . . . . . X X X o X o $ $ $ O X . . o * 9 9 w q w w 0 q 9 * , t x k s r d n 2 . . . . . . . . . . . . . . . . . % i L U Y <.1.t.S.A.S.A.A.A.2.2.q.) e e L ) <.1.2.1.2.t.7.x 8 K %.o.) W l u X . . . X 9 Q ) <.2.A.G.Q.Q.F.! % . . . O = s l l ~ ] ^ ~ S m n n n 2 $ . . . . . X % w Y t.F.T.T.T.Q.Q.Y.,.! B > . . . . . $ y N d r > o . . . . . . . . . . . . . . . . . . . . . . X i 9.E.~.~.E.W.B.%.0 = $ X X X                                                                                                                                                                                                                                                                                                       ",
"                                                                                                                                                                                                                                          $ . . . . . . . . . . $ 3 d f n n N 4 o X . . . . . . . . . . . . . . . . . . . & 9 k B t > = # $ O X . X 0 x j a J J J e e e w w w q h 0 * & = = + . . . . . . . . . . . . . . . . . % i j L U R 2.S.S.S.S.S.S.S.2.t.q.o.j e L ` ,.1.2.2.2.t.7.j ; x $.X.) Q z t X . . . X 0 _ o.<.1.A.G.Q.T.S.) ; . . . $ : d k l ^ ^ W ~ ~ B S ' *.[ y & $ . . . . . X ; 8 8 e J Y q.,.Y J W S 2 . . . . . $ y V d > & X X X . . . . . . . . . . . . . . . . . . . . X e w.E.T.~.T.Y.c./ > o $ X X %                                                                                                                                                                                                                                                                                                       ",
"                                                                                                                                                                                                                                          O . . . . . . . . . . o r m n g r > o . . . . . . . . . . . . . . . . . . . . X * e ` _ e 8 * % % X X ; 8 a Y <.<.1.1...R Y Y Y Y Y U K h - & o O . . . . . . . . . . . . . . . . . . & t j L L Y y.S.F.G.G.G.S.S.t.t.e.3.K e L ` ,.t.2.A.2.t.4.h % q ! _ ) Q W s o . . . X q X.>.,.1.2.G.Q.T.Y.o.* X . . : m V Z Z / ] W W B ~ ~ ] =.*.Z s & X . . . . . . . . X X w %.&.L q B [ n . . . . . $ y N s > & X X # o O . . . . . . . . . . . . . . . . . . X i w.Y.G.T.T.n.h.W - O O . X 9                                                                                                                                                                                                                                                                                                       ",
"                                                                                                                                                                                                                                        $ . . . . . . . . O # : 4 g n n f : X . . . . . . . . . . . . . . . . . . . . . X 8 ` W.W.| J e j L K L L T y.Q.XX>XqX0X-X.X XL.H.H.G.S.7.Q h w & $ . . . . . . . . . . . . . . . . . . o 9 9 q a Y q.x.Y.E.E.T.Y.Y.r.r.z.9.! L L ` ,.t.S.S.S.t.w.x % 9 E _ ) ! W k o O . . X 9 ) >.,.1.t.H.Q.Q.Y.o.9 X X X 2 g Z ^ +.+.+.( Z W ^ ^ $.-.$.^ ^ Z > . O . . . . . . . . o f N r & y A b . . . . . $ r k d > & X $ > : $ . . . . . . . . . . . . . . . . . . % K x.F.F.T.~.}.B.Z & . . . &                                                                                                                                                                                                                                                                                                         ",
"                                                                                                                                                                                                                                      . . . . . . . . . X = b n f g d f d # X . . . . . . . . . . . . . . . . . . . . . X e W.pXpX>XQ.S.t.S.S.S.S.S.^.0XaXlXjXjXlXlXaXqX0X-XXXXX^.y.T J q - % % . . . . . . . . . . . . . . . . X o & % * w j K I ) ) ) ) ) ) ! ! ) K J L Y ,.2.2.S.G.T.M.x % 9 x ! ) Q W f o O . . X 0 X.o.<.,.2.S.G.G.S.o.9 $ X X > g D +.+.$.$.( B W ( $.-.k.-.$.-.=.l = $ O . . . . . . . . . X X X # 3 1 . . . . . o r s d r & X o 2 2 $ . . . . . . . . . . . . . . . . . X ; _ E.T.T.].4X6X2X~ X . . . X                                                                                                                                                                                                                                                                                                         ",
"                                                                                                                                                                                                                                      . . . . . . . . X $ 4 V n t y r d 6 O . . . . . . . . . . . . . . . . . . . . . . X e Q.0XpX0X.XD.A.D.D.H.D.J..XwXdXlXgXkXkXgXzXqX0X>X-X.XH.A.1.,.<.o.Q e % . . . . . . . . . . . . . . . . . X X X X % % & ; * 9 w , 9 9 w e a J J R 1.2.2.A.Q.~.M.k X * h W Q Q W s $ . . . X , P U Y <.......1.y._ 9 X . . 3 S ] +.+.$.;.^ Z W / ;.h.B.m.k.k.V.-.C : O . . . . . . . . . . . X - - 2 + . . . . o > 0 r r > o = > 4 # X . . . . . . . . . . . . . . . . X * >.'.~.^.4X6XVX2XB X O . . X                                                                                                                                                                                                                                                                                                         ",
"                                                                                                                                                                                                                                    X . . . . . . O O $ 2 F V d r r y 4 # . . . . . . . . . . . . . . . . . . . . . . . % H D..X0X0X.XK.I.I.D.D.I.K.9XlXgXgXkXkXkXgXwX0X0X.X.X-X-X0XsXAXSXAXCXx.w . . . . . . . . . . . . . . . . . . . . X o & = > > 3 r 0 0 q q j I I Y <.2.S.A.A.^.'.M.t X & q x z z B r $ O . . . o 9 e I O.,.,.1.,.4._ u = . X r +.+.$.+.^ ^ ~ B W _ 5.m.`.(.B.B.B.h.] d : o . . . . . . . . X t W / +.] > . . . . o > 9 r r > & > r 3 # X O . . . . . . . . . . . . . . . X w 4.'.;X;X;X].@X+Xl . X . . X                                                                                                                                                                                                                                                                                                         ",
"                                                                                                                                                                                                                                    . . . . . . . $ $ # y [ S d 4 4 2 # O . . . . . . . . . . . . . . . . . . . . . . . % H D..X%X9X9X.XL. X XL.P..XzXlXgXgXkXkXkXgXdXwX0X.X.X9XwXjXSXSXSXSXSXQ.e & . . . . . . . . . . . . . . . O O O $ $ = = > 3 r r r r r s x ! ` O.<.1.t.G.G.G.^.}.M.0 X o 0 s h h s : O O . . . . & > h W Q I I L Q l r = $ o k @.=.=./ W W W E W %.j.B.`.`.`.`.`.m.-.Z r 2 $ . . . . . . . 0 5.R.)._.M.x & . . . o > > 0 0 , > r r > o X O . . . . . . . . . . . . . . . X L n.].:X:X^.W.R.m.h X O X . X                                                                                                                                                                                                                                                                                                         ",
"                                                                                                                                                                                                                                  . . . . . . . . $ = : y C f r 3 2 = O . . . . . . . . . . . . . . . . . . . . . . . . X H D..X.X%X9X9X.X.X.X.X9XwXlXgXgXgXkXkXkXkXlXzX0X.XP.P.wXfXxXSXSXSXSX:Xy.E X . . . . . . . . . . . . . . $ # # o & > u u r d s r r t l W ) ` <.<.1.2.T.^.Q.^.'.x.0 X $ > t u 9 > o O O . . . . . . X X X % % % % - & o $ & k +.-.d.+.~ W B B W %.j.M.).).[.[.`.B.k.^ g d : $ X . . . . . r j.~.^.:X4X0.j & . X & > > 0 0 0 u d r = $ $ X . . . . . . . . . . . . . . . % _ '.;X:X:X].Y.N.&., X X X X %                                                                                                                                                                                                                                                                                                         ",
"                                                                                                                                                                                                                                . . . . . . . . X o 4 y d f r 4 6 2 # . . . . . . . . . . . . . . . . . . . . . . . . . X H Q.0X%X9X0X0X-X.X.X-X0XzXlXgXgXgXkXgXgXkXkXlX0X.XK.K.eXfXkXxXxXSXSXpXT._ o . . . . . . . . . . . . . . $ = > & > t l k k B l l h h x ! ) ` ` <.1.2.G.^.^.^.^.e.> . $ : r - & $ O O . . . . . . . . . . . . . . . . X o * s ^ +.$.+.( W B z W X.h.B.(.)._._.`.`.m./ l n m 2 $ . . . . . 9 8.].:X>X5X3Xz.Z & X X - > 9 0 0 u d u & $ X X . . . . . . . . . . . . . . . * 4.{.;X:X:X^.Y.z.! * X X = r                                                                                                                                                                                                                                                                                                           ",
"                                                                                                                                                                                                                                . . . . . . X o = > r d n d y 4 6 2 $ . . . . . . . . . . . . . . . . . . . . . . . . . X J oX0X9XeXwXpX0X.X.X-X0XwXlXgXgXgXgXgXgXgXkXlX0X.XI.I.%XdXhXkXkXxXkXpXW.Q X . . . . . . . . . . . . . . # 2 r t t h z z z W W W z j K ) ` ` ` <.1.2.G.Q.^. X^.e.> . . # = $ O O O O . . . . . . . . . . . . . . . . X 3 f z W ( / / ( W W W ( %.j.B.).`.[.[.[.[.B.-.~ V S d # O . . X X & O.].>X>XpX5X}.8.r X X = > > 0 0 0 r > o $ X X . . . . . . . . . . . . . . . * 9.{.;X:X:X~.n.z.! * X X : C                                                                                                                                                                                                                                                                                                           ",
"                                                                                                                                                                                                                              . . . . . . X > d d g N g d r 4 6 2 # O . . . . . . . . . . . . . . . . . . . . . . . . . % J  X9X9XwXwXaX0XK.K.-X9XqXlXgXgXgXgXgXgXlXjXlX0X.XI.I.%XzXgXkXkXSXSXqXE.Q o . . . . . . . . . . . . . . = 4 m S B k z W P P P P P L I ) O.` ` <.<.1.S.Q.^. X^.9.- . . X O . . O O . . . . . . . . . . . . . . . . . o g ~ $.$./ / / W Z ~ ( ( X.j.B.).).[.{.*X[.R.j.:.^ S n 6 # O O O X % L Q.>X>XpX5X{.c.h . . o = > r 0 , > = o $ $ X . . . . . . . . . . . . . . X q x.'.].XX].F.e.z.( % X X : N                                                                                                                                                                                                                                                                                                           ",
"                                                                                                                                                                                                                            X . . . . . . = m S N N k t r 4 3 2 # O . . . . . . . . . . . . . . . . . O O . . . . . . . % J K.%X9XwXzXdX0XK.J.K.P.9XlXgXgXgXgXgXlXlXlXpX>XK.I.I.9XzXgXkXkXkXSX>Xr.K o . . . . . . . . . . . . . . = r m B B h x P P P I I ` ` ` ` O.O.Y R <.1.S.Q.^.L.~.0.& . . . . . . O O . . . . . . . . . . . . . . . . . & C $.-.-.;.&.$.W z ~ ] ^ %.j.M./.).[.@X<X[.).N.8.^ C f n 6 # O X X % e F. X>XpX5X{.x.h . X X o > r r > = = & $ $ O . . . . . . . . . . . . . . X h n.E.^.XX^.t.7.9.W % . X = r                                                                                                                                                                                                                                                                                                           ",
"                                                                                                                                                                                                                            . . . . . . X r S ~ B f t u 3 3 : = # O . . . . . . . . . . . . . . . . O O O . . . . . . . % J H.9XeXwXwXaX0XJ.D.J.K.9XlXgXgXgXgXgXlXdXwXK.A.A...I.eXdXgXkXkXSXAX^.` u . . . . . . . . . . . . . . O = 3 r t s h h z P P ! >.e.w.4.<.O.O.` ` <.1.S.Q.^. X~.o.$ . . . . . O . . . . . . . . . . . . . . . . . . X & Z ;.5.5.5.5.%.W l ( $.$.5.j.m./._.[.<X<X*X[.(.h.$.S V S y # O O O X i Y.:X>XqX5XXXw.j X . . $ > r r > : = # $ $ O O . . . . . . . . . . . . . X h R.E.~.;X'.q.4.8.W & X $ > r                                                                                                                                                                                                                                                                                                           ",
"                                                                                                                                                                                                                          2 O . . . . X 3 N ~ ~ B t r r 3 = # # O . . . . . . . . . . . . . . . . . O O O . . . . . . . % H H.9XeXeXeX9X.XD.D.J.K.0XlXgXgXgXgXgXgXlXpXA.T T T I.wXdXgXkXkXSXsXS.L - . . . . . . . . . . . . . . . # : > 9 t s h k z x P ) 3.4.>.` ` ) ` ` R <.t.H.^.^.^.&.o . . . . . O . . . . . . O . . . . . . . . . . . . , Q &.5.5.8.5.$.W j ( $.;.8.j.M.R.).}.<X*X{.[.).m.8.] ~ S y > = $ X X q q.].>X,X,XXXr.I > X . X = > r r > = o o $ O O . . . . . . . . . . . . . X K ).E.~.;X{.e.3.h.~ & . $ 3                                                                                                                                                                                                                                                                                                             ",
"                                                                                                                                                                                                                          # $ . . . X d [ ' ^ ~ B t r 3 3 # O O O . . . . . . . . . . . . . . . X . O O . . . . . . . . X H H.%X9X%X%X.XK.D.D.J.K.0XjXkXgXgXgXgXlXlXqX..e H H A.zXdXgXgXlXlX0X,.e & . . . . . . . . . . . . . . . $ o $ = > u u t e a e a j L L L L L I Y Y R 1.S.T.^.'.5.o . . . . . O O O . . . O O O X O . . . . . . . . & j X.&.5.8.8.5.%.Q z W $.5.8.z.N.R.R.}.<X{.*X*X)./.c.&.{ ^ N g y = X X 9 Y F. XL.L.XX'.m.c X . . o = > > > : = o $ $ X . . . . . . . . . . . . . X ! ).Y.Q.;X{.r.3.-.l o . o >                                                                                                                                                                                                                                                                                                             ",
"                                                                                                                                                                                                                        X X X . . X r [ @.@.^ ~ B t 9 3 = O O . . . . . . . . . . . . . . . O O . O O O . . . . . . . . X e D.P.9X%X.X.XK.D.D.J.K.9XlXkXgXgXgXgXdXzX-XR e e H A.dXgXgXdXzXpX>X` * . . . . . . . . . . . . . . . . . . . . o & > u t 0 q s s h x x j j K I I ) <.q.Y.E.M./ $ . . . . . O . O O O O O O O O O . . . . . . . X q ! &.3.8.h.8.5.&./ W ( $.&.8.j.n.N.R.).}.{.<X<X[./.B.l.;.$.^ ' S r & : 9 e Y G.H. X X].R.( X . . X = > > , : & $ $ $ X . . . . . . . . . . . . X % _ E.F.G.].).7.X.h - X X o >                                                                                                                                                                                                                                                                                                             ",
"                                                                                                                                                                                                                        . . . . . X d B B ~ Z ~ B t 3 = = O . . . . . . . . . . . O . . O O O O O O O O O . . . . . . . X w R K.0X9X%X.XoXD.D.D.K..XlXkXkXkXgXgXdXpX XY e e H A.dXgXdXyXwX-XXXY % . . . . . . . . . . . . . . . . . . . . . X o = = % = = = : > > - - 9 0 0 9 w i j j h > . . . . . . O O O O O O O O O O $ O O O . . . . & W &.3.3.8.9.8.5.&./ x ( $.&.8.j.n.N.R.!.).'.[.[.[.)./.c.8.-.=.$.+.t & > > 9 J S.^. X X^.E.X.o . . X & = > > : & $ $ O X X . . . . . . . . . . . X 0 3.R.F.F.~.Y.>.! w & X o % *                                                                                                                                                                                                                                                                                                             ",
"                                                                                                                                                                                                                      $ . . . . X = r 9 t l l N C k 3 # $ . . . . . . . . . . . . O . . O O O O O . O O O . . . . . . . . 8 T H.%X9X9X%XoXD.A.I.J.P.dXkXkXkXgXgXdXqX XY e e H A.dXlXdXwX0X XT.I % . . . . . . . . . . . . . . . . . . . . . . . . . . . . . . . . . . . . . . . X X . . . . . . . . . O O O O O O O O # = = # # O O = r r l $.&.3.8.0.9.5.5.;.( h W { &.5.9.z.N.R.E.!.!.(.).)././.M.h.8.-.-.;.Z 0 0 & & e q.^. X X X}.&.& . X X X & : : : = $ $ O X X . . . . . . . . . . . % K 9.n.F.F.~.Y.>.! 9 & & - 9                                                                                                                                                                                                                                                                                                               ",
"                                                                                                                                                                                                                    + O . . . O o > r - t l B S k r = . . . . . . O . . . . . . . . . . . . . O O O . . O . . O . . . . . % H A.K.P.9X0X.XD.A.I.J.P.aXlXgXkXkXgXdX0XQ.J p H T J.zXdXdXwX9X XY.Q % . . . . . . . . . . . . . . . . . . . . . . . . . . . . . . . . . . . . . . . . . . . . . . . O O O O $ $ O $ $ $ $ 2 y y 6 # $ $ 2 C B ^ ;.3.3.0.9.9.5.&.;./ e z _ &.5.h.z.M.R.R.R.E.R.W.R./.(.B.j.h.h.8.;.^ t > & X * ` Q. X X X].j., . . X X o : , : & o $ $ O X . . . . . . . . . . . & ! z.r.t.F.'.Y.o.! * % % > l                                                                                                                                                                                                                                                                                                               ",
"                                                                                                                                                                                                                    O . . . O # 2 r t 9 0 t B ~ m > $ . . . . . . O O O . . . . . . . . . . . O O . . . O . . O . . . . . X 8 T R I.0X0X.XJ.I.I.D.K.pXlXkXkXkXgXzX0XoXT p J 2..XzXdXdXwX.XD.,.K X . . . . . . . . . . . . . . . . . . . . . . . . . . . . . . . . . . . . . . . . . . . . . . . O $ $ $ $ $ $ $ o & = d N d 2 # X $ r V ~ ] &.3.3.8.9.9.5.%.;.^ i z { &.8.z.m.R.(.E.!.!.W.W.E.R.R.R.z.h.9.8.&.! q % X X % J S.Q.Q.^.'.m.t X . . X o : > : o o $ O O X . . . . . . . . . . . % Q z.q.2.F.}.n.) z & X X 9                                                                                                                                                                                                                                                                                                                 ",
"                                                                                                                                                                                                                  . . . . . $ > 3 r t t t u f m y = O . . . . . . O . O . . . . . . . . . O . O O O . . . . O O . . . . . . % w T S.>X.XoXH.I.I.I.K.pXkXSXSXSXlXzX0XoXR H T A.9XwXdXdX0X X1.L 9 . . . . . . . . . . . . . . . . . . . . O . . . . . . . . . . . . . . . . . . . . . . O O $ $ $ $ o X X % X % & * * u l k 4 = $ X = d S ^ ^ $.&.5.8.8.h.g.$.^ ~ k B X.3.8.m.M./.).).).!.E.W.R.R.W.M.z.0.8.8.8.$./ 9 X & % i q.T.Q.^.~.R.z . . . X o : : : o o $ O O X . . . . . . . . . . . % I e.q.1.F.}.N.Q h X X X 9                                                                                                                                                                                                                                                                                                                 ",
"                                                                                                                                                                                                                  . . . . . = 4 4 r t f k t t r > $ O . . . . . . . O O O O O O O O . . O O . . O O O . O . . . . . . . . . . % w w.XXoXoXoXD.D.I.D..XlXlXkXlXlXzX0X XT H R I..XeXwXpXoXS.` q o . . . . . . . . . . . . O . . O O O O O O O O O O O O O O + O . . . . . . . . . . O O # # # # o & * * * * * 8 w w i E ~ N - $ $ X > C ' ] ^ $.&.5.5.h.g.l.] B B h W $.5.9.m.R./.).).).).).E.E.R.M.n.z.9.9.8.8.5.-.Z * X % w Y F.Q.Q.~.R.%.& . . X $ : > : o o $ $ O X X . . . . . . . . . X * I x.t.1.T.}.z.Q h X X X -                                                                                                                                                                                                                                                                                                                 ",
"                                                                                                                                                                                                                O . O X . = y y d f f s s d u > = $ . . . . . . . . . . . O . . O O O O O O O . O O . . . . . . . . . . . . . . ; i Y <.Q.oXQ.K.K.K.K.P.P.%X9X%X%X%XoX..T R D.K..X.XoX1.L w . . . . . . . . . . . . . . O O O O O O O O O O O O O O O O # # # O . . . . . . . . + # # # # = = > 9 h W Q W W Q ! _ ! $.] N & X X o > B ] $./ $.;.;.$.-.-.f.~ 9 s h ( $.8.j.M.).).'.}.}.[.<X[.).).R.W.N.z.z.9.j.j.h.=.k X X X w <.G.Q.T.E.h.9 . . X $ # : : : # o $ O X X . . . . . . . . . % e 6.'.~.G.!.'.9.W k X . X -                                                                                                                                                                                                                                                                                                                 ",
"                                                                                                                                                                                                                . . O O # y n m m m f 9 - > = > = O . . . . . . . . . . . O O O O O O O O O O O O O O O . . . . . . . . . . . . X % 8 J 1.S.D.D.K.K.K.K.K.P..X.X.X.XoXD.R A.D.H.H.S.q.L ; X . . . . . . . . . . . . O . O O O O O O O O O O O O O O O O # # # O O . . . . . . . # # # # = 3 9 k ~ / _ ) ) o.3.4.3.&.;.+.f & X o - t B ] $.$.;.=.$.( ^ ] ] f & t l ( $.8.n.R._.[.{.*X<X<X<X@X'.).E.R.R.M.m.z.z.z.h.g.[ o X X 8 ` F.G.T.E.z.h . . O O # : 2 2 # # O O O O . . . . . . . . . ; j w.{.;X].].'.0.W N o . X -                                                                                                                                                                                                                                                                                                                 ",
"                                                                                                                                                                                                              O . . O o > N S V C k u - % = # # $ . . . . . . . . . O . . O O O O O O O O O O O O O O O O . . . . . . . . . . . . X % 8 L Y <.A.D.D.K.K.K.K..X.XP.K.K.D.A.1.A.1.Y L w * . . . . . . . . . . . . O O . . . . O O # # + O O O O O O O O O # # # O O . . . . . . . $ # = = > 9 0 Z d.g.5._ ` >.4.4.4.3.;.~ 3 o X X t Z Z ^ ] { $.$.^ k k k t > - s Z / $.8.B._.[.<X<X<X3X<X3X<X}.'.!.).).(.M.z.z.z.j.g.] > $ o ; ) r.r.S.Y.z.W o X O O # : 2 : # # O O O O O O . . . . . . X 9 I w.{.3X;X*X}.9.( N o . X >                                                                                                                                                                                                                                                                                                                 ",
"                                                                                                                                                                                                            O . . . # > > f V V N t - & = r = $ . . . . . . O O O O O O O O O O O O O O O O O O O O O O O . . . . . . . . . . . . . . % ; w J <.1.D.D.D.D.D.K.K.D.D.D.D.S.S.y.` 8 % . . . . O . . . . . . . . . O O O O O O O O $ $ $ # O # # # # # # O O O O . . . . . . . . # # = # = r f k W =.g.5.>.>.4.7.7.3.%.^ f o X o > V ] ] ^ ] ] / $.^ t u > % > u k ~ / -.j.(.[.@X<X<X3X3X3X3X3X*X{.}.}.[.'.R.M.z.j.j.g.*.k o X % L q.Y.F.S.w.! & . . O # : 6 2 # # $ O O O O O . . . . . . X h ` q.~.~.~.~.R.8.l r $ . X -                                                                                                                                                                                                                                                                                                                 ",
"                                                                                                                                                                                                            X . . X r n f N V N t > o X : y = O . . . . . . O O . . . O O O O O O O O O O O O O O O O O O . . . . . . . . . . . . . . X X % * w w J Y <.y.1.1.1.1.y.q.y.6.6.6.x % . . . . . . . . . . . . . . . O O O O O O O O # # # # # # # # # # # # O O . . . . . . . O O # : 2 = r t B W K ! _ o.6.4.7.7.7.) W k = $ X > V S +.$.+.] ] / ] ] k > - & > s l ~ $.h.M.`.[.[.}.{.<X<X*X;X3X3X*X*X{.{.}.(./.m.9.8.&.=.~ = X X 8 O.n.F.S.r.%.> . . X # : 2 2 = # $ $ O X O O . . . . . . X x ) 7.W.u.2.t.e.) * X . . X 9                                                                                                                                                                                                                                                                                                                 ",
"                                                                                                                                                                                                          o X X X > B ' V S N t > = X . : 6 # . . . . . . . O O . O O O O O O O O O O O O O O O O O O O O . . . . . . . . . . . . . . . . . . . . X % * w w p w p w w w 8 8 8 = . . . . . . . . . . . . . . . . O O O O O O O O # # # # # # # # # # 1 # O O . . . . . . O O $ # = 2 r B ~ ( / P K I ` >.7.q.9.9.j 9 - . O X 3 V B ^ ] ] ^ ^ ~ ~ ~ f - % = > l Z +.-.j.M.R.R.R.W.E.'.'.}.{.;X3X;X;X3X<X{.}.(.x.4.3.%.$.@.n 3 & % K w.t.F.t.6.t . . O $ : 2 = 1 # $ $ O X O O . . . . . . & Q o.q.F.2.2.2.e.Q % . . . X -                                                                                                                                                                                                                                                                                                                 ",
"                                                                                                                                                                                                          o X X & t ~ *.^ ~ l u - = o o = = O . . . . . . . O O . O O O O O O O O O O O O O O O O O O O O O . . . . . . . . . . . . . . . . . . . . . . . X X X . . . . . . . . . . . . . . . . . . . . . . . . O O O O @ O O # # # # # # # # # # # 7 # O O O . . . . O # # # # 2 r n ' { { _ ! I I O.4.7.w.9.-.t X X . . . 3 B B ^ ^ ^ ^ ^ ~ l k u 9 % > 0 Z / d.h.j.M.M.M.N.n.W.E.).'.}.*X;X;X;X3X3X<X@X_.R.9.3.%.$.] V 3 o X q >.t.t.t.7.B X . O $ = : # # # # $ O X O O . . . . . . - &.9.q.F.t.F.W.`.$.& . . . X                                                                                                                                                                                                                                                                                                                   ",
"                                                                                                                                                                                                        $ . . X t ( $.$.] ~ k t 3 > # # # O . . . . . . . . O O O O O O O O O O O O O O O O O O O O $ O O O . . . . . . . . . . . . . . . . . . . . . . . . . . . . . . . . . . . . . . . . . . . . . . . . . O O O O @ @ # # # # # # # # # # # # # # # O O . . . . . O # # = = 3 f N B Q Q _ _ ) o.>.4.7.e.&.] > X . . . = t B Z ~ / ^ ^ ] ~ k 9 & 9 r 9 k / =.g.j.z.M.B.R.R.E.E.).'.}.}.{.*X;X;X;X3X@X[.}.).M.4.&.;.*.V = . X q 3.r.2.1.4.] = . X $ = = # # $ # $ O O O X . . . . . X 0 j.N.y.2.2.F.[.1X-.& . . . X                                                                                                                                                                                                                                                                                                                   ",
"                                                                                                                                                                                                      $ . . X * B ;.-.;.] S f r 4 3 # # O . . . . . . . O . . . O O O O O O O O O O O O O O O + + $ + O O . . . . . . . . . . . . . . . . . . . . . . . . . . . . . . . . . . . . . . . . . . . . . . . . O O O O O @ @ # # # # # # # 7 7 7 7 # 7 # # # # O O . . O O $ = 1 1 6 y t C h a K _ _ o.6.4.7.7.9.( t & . . . = f B ~ ^ ~ ^ ^ ^ ] S t > , t k l W ;.g.h.z.z.M.B./.R.).).).'.}.}.{.*X;X;X3X4X3X{.}._./.j.5.&.d.' y $ X q 3.x.t.t.w._ = . X $ = : = # $ # $ O O . . . . . . X X t m.N.,.1.2.W.<X2Xg.& . . X %                                                                                                                                                                                                                                                                                                                   ",
"                                                                                                                                                                                                    = X . o d f Z $.$.$.] B r > > = $ O O . . . . . . . O O . . O O O O O O O @ O O O O O O O # + # # O O . . . . . . . . . . . . . . . . . . . . . . . . . . . . . . . . . . . . . . . . . . . O O . O O O O O O O # # # # # # # # # 7 7 2 2 2 2 1 7 7 < # O . . O O + = 2 6 y S B N s 9 l _ _ O.,.7.7.4.&.B - $ . . X = N ~ ( ^ ~ ~ ~ S S l t 9 9 q l W Q &.8.9.z.z.M.B.R.R.).).).'.}.}.{.*X3X3X4X4X4X@X{.[._.M.j.9.d.] n = X 9 X.x.r.F.x.&.9 . X O # : = # $ # $ O O . . . . . . . X h M.Y.2.t.~.*X<X2X=.X . . o 9                                                                                                                                                                                                                                                                                                                   ",
"                                                                                                                                                                                                  o X X . o V S Z W ^ ~ S N r > = # # O . . . O . . . . O O O O O O O O O @ @ @ # # # # @ O @ # # # # O O X . . . . . . . . . . . . . . . . . . . . . . . . . . . . . . . . . . . . . . . . . O O O O O O O O O O @ # # # # # # # 2 2 2 2 2 2 2 2 2 2 7 < # O . . . $ # : 3 y N F S l 0 0 z _ o.>.,.4.4.3.%.k & . . . = r B ~ ' ' ~ S [ C m t t q q h W X.X.3.j.z.z.z.M.B.R.R././.(.).[.}.[.{.<X3X4X4X4X3X@X}.'.!.W.z.5.$.N > X * I e.r.F.r.z.B X . O # : 2 = # # $ O . . . . . . . X & h M.R.u.T.].4X<X+X+.X . . &                                                                                                                                                                                                                                                                                                                     ",
"                                                                                                                                                                                                o X . . X > B ' ^ ~ S S k d r > = # O . . . . O . . . . O O O O O O O O O @ @ @ @ # # # @ @ # # # # # $ O . . . . . . . . . . . . . . . . . . . . . . . . . . . . . . . . . . . . . . . . . . O O O O O O O O O @ @ # # # # # 2 2 2 6 6 6 6 2 6 2 6 6 2 7 # O O O $ # = : 4 n V V B k q l Q _ o.>.,.4.4.3.$.r & . . o 3 N S ' ] ^ S g y y d r t h z ( %.8.9.z.m.M.m.m.m.M.M.M.M.M.R.).}.}.[.{.<X3X4X4X4X4X3X{.}.'.).M.8.;.Z 3 X ; x 3.r.Y.u.r.( & X $ $ = 6 2 # $ O O X . . . . . . X * h z.W.F.T.].7X<Xm.Z X X . -                                                                                                                                                                                                                                                                                                                     ",
"                                                                                                                                                                                              o . . . X > f B ~ ~ ~ B f r r 5 : # $ O . . . . O . . O O O O O . O O O O @ @ # # @ @ @ @ # # # # # # # # O . . . . . . . . . . . . . . . . . . . . . . . . . . . . . . . . . . . . . . . . . O O O O O O O O O O @ @ # # # # 2 2 2 6 6 6 6 6 6 6 6 6 6 6 2 # # # # # # : 3 d V S l k i j Q _ X.>.,.4.7.3.X.Z = X . X = f S ^ ^ ] S S 3 = 4 n d f Z / $.h.m.m.m.m.m.m.m.m.m.N.m.N.M.R.).}.[.[.{.<X3X4X4X4X4X3X3X].'.).R.c.h.$.t & 9 j _ w.W.Y.n._ * X O O # 6 2 # + O X X . . . . . . X % q 0.n.u.T.;X7X_.P , X X . >                                                                                                                                                                                                                                                                                                                     ",
"                                                                                                                                                                                            o X . . X & 0 k Z W B B k r > 4 2 # O O . . . . . O O O O O O O O O O @ @ @ # @ # # @ # # # # # # # # # O O X . . . . . . . . . . . . . . . . . . . . . . . . . . . . . . . . . . . . . . . O O O O O O O @ O O @ @ # # # # # 7 6 6 6 6 6 6 6 6 6 6 6 6 5 6 2 # # 2 2 # = > r n D V f s k Q $.o.o.>.4.q.7.&.W > . . . X 3 C ~ ] ^ ^ ^ [ 4 = d m f N ~ $.g.k.c.j.j.z.c.m.m.m.z.m.M.M.M.R.).[.}.}.{.<X3X3X4X7X4X4X4X{.'.).E.R.c.h.{ k l x j ` x.x.r.5.h & $ O # 2 2 # $ O X X . . . . . . X & w O.t.F.Q.;X7X(.9 . . . . >                                                                                                                                                                                                                                                                                                                     ",
"                                                                                                                                                                                          X X . . . X 9 h z ( B l k r 3 2 3 = + O O . . . . . O O O O O O O O O O @ # # # # # # # # # # # # 7 # # O O O . . . . . . . . . . . . . . . . . . . . . . . . . . . . . . . . . . . O . . O O O O O O O O O @ # # # # # # # # 1 2 5 5 5 5 5 5 5 5 5 y y y 5 5 6 = = 3 2 > > 3 d C B l t t W _ %.o.>.4.7.q.9.$.0 X . . . = d S ' ] ] B g d 2 = 5 b d N ^ +.-.g.h.h.h.j.c.m.m.z.z.z.m.M.M.W.(.}.[.}.[.<X<X3X4X7X4X4X4X{.'.'.!.R.R.m.h.;.^ B w e ` w.x.z.$.t X $ # 2 : # O O X X X . . . . . * 9 e O.r.F.Q.;X4X/.q X . . X -                                                                                                                                                                                                                                                                                                                     ",
"                                                                                                                                                                                        X X . . . o u x W / / x t t 3 6 6 = $ . O . . . . . . . O O O O O O O O @ # # # # # # # # 7 < 7 # # 7 7 # # O O . . . . . . . . . . . . . . . . . . . . . . . . . . . . . . . . . . O O O . O O O O O O + O O @ # # # < # # # 2 2 2 5 5 5 G b G 5 5 y y y 5 5 5 3 = : 3 > > 9 r d B S l l x $.%.o.O.>.>.4.4.5.W & . . . . - N ^ ] +.] C > o # = 4 d b N S +.$.$.5.h.h.h.c.m.c.z.z.z.m.m.m.M.R.).}.[.[.@X<X3X4X4X4X4X3X{.}.}.'.(.R.M.c.l.;.( q e K O.x.z.h.W * o = = = # O O X X . . . . . . 9 q e 7.E.Q.^.].3X(.x X . . X *                                                                                                                                                                                                                                                                                                                     ",
"                                                                                                                                                                                      o . . . . . 9 *.;.$.$./ k 9 9 y y 2 O . . . . . . . . . . O O O O O O O @ @ # # # # # # # # 7 7 7 # # 7 # # O . . . . . . . . . . . . . . . . . . . . . . . . . . . . . . . O O O O O O O O @ @ @ O O O O # # # @ # # # 7 7 # # 2 2 6 5 y y b b G 5 5 b b y 5 5 2 > 2 3 > > > 9 r g B B B ~ ^ ;.$.) O.<.,.4.3.&.t X . . . $ 3 B ~ ] +.] V = # $ 2 5 5 n M D ' ] +.;.-.g.g.c.c.c.c.z.z.z.m.m.M.M.R.).}.[.@X@X<X4X7X7X4X3X<X[.{.}.).(././.m.5.( x q w L >.7.9.&.h & = = # $ O X X X . . . . . . * q L 7.~.].:X;X3X(.z X . . &                                                                                                                                                                                                                                                                                                                       ",
"                                                                                                                                                                                    . . . . . X > Z ;.5.&./ z k u 3 6 1 # O . . . . . . . . . O O O O O O O O @ # # # # # # # # 7 2 1 1 7 7 7 # # O . . . . . . . . . . . . . . . . . . . . . . . . . . . . . . . . . . O O O O O O @ @ O O @ # # # # # # # < 7 7 # 1 2 2 6 5 y y d b 5 6 6 6 6 6 6 4 3 3 r r u r 0 9 t k l k B / $.$.$._ ` <.7.7.5.&.u . . . X o t S [ ] ] S r = 2 # 6 5 4 d m V S ~ ^ +.=.-.g.g.l.k.k.j.h.z.z.m.m.m.M.R.).}.[.@X<X4X7X7X4X4X3X<X@X{.}._.)././.c.;.i 9 * w L <.w.c./ u - = o $ O X X . . . . . . . * h I ,.T.:X4X:X3X`.h X . $ 9                                                                                                                                                                                                                                                                                                                       ",
"                                                                                                                                                                                  X . . . . X 9 ( ;.8.5.&.( k k y 3 = + O . . . . . . . . . . . O O O O O O O @ @ # # # # 7 7 7 2 2 2 2 1 1 = # + O . . . . . . . . . . . . . . . . . . . . . . . . . . . . . . . . . . O O O O @ @ @ @ @ @ @ # # # # # 7 7 7 7 7 # 2 2 6 5 y y d 5 5 6 = # + $ # # 3 r f f f u 9 , 0 f B l h Z / $.$.X.o.` ,.w.0.5.;.> . . . $ > N S ' ] ~ f > : 2 2 6 5 5 d d m V S S ^ ] $.;.;.-.g.l.h.h.h.z.z.m.m.M.R.R.).[.{.{.<X4X4X4X4X4X3X<X{.[._.`.(./.M.c.E - & * 8 I n./.-.k > & o $ O O O X . . . . . . * P O.<.T.:X:X4X7X`.0 . . & f                                                                                                                                                                                                                                                                                                                       ",
"                                                                                                                                                                                $ O . . . X 9 x $.&.-.&.$.E s t y : + O . . . . . . O O . . . . . O O O O O O @ @ # # # 2 2 2 2 2 6 6 2 1 1 = # $ O . . . . . . . . . . . . . . . . . . . . . . . . . . . . . . . . . . O O O @ @ @ @ @ @ # # # # # # 7 7 7 7 7 7 2 2 2 2 4 y 5 5 5 4 = # # O $ $ # 3 d f g f t r 9 0 k l l l ^ / / _ _ o.<.7.w.0.%.W & . . X # y N S ' ' C 3 # = 2 2 6 6 6 5 5 y N V V S S ^ ] *.;.f.g.g.g.9.h.j.z.n.N.W.R.(.'.}.}.}.<X4X4X4X4X3X<X{.[.[._.)././.m._ 9 o % 8 L n.R.l.W 0 & o $ O X X . . . . . . X 9 Q >.,.Q.:X:X4X7XB.- . . =                                                                                                                                                                                                                                                                                                                         ",
"                                                                                                                                                                              O X . . . . o l $.&.%.X._ W k g y 4 = O . . . . . . . . O O O O O O O O O O O O @ # # # 2 6 6 2 2 2 6 6 6 1 # # # + O . . . . . . . . . . . . . . . . . . . . . . . . . . . . . . . . O O O O O @ @ @ @ @ # # # # # # 7 7 7 1 1 2 2 2 6 6 4 4 4 4 5 5 2 $ $ $ $ $ o = 3 y d f t t r 0 t k l z W ^ / _ _ _ o.6.w.e.8.( 9 . . . X : f N S ^ S d : # 7 2 2 2 2 6 5 5 5 n N N V S S ~ +.*.=.-.f.g.8.8.h.z.z.N.M.R./.(.'.'.'.{.4X4X4X4X3X<X{.{.}.}.).).(.M.3.k o % * L r.N.c.! 0 & $ O O . . . . . . . $ > q U >.2.T.].XX4X7XB.= . . =                                                                                                                                                                                                                                                                                                                         ",
"                                                                                                                                                                            $ X . . . . X 0 ^ $.&.&.$.( l k d 4 2 # O . . . . . . . O O O O O O O O O O O O O O # # 2 6 6 6 6 6 6 6 6 6 # # # # $ O . . . . . . . . . . . . . . . . . . . . . . . . . . . . . . . O O O O O O @ # # # # # # # # # # 7 7 1 2 2 2 6 2 6 6 4 6 2 2 2 4 : o $ $ o o = > 3 r d f d r r r r f l B ( ( ( ! ! _ o.6.w.9.$.t X . . X $ 4 m N Z S N 3 = # 7 7 7 2 2 6 5 5 5 b m m N N V S ^ +.+.$.=.-.8.8.h.j.z.z.M.R./.(.).).'.}.3X4X4X4X3X;X{.{.{.}.'.'._./.z./ > % * K x.(.M./ , o O . O . . . . . . . $ > e U >.2.G.^.].4X4Xk.= . X -                                                                                                                                                                                                                                                                                                                         ",
"                                                                                                                                                                          O O . . . . & 0 W / / / ] ^ B f y y 2 # $ . . . O O O X O O O O O O O O O O O O # # # # # 2 6 6 6 6 6 6 6 6 6 # # $ $ O . . . . . . . . . . . . . . . . . . . . . . . . . . . . . O . O O O O + + + # # # # # = 1 = # # # 7 # 1 2 2 6 6 6 6 6 2 : : : 3 > = # # # = : 4 3 3 r r r d d r r r s l Z ( ( Q ! _ X.>.6.0.3.W * X . . O # 5 N V S d : # # # 7 7 7 2 2 6 6 5 5 5 n n n m N N D S ^ +.+.;.;.-.9.j.j.z.m.M.R.R.(.!.).'.<X4X4X4X3X3X;X{.{.].'.{.[.E.n.g.N o - j w.)./.X., o X . X X . . . . . . . & e Y ,.2.G.^.^.~.).%.& X X >                                                                                                                                                                                                                                                                                                                         ",
"                                                                                                                                                                        . . . . . X & 0 z ( / / Z B Z g d 5 2 # O . . . O . O O . O O O O O O O O O # # # # # # # : 2 6 6 6 6 6 6 6 6 2 # O O O . . . . . . . . . . . . . . . . . . . . . . . . O O O O O O O O O O + + # # # # # # # = = 2 = 1 # # # # 2 6 6 6 6 5 5 6 2 = : 2 : 2 = = = = 3 y y r r r r r r r r r r s l W / / Q ! X.%.3.3.5.%.W & . . O # 6 m M V N 4 O $ # 7 7 2 7 2 2 2 6 6 5 5 y d n n m N N N S ^ +.+.$.&.g.h.h.h.z.M.R.R.R.(.!.'.<X3X3X4X3X4X3X;X{.].].{.{.!.W.m.] > % w O.Y.N.X., X X . X . . . . . . . . & q O.t.1.F.Q.T.F.w.P % . $ >                                                                                                                                                                                                                                                                                                                         ",
"                                                                                                                                                                      O . . . X X > Z $.Q W ( W Z g y d y 2 # O . . . . O O O . . O . O O O O O @ @ # # # # # # : 2 6 2 2 2 6 4 6 5 6 # O O . . . . . . . . . . . . . . . . . . . . O . O O X O O O O O O O O O O O O # # # # # 1 1 1 2 2 2 2 2 2 # 7 2 2 6 6 5 5 5 5 5 6 = = 3 r r = = > 3 y n d y y r 4 > > > r r d N S ~ ( / ! ! _ o.>.3.%./ B & . . O 6 M V V n y : $ $ # 7 7 7 7 2 2 6 6 4 5 5 y y b b f g g N V D S ^ / $.-.g.h.h.z.x.R./././.(.).'.*X3X4X4X4X3X;X;X{.{.{.{.'.R.j.^ > o % L 7.r.o.w X X . . O . . . . . . X & j 8.Y.F.T.^.~.!.z.z X . X -                                                                                                                                                                                                                                                                                                                         ",
"                                                                                                                                                                    . . . . X X * z ;.h.%./ ( l l f 6 5 6 # O . . . . . O . O . . O . O O O O O # # # # # # = = 2 2 2 2 2 2 6 4 5 5 6 # O O . . . . . . . . . . . . . . . . . . . . O O O O O O O O O O O O O O O O @ # 7 1 1 1 2 2 2 6 2 2 6 2 2 2 2 6 4 4 6 5 5 5 5 y d 3 3 y n y > = 4 f m N d r r 4 > > > > r d g B ~ ~ W W Q ! _ X.%.3./ z t & . . $ 5 V A V d : # $ # # 2 7 2 7 2 2 6 2 6 4 5 5 y d d f f g m m N C Z ^ ] =.d.f.g.j.c.M.R././.).E.E.'.{.3X4X4X4X;X;X{.{.].}.'.R.3.s = = & a >.r.&.0 X X X X O . . . . . . . & j 7.W.T.].].].}./.( X . X %                                                                                                                                                                                                                                                                                                                         ",
"                                                                                                                                                                  X . . . . X * z $.&.8.;.] Z C g d 4 6 = O . . . . O X O O O . . . . O O O O # # # # # # # : 2 2 2 2 2 2 3 4 4 y 5 2 # O . . . . . . . . . . . . . . . . . . . . . O O O O O O O O O O O # @ O O @ # 7 7 2 2 2 6 6 6 6 2 2 2 2 2 2 2 6 4 5 y y y y y y m n m N n y r > > f V N f d r r r , & > r d g S ~ W E E W / / X.%.&./ h > o . $ 4 M V A m > o $ $ # : 2 2 2 2 6 2 2 6 6 6 5 5 5 d d d f g g m m N S ~ ] +.;.-.f.h.j.c.m.M./.).).).).'.{.;X4X3X3X;X;X{.{.{.@X).3.s > = > h O.w.3.e & X X O O . . . . . . X & j 7.u.F.~.].].}.B.Z X . X %                                                                                                                                                                                                                                                                                                                         ",
"                                                                                                                                                                $ . . . . X & e %.&.X.$./ W k d n 5 = # O . . . . X O O O O O . . . . O O $ O $ # # # # # = 2 2 3 3 3 3 3 2 4 4 4 4 2 # O . . . . . . . . . . . . . . . . . . O O O O @ # @ # @ $ O O O # # # # # 7 7 7 2 6 6 6 6 6 6 6 2 2 2 2 2 6 6 6 5 y y b n n n n N V S S N y d y d f N N m d d N d 0 > = > f N V Z z x W / / ( / &.-.~ > X o X = M F F A d o $ # # = : 2 2 2 2 6 2 6 4 5 5 G 5 G G d d d g m m m N V S ~ ^ +.;.;.5.g.k.c.M.B.R.R.(.).E.!.].3X3X;X;X;X;X3X3X{.).0.t > = 2 9 I >.5.W 9 o . X . . . . . . . X * j 4.r.2.G.~.~.).m.l X . X %                                                                                                                                                                                                                                                                                                                         ",
"                                                                                                                                                              . . . . . % > x _ X._ _ ^ B N g y 6 # @ O . . . . . . O O O O . . O O O O O O O $ $ $ # # # 2 2 3 2 2 2 6 4 4 4 4 6 3 = $ . . . . . . . . . . . . . . . . . . O O O @ @ @ # # # # @ $ # # # # # # 7 1 2 2 6 6 5 6 6 6 6 6 6 2 2 2 6 6 5 5 d d d d n n n V S S S S N d f d n m C N d g g N g r r 4 d m m l B Z x W ! ( / / ;.=.S = o o $ : m A A V 4 # $ # # : 2 2 6 6 6 6 4 6 5 5 G G G G d d d n g m m m M N S S ~ ' ] $.;.&.f.g.j.m.M.M.M.R.E.E.T.{.;X;X;X3X3X3X3X3X[.4.w - 4 5 & q ) 5.X.x * X X X O O . . . . X * a 4.r.r.T.~.W.N.5.s X X o                                                                                                                                                                                                                                                                                                                           ",
"                                                                                                                                                            X . . . X & t / $.5.X.! ( Z k d d 5 # # O O . . . . . . . O X X . . O O O O O O O # # # # # = 2 2 6 4 4 4 4 4 6 4 2 : : # O . . . . . . . . . . . . . . . . . . O O @ @ # # < < # # # # # # 7 7 7 = 2 2 6 5 y y y 5 5 6 6 2 2 2 2 6 4 4 5 y d n n n n n m V S S S B N f y d m m N N d g V S N r r d d d d d z W W W Q ( / ^ $.*.S = # $ $ = y d y 2 # # # # # : 2 2 6 6 4 4 5 d d b b b b d d d d b m g m m N D S S S ~ ' ] / { $.%.5.k.c.m.m.z.n.W.Y.~.].;X;X3X;X;X3X4X<Xw.i 0 y y o & j &.&.! 0 X X O O X . . . . X * e 4.Y.T.~.}.W.7.W 9 X X &                                                                                                                                                                                                                                                                                                                           ",
"                                                                                                                                                          o X . . . & l $.5.8.&.-.$.~ S g r 4 : # O O . . . . . . . . X X . O O O O O O O O # # # # # # : 2 6 4 y y y 4 4 2 2 3 = = o . . . . . . . . . . . . . . . . . O O O @ # 7 7 7 7 # # 7 2 2 6 6 6 6 6 6 3 4 y y 5 5 5 5 6 6 2 2 2 2 4 4 4 5 5 y d m V S C N S B N B C N N N y d N g d g g V S [ S d y n y > r N W ( / ! W W ( / ] ] V : $ # $ # 6 3 # $ O $ # # # 2 2 2 6 4 5 5 d b b n m m n n b f f f m g g g N S S Z S ~ ( ^ ( ( ! _ $.3.5.0.7.w.e.r.r.T.].;X4X4XXX;X3X3X<XR.! x l r X X , $.h.$.h & $ O X . . . . . X ; q 4.Y.G.~.}.N.) x > . X >                                                                                                                                                                                                                                                                                                                           ",
"                                                                                                                                                        $ X . . X X 0 W ;.5.8.&.&.;.^ S n y 2 # O O O O . . . . O . . . X X . O O O O O O O # # # # # = 2 2 4 y y y y 4 4 2 3 : = o X . . . . . . . . . . . . . . . . O O @ @ < 2 2 2 2 2 2 2 2 6 5 y y y 4 4 4 2 4 5 5 4 5 5 4 6 2 2 2 2 2 4 4 5 5 5 y d n V S S B ^ W B B N l N n r d d 4 r g V S S S N g n y 4 : r S ] / ! ! W W ( ^ ^ S d = # # # # 2 = # $ $ # # # 7 2 2 2 6 4 5 G b d b b b m m V N N m g m N N N C Z Z Z W W W W Q ! ! _ o.>.>.4.7.q.e.r.Y.E.{.3X4X4X4X7X7X4X4X[.z.&.$.f X X & Z -.-.z , o O X . . . . . % 9 e 4.u.F.G.E.e.P 9 & X X >                                                                                                                                                                                                                                                                                                                           ",
"                                                                                                                                                      $ X . . X , s W ( _ %.-.X./ ] ' S d 6 # $ O O O O . . . . O X . . . . O O O O O O @ # # # # # # 1 2 3 4 y y y y r 4 2 2 = # $ . . . . . . . . . . . . . . . . O # # # 7 2 6 6 6 6 6 6 6 G b n n b y 5 r 4 2 2 2 2 4 4 4 4 4 2 2 2 2 2 3 4 5 5 5 y n N N ~ ( ^ ^ W B S C f t r r y r = r g V S S C n V C 5 # # r ] ] { Q K K W ( ^ ^ S > # # O # # # # $ O $ @ # # 7 2 2 2 2 4 5 d b d d d b m N D D V N N N N N l z B Z ( W P K P ! _ ) ) O.4.7.w.n.Y.E.!.~.'.XX4X7X7X6X6X6X6X6X7X{./.k.~ o . . 0 $.8.W 0 o X . . . . . . > x L 7.F.F.F.!.N.c * X X X >                                                                                                                                                                                                                                                                                                                           ",
"                                                                                                                                                    $ X . . . & s ( _ _ _ Q / W z Z S d = # # O O O O O O O O O O O . . O . O O O O O @ @ # # # # # # 1 2 2 4 y y y y 4 4 2 = = # O . . . . . . . . . . . . O O O @ # # 7 7 7 6 6 6 6 6 5 5 b M M m b d y r r 3 > > 3 4 4 4 4 4 4 3 4 3 3 3 4 4 5 y d d N C ~ W ( ! / W B B k r > 3 r d r > r d V S S S N M M 5 = $ r ] / ! W j j E / ] ^ C = $ O O O # # # + # # # # # # 7 7 2 2 6 5 5 y 5 5 G d f m V D S Z S B B B W W ( / X.! P ! ) ) o.o.o.9.W.R.W.R.}.3X4X4X3X7X6X7X7X6X6X5X6X6X5X4X*XB.;.& . . & ^ k.X.h & X X . . . . . 9 W Y e.E.T.T.{.`.z X X X o >                                                                                                                                                                                                                                                                                                                           ",
"                                                                                                                                                    $ . . X & 9 z _ X.%.X._ K k s r r = $ O O O . . O . O O O O O O X O O O O O O O @ @ # # # # # # # 1 3 4 4 y y r 4 2 3 = = = # O . . . . . . . . . . . O O O @ # # # # 2 6 6 5 5 5 y b n m M n n d d y y r 4 > > 4 4 4 r r r r r r 4 4 4 4 r y d n N V N ( ( W K W Z B k r > - r f g y d r d V S F [ V n b 5 2 # u ^ ( W K K K Q { +.^ d $ # O O O O # + # # # # 7 # # # # 7 : 2 4 4 4 4 5 5 y d m S [ #.' ^ ( ^ ^ ^ ! _ 3.z.j.0.w.z.z.z.9.e.Y.).}.'.~.].3X7X5X5X6X6X6X5X5X5X5X5X5X5X:X'.B.g.> . . X k g.-.W & X O . . . . . 9 P Y u.}.].'.*X`.x X X $ &                                                                                                                                                                                                                                                                                                                             ",
"                                                                                                                                                  X X . X > k P _ %.%.X.$.{ l u r > = # O O O . . . . . . O O O X O . O O O O O $ $ @ @ # # # # # = = 1 3 4 y y r r 3 3 = = = # $ . . . . . . . . . . . O O O O # # # # 2 6 6 6 y b b n m m M m n n d d d y r r r r r r r r d y d r r r r 4 r d f m N S S ~ W ( W K z l m r 9 r t f m n d d d d g N S S n y y 5 4 > t W W W W Q Q ! ] +.S 4 X $ O O O O O O # # # 2 2 7 7 # # # 7 2 6 6 4 4 5 5 r d N ' *.=.=.=.$.*.*.$.%.8.n.).).)._.}.'.'.R.T.!.~.].].XX;X4X5X5X5X5X6X6X5X5X5X5X5X7X4X:X}.(.h.s . . . , $.-.^ & X X X . . . . q ) <.Y.].{.{.1XB.t X O # -                                                                                                                                                                                                                                                                                                                             ",
"                                                                                                                                                X . . X & h +.X.%.%.X._ / W k 0 : = # # O O O . . . . . . O O O . O X X O O O O $ # # # 7 # # # # 1 = 2 4 4 y y r 3 > > = = = # $ . . . . . . . . . X . O O O # # # # 2 2 6 6 5 d n n M M m C m n d d d d d r r r y d d r d d d d d r r r r r f N D D S ~ / / { _ Q E l k t t N C C m n d y y y d k C m r 3 6 4 5 r f B Q ! ! _ _ / ] ' V 3 O O O O O O O O O # # 2 2 2 7 # # # # 2 2 2 2 6 5 4 r d N ^ ;.;.g.l.h.h.h.j.z.R.).}.*X*X3X4X3X3X].].XX].:X4X4X>X5X5X5XpX6X6X8X5X:X4X7X>X:X:X:X{.`.h.k . . . , +.-.+.> X O O . . X X e ) <.W.}.].}.<XB.r . X o >                                                                                                                                                                                                                                                                                                                             ",
"                                                                                                                                              = X . & 0 h _ $.$.%.&.$./ ( B N r = # $ O O X . . . . . . . O O O . X X X O O @ # # # # < # # # # # 1 2 6 4 r r r r 3 > > = = = # O . . . . . . . X . O O O # # # # # 1 2 6 6 5 y y n n m m m M n d d d d d d d d d d d d d d d d d d d d d d m N S D S ~ ] $.$.{ _ / E l N V C V S B C m f y r r f C V V d 4 6 6 y d k E Q X.%.%.$./ ^ ^ N 2 O O . O O . O O O # : 6 6 2 7 7 7 # : 2 2 2 : : 4 r d N B / %.5.h.z.M.N.W.W.E.!.!.'.*X4X4X4X4X;X;X;X:X:X4X5X7X:X>X5X5XsX6X6X6X7X;X].XX:X].].~.!./.9.h X . . > +.-.+.r O O O . . . X a ` <.Y.!.W.n.B.l.> . X o >                                                                                                                                                                                                                                                                                                                             ",
"                                                                                                                                            > o . . u / X.X.$.$.$.%._ ( B f d 4 # $ O O O O . . . . . . . . O O O X X X O O @ # # # # < 7 # # # 1 1 2 6 5 y y y r 3 > > = = # $ X . . . . . . . . O O O O # # # # # 2 6 6 6 4 y y d n m m m m n d d d d d d d f f f d f g d d d d d d d g m N D S Z ~ / $.;.%._ Q Q W B B S S V S S C m y y y f f f y y y 4 3 3 r s x W _ %.3.5.%./ ~ V y : O . . . O O O O # # 6 5 6 6 7 7 # # 2 : = 2 3 > r m D ' ] $.&.5.j.x.n.u.F.W.T.!.!.~.].;X4X:XXX^.^.^.^.^.].;X;X:X:X4X5X6X6X6X4X{.}.E.T.Y.F.T.W.W.R.z.P X . . & B / ' r O . . . . X X e ` ,.Y.T.Y.r.8.z X . . = t                                                                                                                                                                                                                                                                                                                             ",
"                                                                                                                                          > X X . X h / X._ X.$.$./ ( W f 3 y 6 $ O X . O X . . . . . . . . O . O O X O O $ @ # # # # # # # # # = 2 2 6 5 y y y r 4 3 3 : = # X . . . . . . . . O O O # # # # 2 2 2 6 6 6 5 y y d f m N N m n d d d d f f f f f f f g g g f f f f m N m N D V V S B ( $.%.%.%.! E Q W W B S S C S S m y y y y d f m r > > > > 9 s l W X.&.5.5.5.%./ ~ g = $ . . . O O X O O # 1 6 G G 6 6 2 # 2 2 : > > 4 d N S [ +.=.;.&.8.9.z.e.r.u.F.T.!.!.~.^.;X;X;X'.!.T.Y.W.W.W.W.~.~.~.^.].4X4X<X}.R.r.,.,.,.<.,.,.z.M.M.$.- . X X , k S r $ . . . . X % a <.Y.~.!.E.M.&.t X . . > k                                                                                                                                                                                                                                                                                                                             ",
"                                                                                                                                        = o . X > s j Q _ Q ! / / ~ B V d 2 2 = O X . X . . X O . . O O O . . . . O O O $ # # # # # # # # # # # = 2 6 4 y y y y r 4 4 3 2 = $ X . . . . . . . . O O O @ # # # 2 6 2 6 5 5 y y d f n N N N n d d d f f f f g k k g f f d d d d f g N V S D N g N S B ( $.$.%.%.Q K W W ~ B S V N N m f y y 5 6 2 y n d 2 : : 0 0 q W $.5.5.8.3.%.%.^ ~ g $ . . . . . . X X O O # 6 6 5 5 5 6 2 4 r r u s g D F [ [ ] *.=.&.3.8.9.7.t.u.u.Y.W.T.E.E.}.'.'.).Y.q.7.9.w.9.0.e.r.r.r.r.Y.Y.n.z.>.I L I Q L J e o.j.M.g.t o X X , z Z > X O . O X X 8 ! z.}.'.'.'./.5.t X . . =                                                                                                                                                                                                                                                                                                                               ",
"                                                                                                                                      o X . . X t z K Q ! P Q W Z B k d r : # # O O . O . . . O O O O O . . . O . . O $ $ # # # # # # # # # # # = 2 2 4 y y y y r 4 4 2 2 # $ . . . . . . . . . O O O O # # # 2 6 4 y y y y n d d n N N m n d d d f f g n g g k g f d d d g g g N D D F F N r f B W / $.%.%._ Q E E Z B N m g g d y y 4 3 2 2 = = 2 4 4 4 3 u k z _ 5.0.3.3.3.o.;.+.~ d X X . . . . . . X X O $ # 2 2 3 0 9 0 s l l W $.+.] ' ' ^ ] +.$.%.%.3.8.7.q.e.r.e.e.e.r.e.e.7.7.8.&.) P P W Z z x L I I Y ` ` ` _ Q L w e i i i w Q &.j.g.l - & - W -.$.0 X O . O O % q ) q.~.T.T.)._.h.u X . . >                                                                                                                                                                                                                                                                                                                               ",
"                                                                                                                                    > X X X X & s Z W ! ! z z B l f g d y = # O O O O . . O . O O O O O . . . @ O O O @ @ # # # # # # # # # # # = : 3 r y y y y r r 4 3 : # O . . . . . . . . . O O O O # # : 6 5 y y y y d n n n g N g d f d f g g g n m g g g f f d d d f g N D V V A V d u f S ^ ] $.X.X._ ! W W B B n d d d n y y 5 4 6 1 = = 3 4 y y r 0 l ! %.5.0.3.3.3.%.;.$.W 9 X O . . . . . . X X X O # = > 0 q x P / &.3.3.8.&.$.+.+./ / / _ _ X.%.3.4.7.w.7.7.3.o.o.X.! z x h h 9 9 9 , , , 9 w e J L Q Q Q Q E K e 8 q q q i j X.h.g.+.h 0 x 5.m.8.s X X O X X % q L Y F.F.y.q./.g.u X . . >                                                                                                                                                                                                                                                                                                                               ",
"                                                                                                                                  > > X X > 0 f l Z W / ( W l l k f r 3 2 = # O O O O O O O O O O O O O . . . @ O O $ @ @ # # # # # # # # # # # : > r y y y y y y r 2 4 2 = O . . . . . . . . . X O O $ # : 6 5 d d y y d n n d m m N f f g f g g n n n n n g g g f d f f g m N N N m d r > > k ' +.{ &.$./ ! W E B B m m n y y y y y y 5 2 = = 2 4 5 y y r 0 Z X.3.4.4.3.4.%.o.$.+.P & . . . . . . O . X X X O $ = , q P %.0.z.m.N.z.9.3.X.+.+.X./ / ) ) X.o.&.3.3.8.3.o.X.X.P z s - % & * * > , , , 0 q h W _ %.g.h.5.6.6._ j w * * * u h / -.;.$.W x $.m./.m.l X X X X X % h I <.F.r.2.q.B.k.t X . . >                                                                                                                                                                                                                                                                                                                               ",
"                                                                                                                                & & & o = d k N B B l B l k l f g y 2 2 : O O O O O O O O O O O O O O . . . O @ @ @ @ # # # # # # # # # # # # : : 3 r t f f d d d r 4 r 4 : O . . . . . . . . . X O $ # # 6 5 b b n n d d d g V N f m g g g g g g m N m N N g g g g n N V V V m d y f d > 9 t k +.=.$._ / _ / B B B Z N N N y 4 3 2 2 3 2 2 2 2 6 6 4 4 r f W $.%.>.4.4.3.3.3.X./ Z r X . . . . . . . . X O O $ $ & 9 c 3.n.R././.R.W.n.7.X.! ! X.! ! Q ! X.X.X.X.X.%.%./ z q , , , > = - > 0 h h j K Q _ o.3.j.z.M./.B.v.z.6.Q E u * * 9 0 q x W / / W 8.m.R.m.W o X X X X & I 4.q.T.T.'.[.`.5.9 X . $ r                                                                                                                                                                                                                                                                                                                               ",
"                                                                                                                              > o & & = r f l l C l B N l k d d y 2 # # $ O O O O O O O O O O O . O O . O O O @ @ # # @ # # # # # # # # # # = : > r r t f f f f d d y 3 : # O . . . . . . . . . X O # # 2 6 b b b d n n n d g V V N f d d g g g n m N m n N f f g N N V V S S n 3 > y d 3 r B B ^ *.$.! W ( ( B C V V m n y 4 3 # = 2 2 2 2 6 6 6 4 2 > t B $.-.3.>.,.4.3.5.5.X.( u = X . . . . . . . . X O O $ $ & t ! 9.N.M.R.R.R.n.z.0.X.Q P / Z P x W ! _ / / / / / W h > % - > > r t k B Q ) Y O.>.7.r.n.W.E.E.(.).E.R.x.>._ B t t u 9 9 9 h +.( z $.m./.B.$., X X X X * _ w.F.'.{.3X+Xm.E & X X = f                                                                                                                                                                                                                                                                                                                               ",
"                                                                                                                            o & X & > r g k k N l l C l r d y r 4 : O O O O O O O O O O O O O O O O O O . . O @ @ # @ @ # # # # # # # # # # : : 3 u r t k k k k g N n > X O . . . . . . . . . . X O # # 6 y d d d f n n m f f m m n r d f g g n g m N n g d d d g N V S S S S n r 4 r > r g N B B W ( ^ W B B N n d y 4 6 1 = # # : 2 6 2 2 6 2 2 2 > > s ( &.5.4.,.,.4.3.5.8.%.W 9 $ . . . . . . . X X X O O $ o * s $.9.m.n.N.N.n.7.7.3.! W c ~ h h k B W W l l l t 0 0 9 * * 0 0 t k B E ! %.4.7.t.u.Y.W.T.!.}.}.}.}.[.'.W.4.o.W z B t 9 , - 0 W Z l W h.`.`.-.3 X X X X w %.z.Y.].{.}.z.Q * X . X >                                                                                                                                                                                                                                                                                                                                 ",
"                                                                                                                          = X X X & r f g l k N l f g f > 4 y 2 4 = O O O O O O O O O O O O O O . O O O @ O @ @ @ # @ # # # # # $ # # # # # : > r u t k k l N l N N n = X . . . . . . . . . . . X O # 2 4 y d n n g l k C k f d r r d r f g m m g g f d y r d d k C B S F A N d r r y r d V N B B k l W B Z V d r 2 6 2 2 # # # : 2 6 5 5 6 6 = 2 3 r r B =.5.3.6.,.4.4.3.5.5.%.( r O . . . . . . X X X X O $ $ o > k +.5.3.0.z.z.4.o.o.X.Q Z l l q q k k f t > * - & X % & X & 9 9 q x Q _ >.w.x.Y.E.~.}.*X*X*X;X].].{.{.}.~.Y.j.%.W B u % o o & s f , * { B.B.d.4 X X X X 0 8.n.W.T.E.R.4.q X . . $ y                                                                                                                                                                                                                                                                                                                                 ",
"                                                                                                                        = o X X X > d g k k N B B f r r 4 r 2 : = # O O O O O O O O O O O O O O . O O O O @ @ @ @ @ # # # # # # # # # # # = : 3 r t t k k k z B k r r # . . . . . . . . . . . . O # # = 4 y d n N N C V V N N r = > r r d g N m g d d d d d d d g N m S F V N d y d d d N S S S Z Z B B B N d r 2 = : # # # # # = 4 y y d 6 2 = > 4 r l / -.8.3.4.4.7.9.9.8.&.$.^ r $ O O O O O . X O X X O O X o > s l Z Q &.8.8.o.X.) W z s 0 , , > > - & & X X X o & = & * 9 q h z ! o.7.e.u.Y.E.~.].{.;X3X3X;X;XXX{.}.'.'.!.W.9.X.( l > X o X , r & X l =.l.=.: X X X X q 9.R.W.Y.u.N.z.x X . . $ y                                                                                                                                                                                                                                                                                                                                 ",
"                                                                                                                      X X . . & > r l l N m k N N d d > > : = # $ O O O O O O O O O O O O O O O . . O O O @ @ @ @ @ @ # # # # # $ # # # # = > r r t t k x z B B N > & X . . . . . . . . . . . O $ # 6 2 r y d N V N B ~ ' S C r o > r r r d d d d r r r d d d g f g C V n m d d d N N V S F S S ^ @.[ V N d : = 1 # # # # # # # 6 d b 5 5 4 2 : > r s ^ ;.8.0.0.7.q.w.z.h.5.$.W N > $ O O O O O O O O X O O O X $ : > 0 s z $.-.&.X.! W l s 9 * & & o o $ X X X X $ o = > 0 s h x I X.3.7.Y.T.T.E.~.}.{.3X4X4X4X4X:X4X;X{.].'.'.E.n.9.;.^ s o $ $ = o X X > l [ m X . X X X q z.).E.F.u.R.B.B o . . $ 9                                                                                                                                                                                                                                                                                                                                 ",
"                                                                                                                    X . X X . > N k V l C B m d m r 3 3 = = $ $ O O O O O O O O O O O O O O O O O O O O O @ # # # @ # # # # # # # # = = = : > r t t i h h B B B k = X X . . . . . . . . O O O O # 2 2 3 y d f N V V Z ~ ' ~ B r & > d r r r > > r r r s s d g k N m N N f f r r d V S [ F [ [ ~ ] d.' g y 2 # # # # # # # # : 6 d b b 6 2 2 2 > 0 k l / %.0.9.9.w.w.e.z.g.%.^ l r o $ O O $ $ O O O O O O $ X X X & : 9 h Z / $.X._ E B k r , & & & o $ $ $ $ $ $ o = > r k W ! ! O.7.e.r.T.Q.~.~.'.].4X7X5X5X5X5X5X7X4X4X3XXX{.'.R.m.k.*.N : $ . # $ O $ - t l 3 X X $ X X q z.).E.Y.Y.).`.W & . . o -                                                                                                                                                                                                                                                                                                                                 ",
"                                                                                                                    X . . o > r N l l N N C V d d r = > = # $ O X O O O O O O O O O O O O O O O O O @ @ @ # # # @ # # # # # # # # = : : > > r r f k k z z l z k u & o . . . . . . . . . O O O O # : 6 6 d d g V Z S S S B S S y = 4 r r r r > > > r d d f f g k m N f f k m t f n C F ' [ F ' ' ' ' V r : = # # # # # # # 2 6 d b m b 4 2 4 4 r t B / _ %.5.0.9.e.w.e.j.-.$.B r = X X O O O O $ O O O O $ $ $ $ $ o = , t x Z ( ( W i 0 9 * & & & & o o $ $ o & & > r f l W X.3.>.4.w.N.Y.T.^.^.].].:X4X5X5X5X5X5X5X5X7X7X7X4X3X{.)./.V.f.Z d : $ $ # $ o > r f = X X X X X h z.E.W.Y.E.@X+Xz X . . o -                                                                                                                                                                                                                                                                                                                                 ",
"                                                                                                                  : X . . > d g N l l N V m C g y r = = $ O O O O O O O O O O O O O O O O @ O O O @ @ @ # # # # # # # # # # # # = : : 2 > 3 u t k l B B C N k f u = o X . . . . . . . . O O O O O # 6 y n k N Z S S ~ B k C C y > > r r r > r r r r d f g g g g n m g t t f f S S S ' ' ' [ S [ S N y 4 = = = = # # # 2 2 6 b b M M n 5 3 r d f l Z / _ o.3.3.7.e.e.z.h.&.$.g o X X O O O O O O @ @ $ $ $ $ O O $ o o = 0 s z W k s 9 & % & o o o o o o & = > > > t l ~ ^ _ 3.9.9.w.n.R.E.E.^.].].;X:X7X5X5XpXpX6X5X6X6X7X7X7X4X<X}./.B.l.+.C > o o = : = r N g & X X X X % x z.R.Y.Y.!.4X@Xl o . X $ >                                                                                                                                                                                                                                                                                                                                 ",
"                                                                                                                > = . . . > g N V N g N V N g y 4 3 = = $ O O O O O O O O O O O O O O O O @ O O O @ @ # # # # # # # # # # # # # : : > > > r t f l l l B B l l k y = o X . . . . . . . . . . O O O # 6 y N V S ~ ~ ~ S N m m y r > > r r > r r d d t d d d f f g g g g f N N S ~ ~ ' ' ' #.[ S B g r 3 : = = = = 1 2 2 6 5 n m m M M n y r d f N Z ~ / X.%.3.4.e.e.e.z.8.$.*.r . X X O O O O O O @ # # $ $ O O O $ $ $ : r t l N 9 - & = = o $ o o = = & > u t h k E ( / X.o.4.9.w.e.Y.E.E.~.].XXXX:X>X5X5X5XpXsXpXpX6X6X5X7X7X4X*X}.)./.c.8.$.z , & = 4 f F [ V & . X X . % K e.n.Y.n.).7X2XB o . O o                                                                                                                                                                                                                                                                                                                                   ",
"                                                                                                                o . . . X > N N N g d d d d d y 2 = # # + + O O O O O O $ $ $ $ $ $ # # @ + O @ # # # # # # # # # # # # # = = : : > > > 0 0 t l Z Z B B B k f d > o O . . . . . . . . . . . . . O # 2 y V S ~ W ~ ~ B k f d > 3 r 4 r d r r d f d d d f d r d d m N C C C C ~ ] ] ] +.' ] ~ V N r 3 4 3 : : = = 2 2 6 b M V M m m n b b f n V Z ^ ( / $.&.3.e.x.z.e.z.&./ ^ 2 X . X O O O O @ O # # # $ + # O O $ $ $ # 3 r u r = = = # # # # = = > > 9 u k B E W ! _ X.o.o.7.w.w.x.R.E.E.~.].XX:X4X7X5X5X5XpXsXsXsX8XsX6X5X7X4X3X}.(.R.N.9.&./ t & = r V #.' V = . . . . & W z.n.Y.Y.).2X2XB X X X =                                                                                                                                                                                                                                                                                                                                   ",
"                                                                                                              o X . . $ : 4 g N g d y r y y y 6 : # $ + O O @ @ O O O O $ $ $ $ O $ # # # + O # # # # 7 7 7 7 # # # # = = : : : : 2 3 4 0 q h z W ~ ~ B k d r r & . . . . . . . . . . . . . . . . O = r V ^ ^ ( ~ Z Z k t d r 4 y r d n d d f g g g g f f f d d g V S F ~ ~ ~ ] @.@.@.+.^ Z k d 3 3 2 4 3 2 2 2 6 4 b M C A V m m b d d N V ^ ^ ^ / ! X.&.4.e.z.z.e.9.$.z s o . . O O O O O @ @ # # $ # # # @ O # $ $ $ # & & o o # # # # # = 3 > r t f k l W Q ! X.o.%.o.>.7.w.e.n.R.E.E.~.^.XX:X:X7X5X5X5X5XsXsXsX8X6X6X5X7X4X3X{.'.E.M.z.8.$.k & 2 y N ' ' V = . . X . & W z.n.Y.W.).2X@Xi X X $ 3                                                                                                                                                                                                                                                                                                                                   ",
"                                                                                                              o X X $ > f d g d d y r 4 4 6 2 = # # $ $ O O @ @ O O O O O O $ $ $ $ # # # # # # # 7 7 2 7 2 1 # # = = = 2 : : : > 3 4 r r s k B W W B k t r > > $ . . . . . . . . . . . . . . . . O o 3 m ^ $./ / W ~ B t f t r r r N n n m g g N m g g f f d d g V [ [ ' [ ^ ] ] ] *.#.S l f r 3 4 4 5 5 5 5 5 y b m C V A N m n b d d V S ] ] ] X.X.o.3.7.e.e.z.z.8.( s > X . . . O O $ O # # # $ $ O @ @ O O $ $ $ $ # $ X $ $ # # # = : 2 r t s B Z S W Q ! _ _ o.o.o.>.7.9.e.x.Y.R.E.Q.~.^.XX:X4X5X5X5X5XpXsXsX6X6X6X5X7X4X3X{.{.'./.m.k.d.B > 3 r d [ ' V = . . . . & P z.n.n.n./.2XB.9 X X =                                                                                                                                                                                                                                                                                                                                     ",
"                                                                                                            2 $ . X : d d n d y r 4 2 : = # # # $ $ O O O O @ @ O O O O O O $ $ $ $ # # # # # # # # # # # # # # # = = 2 2 > > 2 2 4 r r k l Z W Z z k t > > : = O . . . . . . . . . . . . . . . . . O = B $.&._ _ ! ( B k f f t r f N N N N N m N N N n f f d d k S [ [ ^ ] ] *.] ] @.~ S f u r 4 5 6 6 y G y G b n M V V D V n d d n f S ] $.;.%.o.%.3.7.w.e.z.z.j.&.B & X X . . O O O $ $ # # # $ $ $ $ $ O O O $ $ $ O $ $ $ $ o # = 2 4 r d N N B W ~ ( ! / _ _ o.o.o.3.4.7.e.z.N.W.E.E.Q.~.^.XX4X5X5X5X5X6X6X6X6X6X5X5X7X4X;X;X].}.(.m.h.d.S 4 # : r D [ D : . . . X & W h.x.n.x.B.+X*.& $ X 4                                                                                                                                                                                                                                                                                                                                     ",
"                                                                                                            2 $ . X 6 d d d r 4 r 4 2 : # $ # $ O O O O O @ @ @ @ O O O O O O O # # # # # # # # # # # # # # # # # # : > 3 3 > 4 r r r s k z W W W B l d 3 = # O . . . . . . . . . . . . . . . . . . . = ~ -.&.3.%.X.! z l k f f r d k N V D S V N N N f f f d B S ~ ] ^ ~ ] @.*.] ] [ S Z f r r 3 4 6 4 y b n n n m m m N V N n d g m N ^ ] $.&.5.3.7.7.7.e.e.z.h.;.] f X . X O X O O O $ $ # # # # O O O O O O O $ $ $ O $ # # # # = 2 r d m V Z B B B ~ ^ ! ! _ _ X.o.o.3.3.7.w.r.n.Y.T.T.Q.Q.~.'.:X>X5X5X5X5X5X5X6X6X5X7X7X4X;X{.].'.E.N.l.=.Z r # = > N [ S r o X . . > / 9.z.x.z.c.;.t X o o t                                                                                                                                                                                                                                                                                                                                     ",
"                                                                                                            = . . $ 4 d y 2 2 2 4 6 6 : # $ $ O O O O + @ @ O @ @ @ @ @ O O O @ # # # # # # # # # # # # # # # # # = : > > > > > r r s k l B W W Z N r f y = $ X . . . . . . . . . . . . . . . . . . O # N $.%.%.5.5._ K z l k k N l N C B S S S S Z C N g l B ] ] $.$.] ( ] *.*.*.] ' ~ S C t r > 3 2 4 y n N m M m m m N N N n N B ~ ] ] _ &.5.9.w.w.q.q.e.z.h.%.^ B > X X O O O O O O + $ # # # # O O O O O O O $ $ $ $ $ # # = = 2 r y g V S Z S ~ W ( ^ ! ! _ _ o.o.o.3.3.3.7.w.r.n.Y.T.T.Q.~.~.].:X7X5X5X5X5X5X5X5X5X5X7X4X3X{.].'.R.n.k.d.^ d = $ = d V S g : $ X . 9 _ 9.z.n.N.j.K & o $ & d                                                                                                                                                                                                                                                                                                                                     ",
"                                                                                                          # $ . . $ 6 5 2 : 2 2 6 5 2 # O O X X O O O O @ @ @ @ @ @ @ @ @ @ @ @ # # # # # # # # # # # # $ $ # # # = : : > > > > r t k B Z W B B B N r y 5 = $ . . . . . . . . . . . . . . . . . . . . O & s h j %.%.X.! z l l l Z W Z Z S S S S ^ Z B B l E { $.%.&.&.$._ $.$./ *.] ' [ V m m r 3 > 3 r y d N N C C m m N N N f N ~ @.=.%.X.3.4.w.e.e.q.q.q.z.8.( k y = . . O O O O O + # # # # # # O O O O O O O $ $ $ $ # # # : 2 r r d m B ~ ~ ^ ^ W ( ^ ! ! _ _ o.o.%.%.3.4.3.7.e.z.n.F.T.T.!.~.'.;X4X4X>X5X5X5X5X5X5X7X7X4X3X{.}.).R.z.h.g.#.N : $ o 4 f S N 4 # X X 0 / h.z.r.x.z.W & o o & d                                                                                                                                                                                                                                                                                                                                     ",
"                                                                                                          X X . . $ 2 2 # 2 2 2 2 2 + O O O O O O O O @ # @ @ @ @ @ @ O @ @ @ @ # # # # # # 2 = # # # # $ $ # # # = = : > r r r t k l B B E l B l t d : = # . . . . . . . . . . . . . . . . . . . . . . . . X % q j K Q W Q ( W / +./ ~ ~ [ S B ( ( ! X.o.&.8.h.8.5.&.%.$.;.$.( ^ ~ B S N N C g d d d f g n N N N N N N N N N k C ' @.;.&.&.4.7.w.r.r.r.w.7.z.5.B r 3 . . . O O O O O + + # # # # # # @ @ @ $ $ O $ $ $ $ $ # : : 4 r d N l B ~ ( ^ ~ W ( ( / ! ! _ _ o.o.o.o.o.4.7.9.w.r.r.F.T.E.E.~.].;X4X4X5X5X4X4X:X:X4X3X3X*X{.}.).R.h.g.g.@.N : $ $ > g F V y 2 $ X 0 Q 9.w.e.r.m.$.- o o & f                                                                                                                                                                                                                                                                                                                                     ",
"                                                                                                          $ . . . O # # $ # # # # O . . X O O O O $ # # # # # # # @ @ O @ @ @ # # # # # # # 7 = # # # # # $ $ # # = = > 3 r d d f l B B z z l k u > > = $ . . . . . . . . . . . . . . . . . . . . . . . . . . X & 8 w x _ ! X.%.&.&.$./ ( ^ ~ W _ &.3.0.z.9.j.z.j.9.5.-.$.$.] ~ S B N f f N C N N N N N N N N N N m N N N N g N B @.d.f.5.0.w.e.e.r.r.r.e.9.9.&.k - # . . . . O O O O + # # # # # O # O # # # # $ $ $ $ $ # = 2 2 4 y d m N Z W ~ S Z W ( Q Q Q Q ! ) _ _ _ X.o.o.3.3.7.w.t.r.Y.W.T.T.~.'.].;X;X;X;X;X:X;X;X<X{.}.}.}.).M.j.g.;.~ d # $ $ = n F S d : # & 0 W 5.z.z.n.B.-.> o & = t                                                                                                                                                                                                                                                                                                                                     ",
"                                                                                                          o . . . X $ $ $ O O O O O . . X O O O O # # # # # # # # # @ O O O # # # # # 7 = 2 # # # 2 # # # $ $ $ # = = > r r t s f l B l l l l f > & = # O . O . . . . . . . . . . . . . . . . . . . . . . . . . X X 8 x &.o.3.9.9.8.3._ Q / ! $.9.z.z.w.w.7.z.z.9.9.8.-.$.] S S Z N l k k m N N N V V V V N N N N N N m g g g l W =.g.h.h.e.e.r.r.u.u.r.x.9.5.$.f = # O . O . O O O O + # + # # # O O O # # # # $ $ $ $ # : : 2 2 r y d k N Z S Z B B W ( ( Q Q Q Q ! ! ) ! ! _ X.o.%.3.4.7.w.x.Y.Y.W.E.E.~.~.'.'.~.~.'.'.'.'.'.).(.E.R.m.8.$.W k y # # $ o f F S g > = % 0 B &.z.x.M.(.l.u o = = r                                                                                                                                                                                                                                                                                                                                     ",
"                                                                                                          & . . . X O $ O O X X . . . . . . . O O # # # # # # # # @ @ O O O O # # # # # # = # # 2 2 # # # O O $ $ = r r r t f k k B Z B B l k f > & o # O . . . . . . . . . . . . . . O . . . . O O X . . . . . . X * B &.0.e.e.9.4.>.o.) o.o.9.N.N.n.e.q.7.z.z.w.9.8.=.] S B C N l C B N l k N N N V V V V V N N N V g d f s s W -.j.z.z.x.r.u.u.n.u.r.x.h.%.^ C = $ O O $ $ O O $ + $ $ $ # # $ $ # # # # # # # # # # 7 : : 2 > r d y f N V Z B B B W W W W W W W Q W W W W Q / ! _ o.%.3.7.9.w.x.Y.W.E.!.!.!.!.).).E.E.E.E.R.W.n.z.z.h._ x h f 5 # # O $ y F S m > & & 9 x _ 0.z.n.B.k.t $ = = r                                                                                                                                                                                                                                                                                                                                     ",
"                                                                                                            X . . . X X X . . . . . . . . . . O O # # # # # # # # # # # # O O # # # # # # = = 2 2 # # # @ O O $ $ > s s s k C C B S Z B N N g y > = # $ O . . . . . . . . . . . . . . O . . . . O O X X . . . . . . & B -.z.N.x.q.,.<.<.O.>.7.e.n.n.n.n.r.7.9.9.0.&.X.^ Z N k d f l N B B B B B N N V V V V V C N N N N g s s x W 3.z.x.n.n.F.Y.Y.n.n.r.9.g.$.B y # . . . O O O O $ $ $ $ $ $ # $ $ # # # # # # # # # # : 7 : 2 > 3 y y d g g N N C B B B W B z B E W W E E E W W W W Q ) _ o.3.4.w.x.W.R.(.E.E.E.E.R.R.W.n.n.x.z.7.3.%.%.Q h s d 5 7 @ O O y F S f % o & 0 l K I o.9.B.f.r $ = >                                                                                                                                                                                                                                                                                                                                       ",
"                                                                                                            o . . . . X X . . . . . . . . . . O # # # # # # 2 2 2 7 # # # # # # # # # 7 = = 2 2 # # # # # O O # = 4 r s l C Z S S S B C l N r > = # $ O . . . . . . . . . . . . . O . O O O O O O O O O . . . . . . X r $.c.R.R.r.q.q.w.w.e.e.r.x.n.N.M.M.z.0.5.%./ Z f f f s s f l l N Z Z S S Z B Z Z Z Z Z B V N g g s 0 h P X.0.9.e.u.Y.W.Y.Y.n.x.e.5.-.] d = . . . O O O $ O O $ $ $ # # # # # # # # # # # # # # # : # # = : > > 4 y d f g N N l l l l l l z B B B Z Z B B B z z z P Q ! _ >.4.w.z.x.R.W.M.n.x.x.x.z.j.w.9.w.9.3.&.&.{ W l m y 7 @ O O 4 V S N - X X r B a J I 5.h.Z : o = r                                                                                                                                                                                                                                                                                                                                       ",
"                                                                                                            = X . . X X X . . . . . . . . . . O @ @ # 7 2 6 6 6 6 2 7 # # # # # 2 7 # 2 : = # # # # # O O O O = = > s l Z S S S Z B V f g d 3 = # $ . . . . . . . . . . . . . . . O O O O . . O O O O O O O . . . . . X > K 3.r.n.Y.x.r.x.r.e.e.e.r.x.N.x.z.5.&./ W l s f d f f l Z Z W ^ ~ ^ ~ ~ ~ ~ S S S S Z V C l l s q x _ 8.e.e.r.F.Y.W.W.Y.r.e.9.;.] V 3 O . . . X X O $ O O + $ # # # # # # # # # # # # # # # # # # # = = = = > 2 r d d f g t t t f k k k l N N N N N C l l l l z K W Q _ o.6.3.0.9.w.9.0.4.4.0.0.4.9.5.3.o.Q ! / W W S N d 7 @ O O = n S ~ r X X 0 W L a I 5.&.q & # = r                                                                                                                                                                                                                                                                                                                                       ",
"                                                                                                              X . $ # # $ X $ # # $ O . . . . O $ # 2 6 6 6 6 6 2 # # # # # # # 2 # 2 2 1 = # # $ O O O $ $ $ & > r C S S S S B N N f d y 4 = o O O . . . . . . . . . . . . . . . . . . . . X X O O O O O O O . . . . . X ; e U w.W.Y.r.u.r.e.q.q.q.e.z.9.5.%.$.^ ( z h k k N C Z ^ / / ] / ^ / / ' ' ~ ~ S B B C l l l z Q %.5.9.e.t.r.F.Y.W.W.n.u.e.8.$.B 4 o O O . . O O O $ O O $ # # # # # # # # # # # # # # # # # $ $ $ $ = o # # = : > > r u 0 u d d d d d f k N N N N C N l l l z W W Q ) _ _ o.o.o.%.o.O.` ) o.o.o.%.%._ ! Q W B l k k m d 7 # O O o r ~ @.d & & 0 X.o.Q ! X.Q 9 & $ = r                                                                                                                                                                                                                                                                                                                                       ",
"                                                                                                                                  # . . . . . O # 2 6 6 6 6 2 2 # # # # # # # # # # # # = # $ $ O O O O O $ $ = r f Z S ~ S Z C k d y y : = o # O . . . . . . . . . . . . . . . . . . . . . X X O O O O O O O . . . . . . X % w 4.R.R.W.Y.r.q.q.7.7.7.7.3.&._ / ] ^ W B z Z ~ ^ / +.$.$.$.$.$.+.] ] ] ] ^ ~ S Z N k k k W %.h.z.x.r.S.F.Y.W.W.W.n.z.j.-.+.l o X X X . . O O $ # O O # # $ $ # # # # # # # # # # # # # # $ O O O $ $ $ o # # = & & - > 0 r t r t h k k B l x z B W ( / $.$.%.X.o.o.o.o.3.3.o.o.>.>.o.O.O.) ) %.X._ %.%.$.^ l k k n d 7 # $ O o r [ =.l , , q Q &.o.I Q P 0 = $ : d                                                                                                                                                                                                                                                                                                                                       ",
"                                                                                                                                  # O . . . . # 2 6 2 6 6 2 1 = # # + O # = 2 2 # # = = # # # O X X X O $ # = r g N B Z Z B B N d y 3 2 = $ $ O O . . . . . . . . . . . . . . . . . . . . . . O O O O O O O O O X . . . . . . & X./.!.!.T.r.2.7.7.,.>.o.o.! Q / ] ^ / ^ / ^ / +.$.$.&.&.%.%.$.$.$.$.$.*.] ^ ~ Z N k s j _ 9.z.M.Y.Y.G.W.T.E.W.W.N.n.8.+.^ g X X X . . X O O $ $ O O # # $ $ # # # # # # # # # # # # $ $ O O O O $ $ $ # # # & & & > 0 0 s h k z K W Q _ ) _ X.X.&.3.9.z.z.N.M.M.M.n.n.n.n.r.e.e.e.r.n.x.7.4.3.3.&.8.g.h.;.W l k n d 7 # $ $ o y ' d./ s , 0 W &.3.o._ x > o $ :                                                                                                                                                                                                                                                                                                                                         ",
"                                                                                                                                  $ . . . . O # # # # # # # # # $ $ O O # = 2 2 # = = # # $ O . X X O O $ = y g N N B B B N m g d 4 4 = # $ . . . . . . . . . . . . . . . . . . . . . X . X O O O O O O O O O O O . . . . . . . h 9.).).E.F.2.,.,.7.4.o._ Q / +.$.$.X._ _ $.$.$.$.%.&.&.&.&.&.%.%.$.$.;.+.^ S l k l j P %.z.M.W.T.E.Q.E.!.!.W.R.M.j.%.W s > X X X . O O O O O $ # $ # $ $ $ $ # # # # # # # # # # $ O O O O O O O O # = = : > u s B B W ^ ( _ X.3.3.9.e.x.N.N.N.N.n.W.E.!.}.{.;X;XXX].].].~.~.Q.~.~.].}.).Y.e.z.z.z.9.8.h.-.;.] F b 2 # # $ = d ] f.+.h - 0 W %.5.h.h.W 9 X X :                                                                                                                                                                                                                                                                                                                                         ",
"                                                                                                                                  O . . . . O # # # # $ + O O O $ # # # # # 2 1 # # # # $ O O . X X X $ $ = d N C C B l l m d d y 6 = $ O O . . . . . . . . . . . . . . . . . . . . . . X X O O $ $ $ $ + + O O O O . . . X X . & x 9.x.W.W.r.2.t.r.r.4._ $.&.;.$.-.5.%.X.X.$.$.X.%.&.3.3.&.&.&.;.;.$.$.] ~ B t h x P _ 3.z.n.Y.T.!.~.~.E.E.E.M.n.8.$.Z > = $ O O O O O O O O + # $ # # $ $ # # # # # # # # # # # # O O O O O # # = 3 y d g B Z / $.;.&.g.g.9.j.z.M.Y.E.'.).!.!.!.!.'.].].;X4X7X5X>X>X>X>X:X:XXX:X:X:X3X{.E.E.'./.R.M.z.c.c.k.l.d.F G 2 # $ = d ] g.=.k , 0 W %.5.z.c.{ 0 X X :                                                                                                                                                                                                                                                                                                                                         ",
"                                                                                                                                  $ . . . . O # # # + O O O O + # = = 2 6 2 # # # # + $ O O O O X O X $ # : y g N N k f m n y y 2 = $ X X X . . . . . . . . . . . . . . . . . . . . . . O O O # # # # # # # # # $ O O O O O X . X - t L >.u.u.F.Y.Y.t.,.o.o.&.&.h.z.z.3.o.X.X.o.o.o.>.3.3.3.&.&.;.;.;.] ( B N h x P _ &.0.w.e.r.Y.~.~.~.E.R.R.N.9.;./ s o $ O O O O O O O O O + + $ # # # $ # # # # # # # # # # # # $ $ + + # # 2 4 y N B Z / / X.5.8.h.c.c.n.M.R.R.R.E.~.~.!.~.~.~.}.].:X:X>X5X5X5X5X5X5X5X>X>X5X5X>X4X3X].'.'.'.(.R.M.M.m.c.k.f.d.F d 2 # = d ] g.=.l 9 0 W %.5.j.c.;.t o . :                                                                                                                                                                                                                                                                                                                                         ",
"                                                                                                                                  $ . . . O $ # 1 # $ $ O $ $ # = 2 2 6 G 6 # $ # O O . . . . O O O O # = 4 d g d d d d d y y 2 # $ $ . . . . . . . . . . . . . . . . . . . . . . O O O $ $ # # # # # # # # # # # $ O O O O O X X X X X q 3.N.R.W.T.F.q.q.7.7.z././.M.z.w.9.7.4.4.6.6.4.4.4.3.&.&.;.$.] W B B B / $.5.9.z.z.e.r.Y.~.'.!.R.R.R.z.h.-.s & $ O O O O O O O O O O # + + + # # # # # # # # # = = # $ + + $ $ # # = 2 y g V ~ ^ / $.X.%.8.9.h.z.z.N.n.R.E.R.E.E.E.T.E.E.~.~.].;X:X>X>X5X5X5X5X5X5X5X5X5X5X5X5X7X4X{.}.}.}.)./.B.m.B.c.l.f.#.m 2 o = d ] g.$.l t t W o.5.9.l.;.t o . #                                                                                                                                                                                                                                                                                                                                         ",
"                                                                                                                                  o . . . . $ 2 1 $ O O $ $ $ $ # = 2 = 2 = # O . . . . . . . O O O $ # 2 n m f d r d r 4 4 : # $ $ $ . . . . . . . . . . . . . . . . . O . . . . O O O $ $ # # # 7 7 2 2 = = = # # O O O O X X X O O X - / c.M.Y.W.T.E.!.'.E.(.).E.Y.n.Y.E.E.Y.n.e.w.w.7.7.3.%.%.$.$./ B B ~ / &.h.9.0.9.e.x.W.R.E.E.W.Y.R.M.j.g.' > $ O O $ O O O O O @ @ @ # O # # # # # # # # # # # = = o $ $ + + # # 6 y g N B ~ / / X.X.o.&.5.0.9.9.z.n.n.n.Y.W.E.E.W.Y.Y.T.T.~.^.].:X:X>X>X5X5X5X5X5X5X5X5X5X5X5X5X7X4X3X{.{.@X}.(./.M.c.k.l.d.S 4 o % f ^ ;.$.z t 0 x ! o.3.5./ 9 $ X &                                                                                                                                                                                                                                                                                                                                         ",
"                                                                                                                                    $ . X $ # 3 = $ X . $ + O . O $ # # $ + $ O . . . . . . . O O O $ = > y n n y : 3 > : : # $ O O O . . O O O . . . . . . . . . . . . . . . . . O O O $ # # 7 1 2 2 6 6 6 6 6 1 # # $ O O X X X . . O & 0 x Q w.Y.T.T.T.].].}.'.'.E.E.E.!.'.!.W.r.r.e.e.q.7.3.&.$.] ~ B B ( _ 5.z.z.9.7.w.r.Y.E.).R.x.n.R.B.8.$.g = $ O O O O O O O @ @ @ # # # # # # # # # # # # # # = # o $ + + # # = y n B S ~ ( / ! _ _ o.>.3.3.4.7.w.e.x.u.u.Y.W.R.W.Y.Y.Y.Y.T.~.XXXX:X:X>X5X5X5X5X5X5X5X5X5X5X5X5X5X4X3X*X{.[.}.(.W.n.z.j.k.d.' t & - f ^ %.$.W h t h Q _ o.$.z > : o =                                                                                                                                                                                                                                                                                                                                         ",
"                                                                                                                                    o . $ $ # = + $ X X X X . . O $ # # $ $ $ O . . . . . . . O O O $ # = 4 b d 2 $ # o =           # $ O O $ O O . . . . . . . . . . . . O . . O O O $ + # 7 2 6 6 2 6 6 5 y 5 2 2 1 # O X X O O X X O $ X X 9 _ w.x.Y.r.~.'.].].].].].~.'.}.~.T.Y.F.r.t.7.7.5.&.$.( W W ( { &.h.z.z.j.w.w.e.n.E.).R.e.z.M.B.-.^ 4 # # # $ O O O O O @ # # # < # # # # # # # = # # # # # o o # # # # # = y m S ^ ( ( ! _ ) _ _ %.3.3.4.7.7.9.e.r.r.F.Y.Y.Y.Y.Y.Y.Y.T.~.].XX:X:X>X5X5X5X5X5X5X5X5X5X5XpX5X5X:X;X*X}.[._.R.n.x.e.j.k.d.] g > > g ^ -.5.{ B h x / %.%.$.E g d : &                                                                                                                                                                                                                                                                                                                                         ",
"                                                                                                                                    $ X X X $ $ X . . . . X $ + # #                   # O . . O O O O $ # 2 4 2 # $ $                             . . O O O O . . . . . O O . . . O O $ # # # 2 6 6 6 6               2 # O O O O X . . . . $ & q P 8.n.n.W.~.].XXXX].].].].].'.~.E.E.Y.u.q.4.3.%.Q K E ( ! X.5.9.9.w.w.9.7.e.Y.R.(./.x.z.j.g./ d # # # # + + + @ @ # # # # # 7 7 7 # # # = = : = # # # # # $ # # # # # = r m ~ ( ( ! / _ _ _ _ o.o.>.3.4.7.7.w.e.e.r.r.r.n.Y.Y.Y.W.T.~.].].;X:X:X7X5X5X5X5X5X5X5X5X5X5X5X5X:X;X{.}.'.'.E.N.M.z.c.k.f.] g > - d ( -.g.-.^ k B { &.5.*.~ l d # &                                                                                                                                                                                                                                                                                                                                         ",
"                                                                                                                                    o X . O $ $ $ $ $ $ . $                             $ . . . . O X $ $ $ # # # #                                       $ O O . . . . . . . . . O O O + # = 2 6 6 5                     # $ $ O X X O . O . X % 9 Q 3.z.u.E.{.XXXX].XX;X;X].].].~.~.E.E.Y.e.7.o.! P Q _ _ o.5.3.7.w.w.4.,.q.n.W.R.R.m.h.%.l r = O $ @ # + + # # # # # # # # # 2 1 # # 2 2 : = = = # # # # # # # # # # = r B W ( / ! / _ _ ` ` _ _ o.3.4.4.7.7.q.q.q.7.q.r.n.Y.Y.W.T.!.'.'.[.*X;X:X4X7X5X5X5X5X5X5X5X5X5X5X:X;X{.}.}.).E.M.M.z.j.g.=.' g > - t ( ;.5.-./ k B { d.d.] B r : $ &                                                                                                                                                                                                                                                                                                                                         ",
"                                                                                                                                      o $ $ = =                                         # O . . . O X $ O X O $                                               O . . . . . . . . . . . O + # # 2 6                           = # O X . . O O . . . X - x o.,.r.'.{.].].].].XX;X;XXX].'.~.E.E.Y.n.9.%.X.X.o.5.9.9.0.4.9.7.>.,.q.e.Y.R.R.B.h.W > o $ O $ O # # # # # # # # # # = = 2 2 2 2 2 2 2 : = = # # # # + + + # # # = t B ( ( ! _ _ _ _ ` ` _ ` o.>.6.4.7.9.7.7.q.7.7.e.r.n.n.R.E.E.).`.+X@X{.*X;X4X4X7X7X7X7X6X6X7X7X7X4X3X;X{.}.'.R./.`.B.c.k.=.~ f , 9 s ( $.%.-.] k h ] *.*.~ k > $ X &                                                                                                                                                                                                                                                                                                                                         ",
"                                                                                                                                                                                          O . X X X X O O O $                                                 # . . . . . . . . . . X O + # = 6                               : # O O O O X O . . . . ; a o.7.r.W.'.'.].{.;X;X:X;X*X].'.'.'.'.E.x.9.7.7.9.9.z.z.z.9.9.7.4.>.,.w.x.n.M.m.-.r o $ @ O @ O # # # # # # # 7 1 1 2 2 6 6 6 6 6 2 2 : : # # # # # # # # # # # - f Z ( / ! ! _ _ _ _ _ o.o.>.>.3.4.0.7.9.7.7.7.7.7.9.z.N.W.N.z.z.l.g.l.9.7.w.n.M.B./.`.`.`.)./.R.R.n.!.'.'.E.R.R./.`.`.B.k.-.Z 0 - r l B W { f.;.B k C V C f r : $ X &                                                                                                                                                                                                                                                                                                                                         ",
"                                                                                                                                                                                            . X X X X $ $                                                     $ . . . . . . . . . . O O # = 3                                     $ O O O O X . . . . X 9 X.%.6.q.Y.E.'.].;X;X:X;X].].'.~.~.'.E.n.e.x.z.x.e.w.z.z.e.e.w.7.>.,.r.R.R.M.k.] > # # # @ O O # # # # # # 1 1 2 2 2 6 6 6 6 6 6 6 6 : : # # # # # # # # # # = 3 m S ( ( ! ! _ _ _ _ O.O.o.>.>.3.4.4.0.7.7.7.>.>.4.7.w.z.j.&.) P q 0 t 9 w 0 q t h h h h h x K j j a ) 3.9.e.N.z.z.c.B.B.k.d./ s & > N B K $.g.=.S g y r r 4 r 2 o X *                                                                                                                                                                                                                                                                                                                                         ",
"                                                                                                                                                                                              $ O $ X                                                         O . . . . . . . . O . O + # =                                         # $ O X . . . . X . X , x P U <.w.Y.!.].;X3X{.].].'.~.'.'.).E.R.Y.n.n.Y.N.x.z.z.e.w.e.w.e.r.R.R.z.g.Z = # # # # # # # # # # # 1 1 2 2 2 6 5 6 5 5 5 5 5 6 2 : = # # # # # # # # # = 3 V ~ ^ ^ ! ! _ _ _ _ o.o.o.>.>.3.4.4.4.4.4.7.>.o.3.o.o.X./ z e 8 % X & o o & & & & = & & > 0 u u u t x ( ! Q ! $.&.h.k.k.k.d.*.Z & > N B W _ 5.*.B t 4 3 r r y 4 & o >                                                                                                                                                                                                                                                                                                                                         ",
"                                                                                                                                                                                                                                                              # O . . . . . . . . . O $ #                                             # O O . . . . X . . . & w 8 L O.7.E.].{.{.].].}.E.E.E.'.'.'.E.n.r.n.W.W.n.z.e.w.9.z.x.n.Y.R.R.z.! 0 & # # # # # # # # # # # 7 2 2 6 5 5 y y y y 5 5 5 6 2 : = # # # # # # # # # = 3 m S ~ ^ ! ! _ _ X.o.o.o.o.>.%.3.4.4.4.4.7.9.7.X.P z h 9 , * & & & = & & & = = > > , r r r r y y d d f g N t 9 u k / ^ $.d.d.@.[ r > C ( _ $.5.&.^ k - 9 y r r > o *                                                                                                                                                                                                                                                                                                                                           ",
"                                                                                                                                                                                                                                                                # O . . . . . . . X $ =                                                 # $ . . . . . . . . . X % q P 0.R.[.}.E.!.~.~.!.E.E.E.E.!.E.n.r.n.N.M.N.x.e.w.7.w.x.Y.R.E.E.e.P , $ $ $ # # # # # # # # # = 2 6 6 5 y y y y y 5 5 4 6 2 2 # # # # # # # # # # = 6 n S ^ ^ ^ / / _ _ _ _ X._ %.%.3.0.0.6.3.8.8.o.j 9 > = & o & o & & = = = = > > r t s k l Z Z S S S S S N k t r 2 : > 0 t m S ' S r r B ] $.&.5.h.%.B t 0 t u > & X :                                                                                                                                                                                                                                                                                                                                           ",
"                                                                                                                                                                                                                                                                  # O . O . . . O # =                                                     $ X X . . . . . . . . X * 0 _ h.R.n.x.Y.Y.Y.E.~.'.~.T.Y.Y.r.r.e.z.M.m.N.w.7.q.r.n.Y.W.R./.8.a & $ $ $ # # # # # # # # # # 2 6 5 y y d d y y y 5 4 2 2 2 # # # # # # # # # # 2 y V ' ] ^ / / / _ _ _ _ _ ! _ $.5.8.&.X.Q ( z h w & = # # # = = = 3 2 4 r r r r f N Z ^ / $.$.$.+.] *.@.^ B g d 4 > > > 3 4 y n d 4 r k ( $.3.3.9.5.! W N k u % X X >                                                                                                                                                                                                                                                                                                                                           ",
"                                                                                                                                                                                                                                                                    # O O O . . $                                                         $ O X X . . . . . . . X X & w j X.5.7.e.r.Y.E.~.~.!.E.T.W.r.r.e.e.x.z.e.w.w.e.x.n.n.N.n.j.Q 8 & $ $ $ # # # # # # # # 1 1 6 5 y y d d d d y y 5 4 2 2 2 # # # # # # # # # # 2 y V ] @.] / / ! ! / ! _ { W W W ( ^ l t * & & o o = = # # = : 2 4 4 d d g f k N Z ~ +.$.;.;.-.-.&.;.;.=.+.( ~ D d r 4 > = = = = = 2 4 g ( %.8.3.5.5.X./ ^ N 0 % X &                                                                                                                                                                                                                                                                                                                                             ",
"                                                                                                                                                                                                                                                                          O O                                                               $ X X X . . . . . . O $ o % ; q Q / ` 4.Y.E.'.!.!.~.'.!.Y.r.r.r.x.w.4.7.w.r.x.n.N.9.3.+.0 & & $ # # # # # # # # # 1 2 2 4 y y d k g g n n b y 5 6 2 2 # # # # # # # # # # = 5 N [ ] ] ^ / ^ W ~ W ~ W h t u > = & o $ O O # # = = = = 3 4 r y y N N C B S ^ / $.;.&.&.8.8.8.5.5.g.f.;.$.+.F N f m r 2 = = o $ # : d W &.h.8.8.8.%.! ^ N 9 - % 9                                                                                                                                                                                                                                                                                                                                             ",
"                                                                                                                                                                                                                                                                                                                                              $ O X . . . . . O O $ $ o & - 0 t x _ M.(.).!.'.}.}.{.E.r.r.x.x.w.7.4.q.e.x.n.z.8./ h % & & # # # # # # # # 7 2 2 2 2 4 y y f k l N n n d d 5 6 2 2 # # # # # # # # # # = 2 y V S ~ ^ ~ B B B N k r - & & o $ $ $ + O # # # # = 3 2 4 y d g g V Z Z ~ / ] $.%.-.&.5.j.j.h.h.j.k.l.f.-.;.+.Z Z S f r 2 = o $ $ = r Z &.h.j.z.z.h._ ( B 9 - - d                                                                                                                                                                                                                                                                                                                                             ",
"                                                                                                                                                                                                                                                                                                                                                $ O O X . . X O O $ $ $ $ $ o & 0 x j.R.(.!.}.{.{.{.}.W.n.x.x.z.w.7.7.q.x.M.m.g./ t & & = # # # # # # # 2 7 2 2 2 3 4 y d f N N N N n f d y 4 2 2 = # # # # # # # # = = = 2 y d V V N N N N m r = & o $ O O O O # # # # # # : 6 r d d g N C Z ~ ( / $.$.&.5.8.9.9.z.c.z.c.z.k.h.g.-.;.=.] ' ' V f 2 = # $ $ # r B &.9.z.z.z.c.&./ B 0 % -                                                                                                                                                                                                                                                                                                                                               ",
"                                                                                                                                                                                                                                                                                                                                                  # # $ X X O O O O O O O O X X & t %.e.).'.}.{.}.{.{.'.R.x.x.x.e.e.q.q.x.M.m.5.W t = o # # # # # 2 2 2 2 7 2 2 3 4 5 y d g N Z S S N f d y r 6 2 : = = # # # # # # = = = : 2 2 4 r d f d d 4 : # = # # # # # # # # # # # : 2 y d n n N V Z Z ^ ] $.;.&.8.j.z.z.x.m.m.m.m.m.c.j.l.8.;.-.=.@.+.F D y = # $ $ $ > l &.w.M././.M.h.$.~ 0 % >                                                                                                                                                                                                                                                                                                                                               ",
"                                                                                                                                                                                                                                                                                                                                                      # $ $ $ $ # # # O O O X . X * e ` n.).}.'.E.!.'.E.Y.x.r.e.r.x.r.r.x.z.8.( t r = = = = = 2 2 2 2 2 2 2 2 6 4 y y d f n N S S D V n f d y 5 6 2 : = = = = = = = # # = 2 2 2 2 4 r 4 4 2 : : = = # # # # # # 7 2 2 2 2 2 5 d g N N V S Z W ^ +.;.5.8.j.m.M././././.M.M.m.c.z.h.5.&.&.;.@.+.#.F y = # # O $ = t / 9.B.(./.B.j.-.^ 0 % >                                                                                                                                                                                                                                                                                                                                               ",
"                                                                                                                                                                                                                                                                                                                                                            # # # # # # # # # $ o * 8 e &.M.M.R.e.F.Y.r.t.r.t.t.r.Y.u.r.e.9.$.h 9 - = = = : 2 6 6 6 6 6 6 6 6 6 5 y d d n N V S S V V m n f d y 5 6 2 : = = = = = = # # # : 2 2 2 3 3 3 2 2 : : : # # # # # # 7 7 2 6 6 6 6 y d n N V S S ~ ( ] ;.-.g.l.c.M.M./././.M.M.M.m.m.c.h.5.5.%.$.] ] [ S d : # # # $ = 9 P 3.n.M.N.n.h.f.] t * >                                                                                                                                                                                                                                                                                                                                               ",
"                                                                                                                                                                                                                                                                                                                                                                                    - 9 Z -.h.j.7.7.t.q.q.r.F.u.Y.Y.n.x.e.8.( 0 > - > > 2 2 6 6 6 6 6 6 5 6 6 5 y d d f m N V D S D V V m n f d y 5 4 2 2 1 = = = = # # # # 2 2 : : : : : : : : : # # # # # 2 7 2 2 6 6 6 5 y d m V S S ~ ~ / $.-.g.h.j.m.M.B././.B.M.m.M.M.m.z.h.9.5.;.$.] ' [ A n 2 # # # # # > z %.w.n.m.m.j.g.+.t * 9                                                                                                                                                                                                                                                                                                                                               ",
"                                                                                                                                                                                                                                                                                                                                                                                        n l h +.&.>.q.r.r.Y.Y.E.E.Y.n.e.9.$.k 9 > = : 3 2 6 4 4 6 6 6 6 5 6 5 5 y d n n N N N V S D V V N m n d y 5 4 2 2 2 2 = : = # # # # 7 : : : : : : : : : : : = 2 2 2 2 2 2 2 6 6 5 y d d m V S ~ ] / $.;.5.h.j.c.M././././.B.m.m.M.x.z.h.9.9.5.&.;.+.#.[ A n 2 # # # # # = s / &.j.B.M.c.k.*.u % u                                                                                                                                                                                                                                                                                                                                               ",
"                                                                                                                                                                                                                                                                                                                                                                                          : > s K I ` q.Y.T.W.E.!.R.n.9.-.( u : = : 3 6 4 4 4 4 4 4 5 5 5 5 5 y d n m N N N N V S S D V V m n d y 4 2 2 2 2 : : : 7 # # # # # : : : : : 2 2 : : : : : 2 2 2 2 2 6 6 6 6 4 y d g N S S ^ ] $.$.-.g.h.c.m./.`.`.(./.M.m.m.z.9.9.5.5.8.5.&.;.*.] F C y 2 # # # # # = r l / g.k.k.k.k.@.u % r                                                                                                                                                                                                                                                                                                                                               ",
"                                                                                                                                                                                                                                                                                                                                                                                            > 0 w 8 J >.e.W.E.).).R.z.&./ k > = = 2 6 5 5 5 4 4 4 4 4 4 y d d d b m N V V N V D V V D V V m n d 5 4 2 2 2 2 2 2 : 7 # # # # # : : : : : 2 2 : : : : : # 2 2 2 2 6 6 6 6 4 r d g V S ~ ^ ] $.;.g.h.j.m.M./._._._./.m.m.z.9.3.3.3.5.8.5.;.$.+.^ V n 4 # # # # # # = : r B ;.&.-.g.f.[ > * f                                                                                                                                                                                                                                                                                                                                               ",
"                                                                                                                                                                                                                                                                                                                                                                                              r 9 ; w _ 0.m././.M.m.5.Q s > = = = 2 6 5 5 5 5 5 5 5 y y d d d b n m V D D V V S Z S D D V m n y 5 2 2 2 2 2 2 : : : # # # # # : : : : : : : : : : : : 2 2 2 2 2 6 6 6 6 r y d k B S ~ ^ ] $.-.g.l.j.m.M./.`._.`./.M.M.m.z.0.3.5.8.8.5.;.$.] [ N y 2 # # # # # # = = > f ^ ! ! / [ N > > N S                                                                                                                                                                                                                                                                                                                                             ",
"                                                                                                                                                                                                                                                                                                                                                                                                9 & 0 $.&.h.B.B.h.5.Q t > = # # 2 6 6 5 5 5 y y y y d d b b b b m C V D S S S B Z S S V N m n y 5 2 2 2 2 2 2 2 : : : # # # = : : : : : : : : : : : 2 2 2 2 2 2 6 6 6 4 r d f N Z S ~ ^ ] ;.-.h.h.j.c.z.M.R.R./.R.M.m.m.z.j.0.8.8.8.5.%.$.] [ D y 2 # # # # # # = = = 9 s x Z Z N r : r N l                                                                                                                                                                                                                                                                                                                                             ",
"                                                                                                                                                                                                                                                                                                                                                                                                  - > k l E $.$.( h 9 * & # # = 2 6 5 y y d b b b b b b b b b n m m V S S S S B B Z S V m n n y 5 2 2 2 2 2 2 2 2 : : : : : : : : : : : : : : : : : 2 2 2 2 2 6 6 2 6 4 y d g C S ~ ' ] { ;.5.9.9.9.z.z.z.x.M.R.M.x.z.z.m.z.0.8.8.8.5.&.$.' S V d 4 = # # # # = = = = - , q l l g > : > g s                                                                                                                                                                                                                                                                                                                                             ",
"                                                                                                                                                                                                                                                                                                                                                                                                    - - * % * 9 9 > % % = # # : 6 6 5 y y b n n n n n n n n n n n m V S S S S S Z Z S V n n n y 4 2 2 2 2 2 2 2 2 2 2 : : : : : : : : : 2 2 2 2 2 2 2 2 6 6 6 6 4 4 4 4 d d g V S ' ] ] ;.g.h.9.z.z.z.N.z.z.n.R.W.x.z.z.m.z.9.8.8.8.8.;.=.^ S V d 4 1 # # # # = = = % 9 0 0 h C l > : > r t                                                                                                                                                                                                                                                                                                                                             ",
"                                                                                                                                                                                                                                                                                                                                                                                                      & o X X % % & & # # # # : 2 6 5 y d n n f n f f f f f f f m N V S S S S S S S V N f f d 5 4 2 2 2 2 2 2 2 2 2 2 2 2 2 2 2 : : : : : : : : : 3 2 2 6 6 6 6 5 5 y y d d g Z ' ] +.;.g.c.m.N.R.(.(.(.(.(.(.(.).R.M.m.z.j.9.8.5.8.8.-.=.] S N d 4 1 # # # # 2 : > r r 9 u k Z C 0 & * > u                                                                                                                                                                                                                                                                                                                                             ",
"                                                                                                                                                                                                                                                                                                                                                                                                      : o o o o o o o # # # # : 2 6 5 y d d f g m m f f d d d d m V D S S S S ' ~ S S m d d d 4 6 2 2 2 2 2 2 2 2 2 2 2 2 2 2 2 : : : : : : : : > 2 2 6 6 6 5 5 5 y y y d f n S ] *.*.=.l.c.M.R.)._.}.}.[.[.[.[.[.(.R./.M.z.0.3.&.8.h.-.$.^ S N y 6 2 7 7 7 7 2 2 r N N N S C S B 0 * * > t                                                                                                                                                                                                                                                                                                                                             ",
"                                                                                                                                                                                                                                                                                                                                                                                                      : o o $ $ o # # # # # # # 2 2 4 y d d f g m m g f g g f g l V S S S ~ ~ ] [ S V N f d d 4 4 2 2 2 2 2 2 2 2 2 2 2 2 2 2 2 : : : 2 > : : > 2 2 6 6 6 6 5 5 5 y y d f n N S ] *.*.d.h.z.m.R.).[.{.@X@X<X<X{.[.).)././.m.j.9.8.8.8.&.{ ~ S m y 6 2 1 7 7 1 6 y d S [ [ ' S S B 0 % * 9                                                                                                                                                                                                                                                                                                                                               ",
"                                                                                                                                                                                                                                                                                                                                                                                                      2 = # $ $ $ o # # # # # # : 2 2 y y d f n m m N m m m m l N V Z S ^ [ ' @.' S S V m n d y 4 2 2 2 2 2 2 2 2 2 2 : : : : : : 2 4 4 : : : : : 2 6 6 6 5 5 5 5 y y d n m V ~ ] *.$.;.g.h.c.R./.}.[.<X1X<X<X<X[.}.)././.B.c.j.h.g.g.-.$.^ S n 6 2 2 1 2 2 2 2 y N S [ ' #.#.#.S r & * u                                                                                                                                                                                                                                                                                                                                               ",
"                                                                                                                                                                                                                                                                                                                                                                                                      3 # # + $ $ # # # # $ # # # : 2 r d g g g l N N N N N N N N C Z S ^ ' ] @.] ' S V m f d y 4 2 2 2 2 : : : 2 2 : : : : 2 4 5     4 : : : : : 2 2 6 6 4 5 y y y y d f N S [ ] +.$.$.&.5.z.m.R.).).[.@X@X<X@X[._.)./././.m.j.j.l.g.d.*.' S b 6 2 2 2 2 2 2 6 5 n V [ @.d.f.f.[ 3 o -                                                                                                                                                                                                                                                                                                                                                 ",
"                                                                                                                                                                                                                                                                                                                                                                                                      : # # + # # # # # # # # # # 2 6 4 d N N N N N N N N N N l l C Z S ^ ' +.@.+.' S V m d y y 4 6 2 2 2 : : : : : : : : : 3 5         3 : : : = : 2 2 6 4 5 y 5 y y d g V S ' ] +.;.-.5.8.h.z.M./.)._._._.)._._.).).)./.M.M.c.j.l.f.=.*.[ V b 6 2 2 2 2 2 2 6 6 4 n F [ @.f.f.A : X -                                                                                                                                                                                                                                                                                                                                                 ",
"                                                                                                                                                                                                                                                                                                                                                                                                      = # # # # # # @ @ @ # # # # 2 6 4 d N B B B C N C V V B C l l B Z ~ ' ] @.@.' F D m d y y 4 6 2 2 2 > : : 2 : : : : : 3           4 2 : 7 7 # 2 2 6 4 5 5 4 4 y d m D ~ ] ] $.%.&.5.h.h.9.w.z.r.x.N.n.R.).(.R././.R.N.M.c.j.g.;.=.+.S V b 6 6 6 6 6 2 2 2 2 3 4 d N [ #.[ f # X 3                                                                                                                                                                                                                                                                                                                                                 ",
"                                                                                                                                                                                                                                                                                                                                                                                                      = # # # # # # # # # # # # : 2 2 4 y m V S B N N N V V B B l l C Z ~ ^ ] +.@.#.[ S m d r 5 4 6 2 2 2 > : : 2 2 : : : 3 4           4 : : 7 7 # # = 2 6 4 4 5 y y g N S ~ ] +.%.&.&.&.5.9.9.7.7.7.7.7.7.e.W.R.R.(.(.R.M.z.z.h.5.$.*.] S V b 6 6 6 6 6 2 2 2 6 3 2 3 r t r 4 2 = 2                                                                                                                                                                                                                                                                                                                                                   ",
"                                                                                                                                                                                                                                                                                                                                                                                                    5 = # # # # # # # # # # # # : 2 2 3 y m V S B N N N V V C B C l l B S ~ ] +.@.@.' S m d r 4 4 6 2 2 2 > > > 3 3 : 3 3 4             2 : = # # # # # 1 2 6 4 y y d n N S ^ ] $.&.-.5.5.3.5.0.9.7.,.,.,.,.,.q.u.Y.M.N.n.x.e.h.h.-.$.$.] ~ V d 4 2 2 6 6 2 3 4 3 4 4 > 3 r > = # 2                                                                                                                                                                                                                                                                                                                                                     ",
"                                                                                                                                                                                                                                                                                                                                                                                                    2 # # # # # # # # # # # # # # : 2 2 r N V Z B V C N C V V V C C l C Z ~ ' +.@.*.#.F m d 4 4 4 6 2 2 2 > > > 3 3 : 3 3 4             2 = # # # # # # = 2 6 5 y y d N N S ^ ] ;.-.5.g.h.h.z.z.x.n.r.e.q.7.,.7.u.W.n.n.n.z.w.9.9.5.%.{ / ~ A b 5 6 6 2 2 r r r d d y r r g y = = r                                                                                                                                                                                                                                                                                                                                                     ",
"                                                                                                                                                                                                                                                                                                                                                                                                    2 # # # # # # # # # # # # # # : : > r g N Z Z B V C V S S B B B C C V S ' [ ' #.[ F V d 4 4 6 2 2 2 2 > > 2 3 3 : 3 4                 : # # # # # # = 2 4 5 y y d N N S ' +.;.5.h.j.c.m././.).).).).).E.R.Y.W.R.(.).(.R.n.z.9.5.-.;.] [ S n y 4 2 2 3 r k B ~ @.' ~ ~ N d > r                                                                                                                                                                                                                                                                                                                                                       ",
"                                                                                                                                                                                                                                                                                                                                                                                                    2 # # # # # # # # # # # # # 7 2 : > r d l B S S S S S S S S S Z B V C B S ^ [ [ [ F A n 4 6 2 2 2 2 2 2 2 2 3 3 3 4 d                 2 # # # # # # 1 2 6 5 y y d N N S ^ $.;.8.l.c.m./._.}.[.[.{.<X<X<X{.}.}.{.@X<X@X}.(./.c.j.g.f.=.] F n 4 2 3 4 u s Z $.=.k.k.d.~ B k 9 f                                                                                                                                                                                                                                                                                                                                                       ",
"                                                                                                                                                                                                                                                                                                                                                                                                    2 # # # # # # # # # # # # # : 6 2 > r d l V S S S S S S S S S Z Z B C B S ' [ F F F V n 3 2 2 2 2 2 2 2 2 2 3 3 4 d                   2 # # # # # = 1 2 6 5 y y t N B S ^ $.;.g.j.m./.).}.}.[.}.{.<X3X3X3X<X<X3X3X3X<X@X[.`./.B.c.g.d.@.[ M 6 > r d f l / f.k.c.m.l.! ~ k 9 k                                                                                                                                                                                                                                                                                                                                                       ",
"                                                                                                                                                                                                                                                                                                                                                                                                  6 : # # # # # # # # # # # # # : 6 2 3 r d l V V V V S S S S S S S Z Z B Z S ' [ [ F A N f 4 2 2 2 2 2 2 2 2 2 3 3 r                     5 : # # # # = 1 2 6 6 4 r y k B ~ ^ +.;.8.j.m./.).}.}.}.{.{.3X3X4X4X3X3X4X4X4X4X3X@X_.`.B.V.k.g.=.' V 4 > r f l z $.l.B./.(.B.&.W i 9                                                                                                                                                                                                                                                                                                                                                         ",
"                                                                                                                                                                                                                                                                                                                                                                                                  6 : # # # # # # # # # # # # # : 2 6 4 d g N V B C C C B S S S S S S S Z Z S ' ' [ [ F m m d 4 6 2 2 2 2 2 2 2 2 3 y                     b 2 # # # # # 1 1 2 6 6 4 y g C ~ ^ +.;.8.j.m.R.(.).'.}.{.@X3X4X4X4X3X3X4X4X7X7X4X@X_.`./.V.k.g.d.[ V 2 = 4 l B ( %.c./.(./.c._ z t 9                                                                                                                                                                                                                                                                                                                                                         ",
"                                                                                                                                                                                                                                                                                                                                                                                                  2 : # # # # # # # # # # # # # : 2 6 y d m V V V V C C C S S S S S S S S S S S F [ d.#.F N n 4 6 2 2 2 2 2 2 2 2 5                       y 2 # # # # # # 1 2 2 6 4 y g C ~ / $.;.8.j.m.M./.(.'.}.{.{.3X3X3X3X4X4X4X4X7X7X4X3X@X_./.B.c.l.d.[ m : o > B ~ ! 3.m./.R.z.j.5.^ k u                                                                                                                                                                                                                                                                                                                                                         ",
"                                                                                                                                                                                                                                                                                                                                                                                                  2 = # # # # # # # # # # # # # : 2 6 y n N V D V V C N N B S S S D S S S S V V S F #.d.#.[ V y 4 2 2 2 2 2 2 6 4 d                         2 # = # # # # # = 2 6 4 y n V S / $.&.8.j.m.M././.'.}.{.{.3X3X;X3X4X4X4X4X4X4X4X3X[.'.(.B.V.f.+.S d = o r Z ^ ! 5.M./.M.z.m.B.V.B f                                                                                                                                                                                                                                                                                                                                                         ",
"                                                                                                                                                                                                                                                                                                                                                                                                  2 = # # # # # # # # # # # # # : 2 6 y n N V D S S S N m N V V V V S S S S N N N V F [ #.[ F m r 2 2 2 2 2 2 4 5                           6 # # # # # # # = 2 6 4 y n V ~ / $.&.8.j.m.M.R./.).'.}.{.;X3X3X3X4X4X3X3X3X3X3X3X{.}.(.M.k.d.^ N 4 & X r Z ^ X.9.M.(.R.N.M.B.k.W k                                                                                                                                                                                                                                                                                                                                                         ",
"                                                                                                                                                                                                                                                                                                                                                                                                  6 = # # # # # # # # # # # # # : 6 6 y d n N V V V S C N C C N N N V V D N n m n n V A F F D M y 6 2 3 2 2 6 4 d                           5 = = # # # # # = : 2 4 y n V ~ ] $.&.g.j.c.m.M.R.(.'.}.].{.3X3X3X3X4X3X3X<X*X{.{.[.).R.c.f.@.S g 4 = & r Z / &.h.R.[./.r.m.c.-.E l                                                                                                                                                                                                                                                                                                                                                         ",
"                                                                                                                                                                                                                                                                                                                                                                                                  2 : # # # # # # # # # # # # # : 6 4 y d f n m N N V C C C C m f g g g N n f g f n n m V N n m n 4 2 2 2 2 6 5                             y 2 = = # # # # = : 2 2 r d N S ] *.-.g.k.c.m.M.R.E.!.'.}.{.{.{.{.<X<X1X<X<X[.}.'.).m.j.5.{ S N d 4 = - t Z / &.h./.[._.z.9.5.! j B                                                                                                                                                                                                                                                                                                                                                         ",
"                                                                                                                                                                                                                                                                                                                                                                                                  6 : = # # # # # # # # # # # : 2 2 5 y d d d d n N N N C V C n d d d y d d d g f d n d d d y b n y 2 2 2 2 4 y                               2 2 2 = # # # # : : : > y g S ] *.=.g.k.c.m.M.R.R.E.'.'.'.'.).'.}.[.[.[._.).R.R.m.5._ W B g r r > = > t Z / %.j.`.@X[.N.6.o._ j x                                                                                                                                                                                                                                                                                                                                                         ",
"                                                                                                                                                                                                                                                                                                                                                                                                  y 6 2 2 # # # # # # # # 2 2 6 2 2 5 y y y y d n M N N N V N m f d y y r y d n f d d d d d d n y 4 2 2 2 2 y                                 5 6 2 = # # # # # = : : 4 d V ' +.=.f.l.c.m.m.M.R.R.R.E.!.E.R.R././././.B.z.9.8.&.! K l l d r r > & : r l ( _ j.(.@X@X/.z.c.g._ W                                                                                                                                                                                                                                                                                                                                                         ",
"                                                                                                                                                                                                                                                                                                                                                                                                    5 6 6 = # # # # # # 2 6 6 6 6 6 4 4 4 4 5 y d n m N C V N m d d y r 4 y d f d d y y y d d d y 6 2 3 2 5 m                                   4 : = # # # # # = = : > r N S ] $.-.g.k.c.m.M.M.M.n.Y.R.W.N.z.z.z.9.h.5./ W W P z B B B B V n > = : 3 r k E 5.m.B.`.(./.(.B.k.*.                                                                                                                                                                                                                                                                                                                                                        ",
"                                                                                                                                                                                                                                                                                                                                                                                                    y 6 2 2 # # # # # 2 6 5 5 y y 5 4 2 2 6 5 y y d n m N N N n d r 4 4 r r d f d d y y y d d y y 4 3 4 4 n                                     4 2 : : # # # # # = : : 4 d C S ] ;.f.l.j.z.x.m.x.x.z.M.m.j.3.o.X._ / ( z z l z Q *.=.;.=.d.F d 4 2 4 r s h ( &.8.8.h.j.k.l.d.~                                                                                                                                                                                                                                                                                                                                                         ",
"                                                                                                                                                                                                                                                                                                                                                                                                    y 2 2 2 = # # # = 6 5 b b b d d 4 2 2 2 y y d d d n N N N n y 4 > 2 4 r d d d y y y y y d y y 4 4 4 y n                                       6 2 2 2 : : # # = : : 3 r f l W ] ;.5.h.h.h.z.c.v.h.h.8.&.) K L K P P Q _ ;.k.B.+X+X`.B.k.d.A d 2 > 3 r t h W Q ! Q Q ( W W B                                                                                                                                                                                                                                                                                                                                                         ",
"                                                                                                                                                                                                                                                                                                                                                                                                    y 2 = 2 2 # # # 2 5 b b b b b d 4 2 2 4 y y b n d d n N N n y 3 > > 4 r y d d y y y y y y y 4 3 4 y y m                                       y 5 4 2 2 : = # = : : 2 4 y f N ~ ] ;.&.-.5.g.g.g.%._ ! W x x I X.o.9.M.`.@X2X7X6X7X1X+XB.f.F d > & & 3 > 0 t h j h h h h h W                                                                                                                                                                                                                                                                                                                                                         ",
"                                                                                                                                                                                                                                                                                                                                                                                                    y > : 2 : = = : 6 5 b b b b d y 4 4 4 4 y y n n n d d d n d y 3 > > 4 r y d d d y y y y y y 5 2 4 y y                                           n 5 4 2 2 = # # : : 2 4 r d N V S ] +.*.;.;.;.{ ( z K x ! %.m.`.@X1X7X6X7X6X6X6X7X4X1XB.g.' N r : & - > 9 0 w q i j h e i ^ f.                                                                                                                                                                                                                                                                                                                                                      ",
"                                                                                                                                                                                                                                                                                                                                                                                                  d 4 > : : : : 2 5 d d b n n n d y 4 4 4 r y n n m n d d d f y r 3 > > 3 4 r y d d d d d d y y y 4 4 y d                                             y 6 6 2 2 : : : : 2 3 r y n m N N S [ ] ^ ( ( W Q %.h.B.+X1X7X6X6X6XVX6X6X6X6X7X4X1X+XV.d.] N r - - * * w w e j W W W $.k.V.V.k.g.;.$.$.-.g.g.g.d.                                                                                                                                                                                                                                                                                                                                ",
"                                                                                                                                                                                                                                                                                                                                                                                                d r > > 3 2 2 4 y b b n n m m n d d 4 4 4 r y d n m n d d d d y r r > > 3 3 4 r y d d n n d d d y y y b m                                             b 5 6 2 2 : : : : 2 3 4 y d d d d g V ~ ' +.;.k.c.B.@X1X7X6X6X6X6XCXCX6X6X6X7X4X@X_.`.V.g.=.~ N r 0 u t x W $.$.&.g.g.k.B.B.B.V.j.5.&.&.3.8.5.&.$.! / ^                                                                                                                                                                                                                                                                                                                           ",
"                                                                                                                                                                                                                                                                                                                                                                                                y 4 : : 3 2 6 5 b n n n m m m m d d y r r y y y n m n n d d y r r r > > 3 3 3 4 r y d m m f d n b y d n                                                 y 6 6 2 : : : : 2 4 y d y d d g f N ~ =.l.B.+X1X1X2X7X7X7X6X6X6X6X6X6X6X7X7X3X@X+X`.k.-.=.] ' ] ] *.;.-.c.+XB.m.`.`.`.+X+X+X+X`./.(.R.N.N.n.z.0._ ! ( ] d.                                                                                                                                                                                                                                                                                                                      ",
"                                                                                                                                                                                                                                                                                                                                                                                              d r > > 2 6 5 y d b n m m m m m m n d y y r y y d n n g f d r r r r 4 > > 3 4 3 2 4 r d n m n n n n n n V                                                 b 5 6 2 2 : 7 = : 2 r y g N D S V B ^ d.k.B.1X2X7X4X7X7X7X7X6X6X6X7X7X4X3X<X@X_.`.B.l.;.=.g.g.k.k.k.c.m.`._._.@X@X1X1X1X4X4X4X4X4X7X4X1X<X1X1X@X/.m.g.=.{ ]                                                                                                                                                                                                                                                                                                                     ",
"                                                                                                                                                                                                                                                                                                                                                                                              d 5 2 2 6 4 y b b b m m m N N C N m n d d y d f f g g g d r > 4 r r 4 > > > 3 > > > r d n n n n n m m M A                                                   y 4 2 2 : = = = : 3 d S ' ' ' [ S ' =.k.B.@X1X4X4X7X7X7X7X4X4X4X<X{.[.[._.M.z.j.8.5.h.k.V.B.B.B././.).[.{.3X7X7X7X7X7X7X7X7X6X6X6X6X6X6X6X6X7X2X2X@XB.&.( ] *.                                                                                                                                                                                                                                                                                                                ",
"                                                                                                                                                                                                                                                                                                                                                                                            b y 5 6 4 5 y y b n m C V V V A A A D V N N C C N m k f f d d r r r r > 9 > r 4 > > > r 4 d n n n y n M C A                                                     y 6 2 : = = = > r d S @.f.d.@.] #.=.l.B.`.+X<X4X7X7X7X3X@X_./.M.m.z.z.9.o.o.X.$.g.m.B.`.`.`.+X+X@X@X3X4X6X6X6X6X6X6X6X6X6X6X8X8XCX8X8X6X6X6X7X7X2X@X/.f.] ^ ]                                                                                                                                                                                                                                                                                                               ",
"                                                                                                                                                                                                                                                                                                                                                                                            5 4 4 4 5 y d b m M M V A S F F F F A V V S [ [ [ S N f s t s d r 0 0 0 0 r r r r > > > r d n f d y y b n V                                                     b 4 2 : = = = > r l [ d.V.f.=.@.@.=.=.l.B.(.}.}.@X@X[.`.M.8.$./ / _ Q Q Q Q X.;.g.B.`.`.[.+X@X1X3X7X6X6XsXCXCXCXCXCXCXCXCXCXCXCXCXCX8X6X6X6X7X4X2X2X2X+XV.d.*.d.                                                                                                                                                                                                                                                                                                            ",
"                                                                                                                                                                                                                                                                                                                                                                                          y 2 4 4 5 5 d b b M M C V F F F F F S V N V [ ' ' ] ] ^ Z N l f d r r d s d g g n g g d d n V m n n n n n d M V                                                   b 4 2 2 : : > > u l ' d.l.f.=.@.@.*.;.5.h.M.(.R./.)./.B.g.$.W k k z z W X.-.k.B.B.`.+X_.@X<X1X4X7X6XCXCXCXCXCXCXCXCXCXCXCXCXCXCXCXCXsX8X6X6X7X4X4X2X2X@XB.k.l.] ~                                                                                                                                                                                                                                                                                                           ",
"                                                                                                                                                                                                                                                                                                                                                                                        d y 4 4 5 5 y b b M V V V A F F F F F A A V V [ ] ] @.@.+.] ~ ^ S C C Z Z S S [ ' ' ' ' [ S V D D V V n n n d d n V                                                   4 2 2 2 3 2 r u f ' d.f.f.d.=.*.*.;.&.5.z.m.m.m.c.l.$.^ ] Z s h B ^ =.k.B.B.+X+X+X+X+X@X1X4X4X7X6XCXCXCXCXCXCXCXCXCXCXCXCXCXCXCXCXCX8X6X6X7X7X2X3X1X@X+XV.l.' C ~                                                                                                                                                                                                                                                                                                         ",
"                                                                                                                                                                                                                                                                                                                                                                                        y y 5 4 5 y b b n M V V V A F S S V V V N n V [ ] @.@.*.*.@.] *.=.] ] +.+.@.*.=.=.f.f.f.d.@.' ~ S C V C N d d n d n S                                                 4 2 2 2 2 3 r u f [ d.f.f.f.d.d.*.$.$.%.h.h.8.&.$./ W k l l l ^ ;.g.V.B.`.`.`.`.`.`.[.@X1X4X7X6X6XCXCXCXCXCXCXCXCXCXCXCXCXCXCXCXCXCX8X6X6X7X4X1X@X@X@X+XB.V.@.m t                                                                                                                                                                                                                                                                                                         ",
"                                                                                                                                                                                                                                                                                                                                                                                      b 5 5 5 5 y y b n m m V A S F F S V V V V m k S ~ ' *.$.*.=.=.=.=.d.=.=.=.d.f.d.d.d.f.d.=.=.=.@.] ' ~ ~ S S V f S V f C S                                               5 2 6 2 4 4 r y k S @.f.f.g.d.-.;.$.{ { %.$.Q W z W W B E ^ $.f.k.V.B.`.+X_._.[.[.}.[.@X<X7X6X6X6XCXCXCXsXCXCXCXCXCXCXCXCXCXCXCXCX6X6X6X7X4X1X@X+X+X+X+X`.V.=.m 0 N                                                                                                                                                                                                                                                                                                       ",
"                                                                                                                                                                                                                                                                                                                                                                                      y 5 6 5 5 y y b n m V D S F F F S V V V S S S S S ' +.$.=.=.=.=.-.f.d.f.d.g.g.l.g.g.=.;.$.;.=.=.;.;.;.*.] ] @.S S C f l B S                                             5 5 6 4 r y y t m ~ @.d.g.g.g.f.-.;.$./ ] ^ B k l B W ( / -.g.c.B.B.`.+X+X+X+X[.[.[.<X<X3X7X6X6X6X8X6X6X6X8X8X8X8XCXCXCXCXCXCXVX6X6X7X4X<X[._./.M.m.m.c.c.k.+.n > t                                                                                                                                                                                                                                                                                                       ",
"                                                                                                                                                                                                                                                                                                                                                                                    5 5 6 6 6 5 y d n n N V S F F F F F S S S F [ S S S ' +.*.=.=.;.=.d.g.g.g.g.g.g.g.d.-.;.;.;.;.-.d.f.l.l.l.l.g.f.*.^ B B N k B S S                                         y 5 6 2 4 r d m B [ @.d.l.k.k.g.g.-.;./ / ] ^ W E W / ;.f.l.k.B.(.`.`.+X@X@X1X1X<X1X3X4X4X7X7X7X6X6X6X7X7X7X6X6X6X6X6X6X6X6X6X6X4X1X@X[.`.R.m.z.j.9.8.5.5.=.^ f - 0                                                                                                                                                                                                                                                                                                       ",
"                                                                                                                                                                                                                                                                                                                                                                                    5 5 6 6 6 5 y y n m V A F [ [ [ [ [ ' [ ] #.@.+.S Z ] / +.+.] ] $.-.f.g.g.g.-.=.;.$.{ $.$.$.$.;.f.l.k.V.V.B.V.c.h.g.;.{ ^ C k N B V                                       5 4 2 2 3 r f B S ] =.f.l.k.k.k.h.5.-.*.] ( ^ ] $.%.&.g.k.k.c.m.`.`.`.+X<X1X1X4X4X7X7X4X7X6X6X6X7X7X4X3X<X<X3X4X4X4X7X4X4X1X1X[._.`.(.B.m.z.8.5.&.%.$./ ] ] B t - r                                                                                                                                                                                                                                                                                                       ",
"                                                                                                                                                                                                                                                                                                                                                                                  5 5 6 6 6 6 4 5 y n C D F F [ [ ' [ [ ] #.@.@.*.+.^ ~ ~ ^ ^ ^ ~ ( ^ ] ;.-.d.;./ W E W ( / ] $.;.-.g.l.k.m.B.B.B.B.B.B.m.k.d.{ ( B l l B                                     y 2 2 2 4 r f S S ] =.f.k.k.k.k.k.g.5.;.$.( / _ ;.5.8.l.c.m.B.B.(.[.@X<X1X1X4X4X7X7X7X6X6X6XVX6X6X7X4X*X{.}.[.[.[.[.[.[.[.`./.M.M.m.c.h.g.&._ / ^ ( W W S S m r 3 u                                                                                                                                                                                                                                                                                                       ",
"                                                                                                                                                                                                                                                                                                                                                                                  5 5 6 4 4 4 4 5 y n V A F F [ [ ' ' ] @.d.d.*.*.@.] ~ S ^ ^ ^ ~ B B B ~ ^ ] ^ B h x l z ^ +.;.=.f.g.k.k.m.B.(.`.(.(.(.(.B.c.l.g.%.Q z l S V                                 d 2 6 6 4 y f B ~ ] ;.g.k.k.k.k.k.l.g.g.-.%.;.&.g.l.k.B.B.`.`.`.`.+X@X<X<X1X4X7X7X7X6X6X6XVXVX6X6X7X4X<X{.'.).(./.M.M.M.B.M.j.8.5.5.&.&.$.^ W l l k k k k k y r 9 3 n                                                                                                                                                                                                                                                                                                     ",
"                                                                                                                                                                                                                                                                                                                                                                                d 5 6 6 6 6 4 4 5 y m V S F [ #.#.#.@.*.*.*.=.=.*.*.+.] ^ ] ' ' ^ ~ B B B S B s s h l k k W *.d.d.f.l.k.c.B./.`.+X`.`.`.(.(.(./.B.c.9.%./ ~ N N                               d 4 4 4 4 y n S ' $.f.k.c.c.m.c.c.c.k.h.h.8.h.h.k.V.B.`.`.`.+X+X+X[.[._.[.<X4X7X6X6X6X6XCXCXCXCX6X7X3X*X[._.`.(.m.j.h.h.h.8.&.$.$./ / ^ W B k s d t r r r r r r r 3 n                                                                                                                                                                                                                                                                                                     ",
"                                                                                                                                                                                                                                                                                                                                                                                y 6 6 6 6 6 6 4 5 y n V F F [ #.#.@.@.*.=.d.d.d.=.;.$.+.] ] ] ] ] ^ B k k l k k t q h h k Z +.=.d.g.k.c.B./.`.+X+X+X+X+X`.`.`.`.`./.M.h.%./ ~ ^ S C                         b d 5 5 4 y y N ~ ] ;.h.c.c.V.B.B.c.c.j.8.8.h.j.j.c.B.B.`.`.`.[.+X+X[._.).}.@X4X4X6X6X6X6XCXCXCX6X6X7X<X}.}./.M.k.5.%.$.$.$.$./ ^ ( ~ Z B N f r r 4 3 3 3 4 4 3 3 3 3 n                                                                                                                                                                                                                                                                                                     ",
"                                                                                                                                                                                                                                                                                                                                                                                y 6 2 2 2 6 6 4 5 d n V F F F [ #.#.@.*.d.f.f.f.d.=.;.$.+.] ] ] ] ] Z l k l k k s h h s h W ^ +.d.l.c.m.B.(.`.`.`.+X+X+X`._././.`./.m.z.8.&.$.+.S S V                       d y 5 5 5 y y C ' *.d.k.c.c.B.B.B.B.c.z.9.9.j.z.c.c.m.B.(.`.`._.[.[.[.[.[.}.{.3X4X4X6X6X6X6X6X6X6X4X3X[.(.M.c.k.5.$.( W ~ ~ ~ Z B B C N g t r 3 > > 3 3 3 3 3 3 3 3 3 n                                                                                                                                                                                                                                                                                                     ",
"                                                                                                                                                                                                                                                                                                                                                                              y 6 6 6 6 6 6 6 2 4 y m V A F S F ' #.@.d.f.f.f.f.f.d.d.=.*.*.*.@.] ] ~ Z S S B N N Z Z l Z ] / $.g.k.c.B.B.`.`.`.+X+X+X+X+X+X_._._.`.M.m.j.8.8.=.' S N N                     y y 5 4 5 y d S ] *.g.c.c.B.B.B.B.B.c.c.z.z.z.z.c.c.M.B.(.(.(.`._.}.}.[.[.[.{.<X3X4X7X6X6X6X6X6X4X<X[.`.M.c.l.f.;.^ l k k m k k k f d d t r 3 : : : > 3 3 2 2 2 3 > 3 n                                                                                                                                                                                                                                                                                                     ",
"                                                                                                                                                                                                                                                                                                                                                                              5 2 2 2 2 2 2 2 2 6 y n C A A A S [ ' d.f.f.d.f.d.d.d.d.*.*.*.*.@.+.] ^ ^ ~ ~ ~ ~ ^ ^ ^ ( ^ $.$.f.k.k.c.B.B./././.`.+X+X+X+X@X@X+X_.`.(.B.c.h.l.k.=.~ l g N                 d y 5 4 4 5 4 d S ' =.g.c.c.B.B.B.B.B.c.c.z.z.z.h.h.c.m.B.`.`._.).)._.}.}.}.[.[.<X3X4X4X7X7X4X4X1X@X+X`.m.k.g.=.*.^ B k t t t r r r r r 3 > > > > : : > : : : : : : - 3                                                                                                                                                                                                                                                                                                       ",
"                                                                                                                                                                                                                                                                                                                                                                              4 2 : 2 2 2 2 2 2 6 y b n M M V V S ~ @.d.=.;.d.=.;.*.*.@.@.*.*.*.$.+.] ^ ( ~ ~ ( +.$.+.$.;.;.8.k.V.V.V.B.B.B.B./.`.+X+X+X@X@X@X@X@X@X+X(.B.c.j.l.-.$.Z l l g               d 5 6 4 6 5 y d N ' =.l.c.B.B.B.B.B.B.m.c.z.z.z.9.h.j.m.B.`.[.@X@X@X@X[.@X1X1X1X1X4X4X1X<X1X<X[.`.B.m.l.-.$.^ W B t u u r r 3 3 3 3 2 2 3 2 2 2 3 > : : : : : : : : > r                                                                                                                                                                                                                                                                                                       ",
"                                                                                                                                                                                                                                                                                                                                                                              6 2 2 : 2 2 : : 2 2 5 d n n n n n V S ' @.] ] =.] ] ] @.] ] +.$.*.=.*.+.^ ~ W ( / ;.=.=.d.g.g.g.k.c.V.B.B.B.B.B.`.`.+X+X@X@X1X1X1X1X1X@X+X(.B.m.j.g.-.+.D l g N           d y 5 4 4 6 5 y d N ~ $.g.c.B.M.m.M.M.m.m.k.j.z.z.9.9.j.m././._.@X@X@X@X@X1X1X1X1X1X1X1X@X+X`.B.k.8.;.$./ W B k t r > > = > 3 : : : 3 2 2 2 2 2 2 2 > > : : : : : : : > r                                                                                                                                                                                                                                                                                                       ",
"                                                                                                                                                                                                                                                                                                                                                                              6 2 2 2 2 = = : 2 2 6 5 d b d b y d V [ ' ] ] ] ] ] #.#.' ' ' ] *.=.*.] ( W W ^ ] $.-.g.g.g.k.k.m.V.B.B.`.+X+X`.+X+X+X+X@X1X1X1X1X1X1X1X@X@X`./.V.k.f.=.#.B g N V         d 4 4 4 6 6 5 y d l B ^ -.k.B.m.z.z.z.z.j.h.j.z.9.0.9.h.c.M.(.`._._.+X+X+X@X@X+X+X+X+X`.V.k.&./ ( W z k s u 3 3 > = = = : : : : : : 2 2 2 2 2 2 2 2 > > > > > > : : : 3 d                                                                                                                                                                                                                                                                                                       ",
"                                                                                                                                                                                                                                                                                                                                                                              5 6 2 2 1 = 2 2 2 2 2 2 6 5 5 y y y n m V S S S S S S S S S S ~ ' +.+.] ^ ( ^ ] *.=.-.g.g.l.V.B.B.B.`.`.`.+X+X+X+X+X+X@X@X1X1X1X1X1X1X1X1X1X@X`.B.B.k.d.+.S B D D N n   d y 4 4 4 4 6 5 5 y d g B +.-.h.8.h.h.8.h.g.g.h.8.9.8.8.9.j.c.B.B.B./.B.B.B.V.V.k.l.f.d.*.] ( l s t u u 9 > : : : = = = = : 2 : : : : 2 2 2 2 2 2 2 3 > > > : > > : : > y                                                                                                                                                                                                                                                                                                         ",
"                                                                                                                                                                                                                                                                                                                                                                                5 6 2 2 2 = 2 2 2 2 2 6 6 6 6 6 6 5 y y d d f n n n m N N V Z S ^ ] ^ W ^ ] ] *.f.g.l.k.k.V.B.V.B.B.`.`./.+X+X+X+X+X@X@X@X1X1X1X1X1X1X1X1X1X@X+X+XV.l.=.#.S D N N g d d 4 3 4 4 4 6 6 5 y y d N ~ +.$.&.8.8.5.g.f.-.=.%.%.&.&.&.-.8.g.k.g.g.d.=.=.;.] ] ~ B m k s u 0 > > > > : = = 1 2 2 2 2 2 1 2 2 2 2 2 2 2 2 2 2 2 2 2 2 > > > 2 3 2 2 4                                                                                                                                                                                                                                                                                                           ",
"                                                                                                                                                                                                                                                                                                                                                                                  6 2 2 : : 2 6 2 2 2 6 6 2 4 6 2 2 6 4 5 y y y y d d f m N C Z Z ~ ' ^ ' ] +.=.f.k.k.k.V.V.k.k.c.V.B.B.B.`.+X+X+X@X@X@X1X1X1X1X1X1X1X1X1X1X1X1X+XB.V.l.=.^ D V N g d y 4 3 4 4 4 6 6 5 4 r y m Z ~ / / ;.-.=.$.+./ +./ / +./ ! ( ( W B l k t t f f t t r r 3 > = = : : : : : : : = 1 1 2 2 2 : : : 2 : : 2 2 2 2 2 3 2 2 2 2 2 3 3 2 4 5 5                                                                                                                                                                                                                                                                                                             ",
"                                                                                                                                                                                                                                                                                                                                                                                  G 4 2 2 2 2 2 2 2 2 2 2 : 2 : : 2 2 6 6 6 4 4 4 4 4 y d g g N D S ~ +.' ^ @.=.d.l.k.V.B.B.c.V.k.k.m.m.B.B.B.`.+X+X+X@X@X@X1X1X1X@X@X1X@X@X@X+X+X+XB.k.f.' V N g d d d y 4 4 4 4 6 6 4 4 4 r f V Z Z B Z Z Z N N Z S Z C l l k s t 0 , : : : : 3 4 r 5 4 6 2 : : : : : 2 : : : 2 2 2 2 2 2 2 2 2 2 2 2 2 2 2 2 2 2 2 2 2 2 6 4 5 y 5 5 m                                                                                                                                                                                                                                                                                                               ",
"                                                                                                                                                                                                                                                                                                                                                                                    6 6 2 2 6 6 2 2 2 2 2 2 : = 2 2 2 6 6 6 6 6 6 6 4 y y r g N S ^ ' #.@.#.@.=.d.f.l.V.V.V.c.k.h.l.h.h.c.B.B.B.B./.`.`.`.`.+X+X+X`.+X+X`.`.+X+X+XB.B.V.f.' N d d d d d d d d 5 4 6 6 4 4 4 y d f f d d d d d d y d d r r r r 4 4 > > 2 : : 2 2 6 6 6 4 6 6 2 2 2 : : : 2 : : : 2 2 2 2 2 2 2 2 2 2 2 2 2 2 2 2 2 3 2 2 6 6 5 5 5 y y y                                                                                                                                                                                                                                                                                                                 ",
"                                                                                                                                                                                                                                                                                                                                                                                      5 6 6 6 6 2 2 2 2 2 2 1 1 2 6 6 4 4 4 6 6 2 2 6 4 r r r l D [ ' +.#.' ] +.+.=.g.V.k.k.k.k.g.5.-.&.5.k.m.m.V.m.m.V.B.B.B./.B.B.B.B.B.B.B.B.B.B.V.l.d.^ N r r d d d n b b 5 5 6 4 4 4 5 y y y 4 4 4 4 4 4 4 2 2 2 : : > : > > : : 2 2 2 7 2 6 6 6 6 6 6 6 2 2 2 2 : 2 2 : 2 2 2 2 2 2 2 6 6 6 6 6 6 2 2 2 2 : : 2 2 4 4 5 b y b                                                                                                                                                                                                                                                                                                                     ",
"                                                                                                                                                                                                                                                                                                                                                                                        5 6 5 6 6 6 6 2 2 1 1 2 6 6 5 5 5 5 5 6 2 2 4 4 3 4 r r g N V S S S B Z ~ ~ @.d.l.l.l.V.l.=.;.$.$.=.-.f.f.g.g.g.g.h.l.k.g.g.f.5.5.f.g.g.l.f.f.*.' B g d d d d d d n b d 5 6 4 6 4 4 4 5 5 4 4 4 6 2 2 2 2 2 2 : 2 2 2 2 2 : : 2 2 7 2 2 2 6 6 6 6 6 6 6 6 2 2 2 2 2 2 2 6 6 2 2 2 6 4 4 4 4 4 4 4 4 2 2 : : : 3 4 4 y                                                                                                                                                                                                                                                                                                                           ",
"                                                                                                                                                                                                                                                                                                                                                                                          5 5 5 6 6 6 2 2 1 2 2 6 5 5 5 5 y y 5 5 5 5 4 4 4 r r r d f n m N N k k m V S ' @.@.@.@.#.+.+.@.*.*.=.=.=.=.=.*.$.*.=.=.*.*.+.] +.*.@.#.] ' S V N n n n n     b n b b d 5 5 4 4 4 5 5 5 6 6 4 4 2 2 2 2 2 2 2 2 2 2 2 2 2 2 2 2 2 2 2 6 6 6 6 6 6 6 6 6 6 6 6 6 2 2 2 6 5 5 5 5 5 5 5 5 5 5 5 5 5 4 2 2 2 3 4                                                                                                                                                                                                                                                                                                                                 ",
"                                                                                                                                                                                                                                                                                                                                                                                            y 5 5 6 6 6 2 2 2 6 5 5 5 G b b M M m d 4 4 4 4 4 4 4 4 4 4 4 4 4 y d n m N V V V V V V V S S S [ [ [ [ [ [ F S S S F S S S S S S A V V C m n n n n m m         b b b y 5 5 4 6 6 5 5 6 6 4 4 2 2 2 2 2 2 2 2 2 2 2 2 2 2 2 2 2 2 2 6 6 6 6 6 6 5 5 5 5 5 5 5 5 4 6 5 y b b b b b d G d d                                                                                                                                                                                                                                                                                                                                                   ",
"                                                                                                                                                                                                                                                                                                                                                                                                y 5 5 6 6 6 5 5 5 5 y G b M M M m y 4 4 4 4 4 6 6 2 2 2 2 : : : 2 2 4 y y y y y y y y y d n n n n n n n n d d d d f f f f n n n n b n n b b n n n               b d y y 5 5 5 5 5 5 6 6 4 4 6 6 6 6 6 6 6 6 6 6 6 6 6 6 6 6 6 6 6 6 6 6 5 5 5 5 5 y y 5 5 b y                                                                                                                                                                                                                                                                                                                                                                           ",
"                                                                                                                                                                                                                                                                                                                                                                                                  5 5 5 5 5 5 y d b b G G G G b 5 6 2 2 2 2 2 2 2 2 2 2 2 2 2 : : 2 2 6 5 4 6 6 6 6 6 6 4 5 5 5 y y y y y 4 4 4 4 r d d d d d b b b d b b b n                         5 d b G b 5 5 5 5 5 5 5 6 6 6 6 6 6 6 6 6 6 6 6 6 6 6 6 6 6 6 6 5 5                                                                                                                                                                                                                                                                                                                                                                                               ",
"                                                                                                                                                                                                                                                                                                                                                                                                        5 y y b b b b G 5 5 5 5 4 6 2 2 2 2 2 2 2 2 2 2 2 2 2 2 2 2 2 6 6 2 2 2 2 2 2 6 6 4 5 5 5 5 5 y y 4 4 5 5 4 y d d d y d d y d b b b                                       5 5 5 d b d d 5 5 5 5 5                                                                                                                                                                                                                                                                                                                                                                                                                               ",
"                                                                                                                                                                                                                                                                                                                                                                                                                  b b b b 5 5 5 4 5 4 6 6 6 2 2 2 2 2 2 2 2 2 2 6 6 6 6 2 2 2 2 6 4 6 6 4 4 4 5 5 5 5 5 5 4 4 5 5 y d d d d d b b b b b                                                                                                                                                                                                                                                                                                                                                                                                                                                                                                 ",
"                                                                                                                                                                                                                                                                                                                                                                                                                        b y y 5 5 5 4 6 6 6 6 6 6 6 2 6 6 4 4 4 4 6 6 4 4 4 4 4 4 4 4 4 4 4 5 4 5 5 5 5 5 5 y y y d d d f d d b b                                                                                                                                                                                                                                                                                                                                                                                                                                                                                                       ",
"                                                                                                                                                                                                                                                                                                                                                                                                                                  5 4 4 4 4 5 4 4 4 6 6 4 5 5 5 5 5 5 4 4 4 4 4 4 4 5 5 5 5 5 5 5 y 5 5 y y y d d d d                                                                                                                                                                                                                                                                                                                                                                                                                                                                                                                   ",
"                                                                                                                                                                                                                                                                                                                                                                                                                                                                                                                                                                                                                                                                                                                                                                                                                                                                                                                                                                                                                                        ",
"                                                                                                                                                                                                                                                                                                                                                                                                                                                                                                                                                                                                                                                                                                                                                                                                                                                                                                                                                                                                                                        ",
"                                                                                                                                                                                                                                                                                                                                                                                                                                                                                                                                                                                                                                                                                                                                                                                                                                                                                                                                                                                                                                        ",
"                                                                                                                                                                                                                                                                                                                                                                                                                                                                                                                                                                                                                                                                                                                                                                                                                                                                                                                                                                                                                                        ",
"                                                                                                                                                                                                                                                                                                                                                                                                                                                                                                                                                                                                                                                                                                                                                                                                                                                                                                                                                                                                                                        ",
"                                                                                                                                                                                                                                                                                                                                                                                                                                                                                                                                                                                                                                                                                                                                                                                                                                                                                                                                                                                                                                        ",
"                                                                                                                                                                                                                                                                                                                                                                                                                                                                                                                                                                                                                                                                                                                                                                                                                                                                                                                                                                                                                                        ",
"                                                                                                                                                                                                                                                                                                                                                                                                                                                                                                                                                                                                                                                                                                                                                                                                                                                                                                                                                                                                                                        ",
"                                                                                                                                                                                                                                                                                                                                                                                                                                                                                                                                                                                                                                                                                                                                                                                                                                                                                                                                                                                                                                        ",
"                                                                                                                                                                                                                                                                                                                                                                                                                                                                                                                                                                                                                                                                                                                                                                                                                                                                                                                                                                                                                                        ",
"                                                                                                                                                                                                                                                                                                                                                                                                                                                                                                                                                                                                                                                                                                                                                                                                                                                                                                                                                                                                                                        ",
"                                                                                                                                                                                                                                                                                                                                                                                                                                                                                                                                                                                                                                                                                                                                                                                                                                                                                                                                                                                                                                        ",
"                                                                                                                                                                                                                                                                                                                                                                                                                                                                                                                                                                                                                                                                                                                                                                                                                                                                                                                                                                                                                                        ",
"                                                                                                                                                                                                                                                                                                                                                                                                                                                                                                                                                                                                                                                                                                                                                                                                                                                                                                                                                                                                                                        ",
"                                                                                                                                                                                                                                                                                                                                                                                                                                                                                                                                                                                                                                                                                                                                                                                                                                                                                                                                                                                                                                        ",
"                                                                                                                                                                                                                                                                                                                                                                                                                                                                                                                                                                                                                                                                                                                                                                                                                                                                                                                                                                                                                                        ",
"                                                                                                                                                                                                                                                                                                                                                                                                                                                                                                                                                                                                                                                                                                                                                                                                                                                                                                                                                                                                                                        ",
"                                                                                                                                                                                                                                                                                                                                                                                                                                                                                                                                                                                                                                                                                                                                                                                                                                                                                                                                                                                                                                        ",
"                                                                                                                                                                                                                                                                                                                                                                                                                                                                                                                                                                                                                                                                                                                                                                                                                                                                                                                                                                                                                                        ",
"                                                                                                                                                                                                                                                                                                                                                                                                                                                                                                                                                                                                                                                                                                                                                                                                                                                                                                                                                                                                                                        ",
"                                                                                                                                                                                                                                                                                                                                                                                                                                                                                                                                                                                                                                                                                                                                                                                                                                                                                                                                                                                                                                        ",
"                                                                                                                                                                                                                                                                                                                                                                                                                                                                                                                                                                                                                                                                                                                                                                                                                                                                                                                                                                                                                                        ",
"                                                                                                                                                                                                                                                                                                                                                                                                                                                                                                                                                                                                                                                                                                                                                                                                                                                                                                                                                                                                                                        ",
"                                                                                                                                                                                                                                                                                                                                                                                                                                                                                                                                                                                                                                                                                                                                                                                                                                                                                                                                                                                                                                        ",
"                                                                                                                                                                                                                                                                                                                                                                                                                                                                                                                                                                                                                                                                                                                                                                                                                                                                                                                                                                                                                                        ",
"                                                                                                                                                                                                                                                                                                                                                                                                                                                                                                                                                                                                                                                                                                                                                                                                                                                                                                                                                                                                                                        ",
"                                                                                                                                                                                                                                                                                                                                                                                                                                                                                                                                                                                                                                                                                                                                                                                                                                                                                                                                                                                                                                        ",
"                                                                                                                                                                                                                                                                                                                                                                                                                                                                                                                                                                                                                                                                                                                                                                                                                                                                                                                                                                                                                                        ",
"                                                                                                                                                                                                                                                                                                                                                                                                                                                                                                                                                                                                                                                                                                                                                                                                                                                                                                                                                                                                                                        ",
"                                                                                                                                                                                                                                                                                                                                                                                                                                                                                                                                                                                                                                                                                                                                                                                                                                                                                                                                                                                                                                        ",
"                                                                                                                                                                                                                                                                                                                                                                                                                                                                                                                                                                                                                                                                                                                                                                                                                                                                                                                                                                                                                                        ",
"                                                                                                                                                                                                                                                                                                                                                                                                                                                                                                                                                                                                                                                                                                                                                                                                                                                                                                                                                                                                                                        "
};
