/* XPM */
static char *_3bcd277a5bb4310f1e9dcc5d6f9630bICHq3EDKaXQg257c[] = {
/* columns rows colors chars-per-pixel */
"500 500 256 2 ",
"   c None",
".  c #030202",
"X  c #0A0503",
"o  c #0C0906",
"O  c #060608",
"+  c #090708",
"@  c #070809",
"#  c #0B0A0A",
"$  c #070807",
"%  c #120602",
"&  c #130A05",
"*  c #1B0C05",
"=  c #130D0B",
"-  c #1A0E0A",
";  c #190602",
":  c #15110D",
">  c #1B130C",
",  c #1C1207",
"<  c #0E0E11",
"1  c #130E11",
"2  c #141312",
"3  c #1B1513",
"4  c #1D1915",
"5  c #1D1B1A",
"6  c #181718",
"7  c #0E1110",
"8  c #240D05",
"9  c #23140B",
"0  c #24190D",
"q  c #2B1B0C",
"w  c #281407",
"e  c #331C0C",
"r  c #371A07",
"t  c #231B14",
"y  c #2B1D13",
"u  c #231D1B",
"i  c #261814",
"p  c #331D14",
"a  c #320C0E",
"s  c #39220D",
"d  c #2D2115",
"f  c #25211C",
"g  c #2B231C",
"h  c #2B261B",
"j  c #332314",
"k  c #3A2514",
"l  c #33251B",
"z  c #34291D",
"x  c #3B2B1C",
"c  c #3B2817",
"v  c #372B19",
"b  c #2C2522",
"n  c #2E2923",
"m  c #262322",
"M  c #342B23",
"N  c #3A2D23",
"B  c #342D29",
"V  c #362925",
"C  c #3C3125",
"Z  c #3C332B",
"A  c #373129",
"S  c #3D3632",
"D  c #321B25",
"F  c #461B0D",
"G  c #47270B",
"H  c #432B14",
"J  c #422D1B",
"K  c #492B15",
"L  c #44311D",
"P  c #4B341C",
"I  c #4B3317",
"U  c #56381A",
"Y  c #562D0F",
"T  c #673916",
"R  c #442C24",
"E  c #433324",
"W  c #4A3623",
"Q  c #4D3925",
"!  c #43362B",
"~  c #45392C",
"^  c #4C3B2C",
"/  c #483728",
"(  c #533C24",
")  c #523E2B",
"_  c #593C24",
"`  c #443B32",
"'  c #4B3E32",
"]  c #443935",
"[  c #523C33",
"{  c #532831",
"}  c #6B352F",
"|  c #481D2B",
" . c #68441C",
".. c #744819",
"X. c #5C4225",
"o. c #55412D",
"O. c #5B442C",
"+. c #5A452A",
"@. c #4D4134",
"#. c #4C4239",
"$. c #544333",
"%. c #5A4633",
"&. c #5D4934",
"*. c #53453A",
"=. c #5C4B3B",
"-. c #56483A",
";. c #524532",
":. c #62462B",
">. c #644A2D",
",. c #6B4C2C",
"<. c #674725",
"1. c #744C28",
"2. c #6C512D",
"3. c #77542C",
"4. c #644C33",
"5. c #6A4E33",
"6. c #624E3A",
"7. c #664A36",
"8. c #6C5234",
"9. c #65513C",
"0. c #6B543B",
"q. c #6B563A",
"w. c #735534",
"e. c #7B5B34",
"r. c #72563A",
"t. c #745A3C",
"y. c #7B5C3B",
"u. c #775735",
"i. c #774937",
"p. c #7D613C",
"a. c #5B411D",
"s. c #552B4A",
"d. c #6E364A",
"f. c #74386D",
"g. c #551D48",
"h. c #5A4C42",
"j. c #5B5044",
"k. c #645343",
"l. c #6B5642",
"z. c #6D5A44",
"x. c #6A5A4A",
"c. c #745C43",
"v. c #775E45",
"b. c #714B4B",
"n. c #7C6244",
"m. c #7C644B",
"M. c #77634A",
"N. c #7C6752",
"B. c #6C614F",
"V. c #7A4870",
"C. c #85592B",
"Z. c #845C36",
"A. c #91542F",
"S. c #84633C",
"D. c #8A6539",
"F. c #966939",
"G. c #976830",
"H. c #A66B38",
"J. c #A9743B",
"K. c #B37136",
"L. c #905521",
"P. c #873B53",
"I. c #8D504F",
"U. c #836543",
"Y. c #8B6B44",
"T. c #846A4C",
"R. c #8B6D4B",
"E. c #856747",
"W. c #946D45",
"Q. c #8D714C",
"!. c #93734C",
"~. c #9A7549",
"^. c #846C52",
"/. c #896D53",
"(. c #8C7254",
"). c #8A745A",
"_. c #937553",
"`. c #9C7B54",
"'. c #947A5B",
"]. c #9B7D5B",
"[. c #957855",
"{. c #966B56",
"}. c #A67948",
"|. c #B77A46",
" X c #A37D54",
".X c #AD6F4E",
"XX c #8D5072",
"oX c #957963",
"OX c #AF6D6F",
"+X c #A5585A",
"@X c #C57C4B",
"#X c #A25936",
"$X c #9D815C",
"%X c #B8854B",
"&X c #A3845C",
"*X c #A98557",
"=X c #B58956",
"-X c #B38C55",
";X c #9C8263",
":X c #9C8A75",
">X c #A38562",
",X c #AB8B63",
"<X c #A88965",
"1X c #B38C64",
"2X c #B89468",
"3X c #B49671",
"4X c #B9A46D",
"5X c #C7884A",
"6X c #C78A55",
"7X c #C89458",
"8X c #D79957",
"9X c #D2904D",
"0X c #E29C57",
"qX c #DDA25A",
"wX c #D6A54D",
"eX c #E2A45C",
"rX c #E4A558",
"tX c #E9B458",
"yX c #CB9868",
"uX c #DAA567",
"iX c #D0A772",
"pX c #E7AA65",
"aX c #EBB46B",
"sX c #F3B66B",
"dX c #EBB574",
"fX c #F6BA74",
"gX c #EEAD6C",
"hX c #E39D66",
"jX c #FBC27A",
"kX c #F1C66C",
"lX c #DFC37B",
"zX c #BF823C",
"xX c #91518B",
"cX c #B56EAC",
"vX c #A86893",
"bX c #C876B6",
"nX c #C67794",
"mX c #CF79C4",
"MX c #CE89B6",
"NX c #E5AA94",
"BX c #F8C888",
"VX c #DCC68A",
"CX c #D690C8",
"ZX c #E599D2",
"AX c #EBACD8",
"SX c #F7B7EA",
"DX c #F4B0EB",
"FX c #DBA5CB",
"GX c #F8C7E9",
"HX c #FDCAF8",
"JX c #FED7FA",
"KX c #FBD2ED",
"LX c #FFE7FB",
"PX c #FEF0FB",
"IX c #F6C5DB",
"UX c #BD87A4",
/* pixels */
"                                                                                                                                                                                                                                                                                                                                                                                                                                                                                                                                                                                                                                                                                                                                                                                                                                                                                                                                                                                                                                        ",
"                                                                                                                                                                                                                                                                                                                                                                                                                                                                                                                                                                                                                                                                                                                                                                                                                                                                                                                                                                                                                                        ",
"                                                                                                                                                                                                                                                                                                                                                                                                                                                                                                                                                                                                                                                                                                                                                                                                                                                                                                                                                                                                                                        ",
"                                                                                                                                                                                                                                                                                                                                                                                                                                                                                                                                                                                                                                                                                                                                                                                                                                                                                                                                                                                                                                        ",
"                                                                                                                                                                                                                                                                                                                                                                                                                                                                                                                                                                                                                                                                                                                                                                                                                                                                                                                                                                                                                                        ",
"                                                                                                                                                                                                                                                                                                                                                                                                                                                                                                                                                                                                                                                                                                                                                                                                                                                                                                                                                                                                                                        ",
"                                                                                                                                                                                                                                                                                                                                                                                                                                                                                                                                                                                                                                                                                                                                                                                                                                                                                                                                                                                                                                        ",
"                                                                                                                                                                                                                                                                                                                                                                                                                                                                                                                                                                                                                                                                                                                                                                                                                                                                                                                                                                                                                                        ",
"                                                                                                                                                                                                                                                                                                                                                                                                                                                                                                                                                                                                                                                                                                                                                                                                                                                                                                                                                                                                                                        ",
"                                                                                                                                                                                                                                                                                                                                                                                                                                                                                                                                                                                                                                                                                                                                                                                                                                                                                                                                                                                                                                        ",
"                                                                                                                                                                                                                                                                                                                                                                                                                                                                                                                                                                                                                                                                                                                                                                                                                                                                                                                                                                                                                                        ",
"                                                                                                                                                                                                                                                                                                                                                                                                                                                                                                                                                                                                                                                                                                                                                                                                                                                                                                                                                                                                                                        ",
"                                                                                                                                                                                                                                                                                                                                                                                                                                                                                                                                                                                                                                                                                                                                                                                                                                                                                                                                                                                                                                        ",
"                                                                                                                                                                                                                                                                                                                                                                                                                                                                                                                                                                                                                                                                                                                                                                                                                                                                                                                                                                                                                                        ",
"                                                                                                                                                                                                                                                                                                                                                                                                                                                                                                                                                                                                                                                                                                                                                                                                                                                                                                                                                                                                                                        ",
"                                                                                                                                                                                                                                                                                                                                                                                                                                                                                                                                                                                                                                                                                                                                                                                                                                                                                                                                                                                                                                        ",
"                                                                                                                                                                                                                                                                                                                                                                                                                                                                                                                                                                                                                                                                                                                                                                                                                                                                                                                                                                                                                                        ",
"                                                                                                                                                                                                                                                                                                                                                                                                                                                                                                                                                                                                                                                                                                                                                                                                                                                                                                                                                                                                                                        ",
"                                                                                                                                                                                                                                                                                                                                                                                                                                                                                                                                                                                                                                                                                                                                                                                                                                                                                                                                                                                                                                        ",
"                                                                                                                                                                                                                                                                                                                                                                                                                                                                                                                                                                                                                                                                                                                                                                                                                                                                                                                                                                                                                                        ",
"                                                                                                                                                                                                                                                                                                                                                                                                                                                                                                                                                                                                                                                                                                                                                                                                                                                                                                                                                                                                                                        ",
"                                                                                                                                                                                                                                                                                                                                                                                                                                                                                                                                                                                                                                                                                                                                                                                                                                                                                                                                                                                                                                        ",
"                                                                                                                                                                                                                                                                                                                                                                                                                                                                                                                                                                                                                                                                                                                                                                                                                                                                                                                                                                                                                                        ",
"                                                                                                                                                                                                                                                                                                                                                                                                                                                                                                                                                                                                                                                                                                                                                                                                                                                                                                                                                                                                                                        ",
"                                                                                                                                                                                                                                                                                                                                                                                                                                                                                                                                                                                                                                                                                                                                                                                                                                                                                                                                                                                                                                        ",
"                                                                                                                                                                                                                                                                                                                                                                                                                                                                                                                                                                                                                                                                                                                                                                                                                                                                                                                                                                                                                                        ",
"                                                                                                                                                                                                                                                                                                                                                                                                                                                                                                                                                                                                                                                                                                                                                                                                                                                                                                                                                                                                                                        ",
"                                                                                                                                                                                                                                                                                                                                                                                                                                                                                                                                                                                                                                                                                                                                                                                                                                                                                                                                                                                                                                        ",
"                                                                                                                                                                                                                                                                                                                                                                                                                                                                                                                                                                                                                                                                                                                                                                                                                                                                                                                                                                                                                                        ",
"                                                                                                                                                                                                                                                                                                                                                                                                                                                                                                                                                                                                                                                                                                                                                                                                                                                                                                                                                                                                                                        ",
"                                                                                                                                                                                                                                                                                                                                                                                                                                                                                                                                                                                                                                                                                                                                                                                                                                                                                                                                                                                                                                        ",
"                                                                                                                                                                                                                                                                                                                                                                                                                                                                                                                                                                                                                                                                                                                                                                                                                                                                                                                                                                                                                                        ",
"                                                                                                                                                                                                                                                                                                                                                                                                                                                                                                                                                                                                                                                                                                                                                                                                                                                                                                                                                                                                                                        ",
"                                                                                                                                                                                                                                                                                                                                                                                                                                                                                                                                                                                                                                                                                                                                                                                                                                                                                                                                                                                                                                        ",
"                                                                                                                                                                                                                                                                                                                                                                                                                                                                                                                                                                                                                                                                                                                                                                                                                                                                                                                                                                                                                                        ",
"                                                                                                                                                                                                                                                                                                                                                                                                                                                                                                                                                                                                                                                                                                                                                                                                                                                                                                                                                                                                                                        ",
"                                                                                                                                                                                                                                                                                                                                                                                                                                                                                                                                                                                                                                                                                                                                                                                                                                                                                                                                                                                                                                        ",
"                                                                                                                                                                                                                                                                                                                                                                                                                                                                                                                                                                                                                                                                                                                                                                                                                                                                                                                                                                                                                                        ",
"                                                                                                                                                                                                                                                                                                                                                                                                                                                                                                                                                                                                                                                                                                                                                                                                                                                                                                                                                                                                                                        ",
"                                                                                                                                                                                                                                                                                                                                                                                                                                                                                                                                                                                                                                                                                                                                                                                                                                                                                                                                                                                                                                        ",
"                                                                                                                                                                                                                                                                                                                                                                                                                                                                                                                                                                                                                                                                                                                                                                                                                                                                                                                                                                                                                                        ",
"                                                                                                                                                                                                                                                                                                                                                                                                                                                                                                                                                                                                                                                                                                                                                                                                                                                                                                                                                                                                                                        ",
"                                                                                                                                                                                                                                                                                                                                                                                                                                                                                                                                                                                                                                                                                                                                                                                                                                                                                                                                                                                                                                        ",
"                                                                                                                                                                                                                                                                                                                                                                                                                                                                                                                                                                                                                                                                                                                                                                                                                                                                                                                                                                                                                                        ",
"                                                                                                                                                                                                                                                                                                                                                                                                                                                                                                                                                                                                                                                                                                                                                                                                                                                                                                                                                                                                                                        ",
"                                                                                                                                                                                                                                                                                                                                                                                                                                                                                                                                  = = = = = = = 2 3 2 = = = =                                                                                                                                                                                                                                                                                                                                                                                                                                                                           ",
"                                                                                                                                                                                                                                                                                                                                                                                                                                                                                                            = = = o + + . . . . . . . . . . X X X . . . . . . . . . . . . . . + + + # # # = = 3 2 2 3                                                                                                                                                                                                                                                                                                                                                                                                                                   ",
"                                                                                                                                                                                                                                                                                                                                                                                                                                                                                                  m 3 = + + . . . . . . . . . . . . . . . . . . . . . . . . . . . . . . . . . . . . . . . . . . + o = u Z                                                                                                                                                                                                                                                                                                                                                                                                                               ",
"                                                                                                                                                                                                                                                                                                                                                                                                                                                                                        # = = 2 3 1 o + . . . . . . . . . . . . . . . . . . . . . . . X X X o o o + + + X . . . X . . . . . . . + + # : b S                                                                                                                                                                                                                                                                                                                                                                                                                             ",
"                                                                                                                                                                                                                                                                                                                                                                                                                                                                                = # + + X X X . . . . . . . . . . . . . . . . . . . . . + + o = 3 t u u g l Z ~ ! Z Z Z N l y i i t > = o + o + + o o o = 1 = = o + X X t                                                                                                                                                                                                                                                                                                                                                                                                               ",
"                                                                                                                                                                                                                                                                                                                                                                                                                                                                          3 o + X . . . . . . . . . . . . . . . . . . . . . . . . X X X & = = > u n M N C ^ h.k.k.k.k.k.=./ E N x j y 0 9 , , - - - - - = - - & X X X . + : : 1 : 3                                                                                                                                                                                                                                                                                                                                                                                                     ",
"                                                                                                                                                                                                                                                                                                                                                                                                                                                                  + + . + . . . X X . . . + o = = = = = # # = = : 4 u u u u u u u f h h M M M N ! ! ~ ' $.$.=.l.z.c.c.c.0.6.7.7.&.%.-.-.*.*.$.$.$.$.$.*.-.-.-.$.` / N l 9 - > o . X = 4 5                                                                                                                                                                                                                                                                                                                                                                                               ",
"                                                                                                                                                                                                                                                                                                                                                                                                                                                            + + + . . . . . o = > : # o = 4 u b b b m m u u u f M Z Z Z Z Z Z A Z ` ` @.#.#.*.*.-.-.-.=.6.9.l.v.m.m.m.m.m.m.M.M.M.M.M.N.M.M.M.N.N.^.^.).).).).^.N.N.N.x.6.*.j.z % X . . . 2 b b                                                                                                         GXKXKXJXJXJXJXJXJXKXKX                                                                                                                                                                                                                                                          ",
"                                                                                                                                                                                                                                                                                                                                                                                                                                                      # # + . . . . . + # 3 u f f b u u b n B B B B B M B M M A Z S Z Z Z Z A A Z ~ ' @.*.*.-.-.=.=.6.6.9.l.l.c.v.n.n.m.E.m.T.T.^.^.^./././.^.^.^.^.).).).).).).(.T.T.N.n.M.x.E 8 & & & X X & & X o o                                                                                             AXIXKXJXJXLXLXLXLXLXLXLXLXJXJXKX                                                                                                                                                                                                                                                      ",
"                                                                                                                                                                                                                                                                                                                                                                                                                                                  2 + . X . . . . # # = 3 b B V M B B M M B B B B B B B A Z Z Z Z Z Z Z Z Z C C C ~ ' *.*.-.=.6.9.k.k.k.l.c.v.v.n.m.m.T.T.T.^.(.).).).'.oX'.'.'.'.'.'.'.'.'.'.'.'.].'.'.'.).^.c.6.=.=.*.E N N d - X X t                                                                                       AXGXGXGXKXLXLXLXLXLXLXLXLXLXLXLXJXJXKXGX                                                                                                                                                                                                                                                  ",
"                                                                                                                                                                                                                                                                                                                                                                                                                                              # # o . . . . . + = 5 u f b M B V B B B M B B A A A Z Z Z ! S S S Z Z Z Z ! Z Z C ~ ' *.-.=.=.=.k.k.k.l.z.c.M.M.M.m.T.T.^.(.).).'.'.'.'.].].;X;X;X].].oX;X;X;X;X;X;X;X>X>X;X;X;XoX'.).).).^.N.N.x.^ , X & 0 9 0                                                                             AXIXGXGXKXKXLXLXLXPXPXPXPXPXPXLXLXLXLXJXJXKXGX                                                                                                                                                                                                                                                ",
"                                                                                                                                                                                                                                                                                                                                                                                                                                        = # o . . . . . . . o 2 u b n B B B V V B B M M M M M B A Z Z ! ! Z Z Z Z Z Z Z ! ~ ~ ~ ' $.-.=.=.6.6.k.k.l.z.c.M.M.m.N.^.^./.).).'.'.].].].].].].;X;X;X;X;X;X;X;X;X>X;X>X>X<X<X>X>X;X;X'.'.].'.'.).).^.q.x w 0 y w p h.                                                                          IXGXGXKXKXLXLXLXPXPXPXPXPXPXPXPXLXLXLXJXJXJXKXGX                                                                                                                                                                                                                                              ",
"                                                                                                                                                                                                                                                                                                                                                                                                                                    # = + # 2 # o + + + + + 2 m b n B B B B B B B B V M M M M M A A A Z Z Z Z Z Z Z Z Z Z ~ ' @.@.*.-.=.=.6.6.6.9.9.l.c.M.M.N.^.^.^.^.).).oXoXoX].].].].$X;X;X;X$X;X;X;X;X>X>X>X>X>X<X<X>X>X>X$X$X$X$X$X].]._.E.n.t.q.v.9.E x ! V V                                                                     AXIXIXGXKXKXJXLXLXPXPXPXPXPXPXPXPXLXLXLXJXJXJXKXKXGX                                                                                                                                                                                                                                            ",
"                                                                                                                                                                                                                                                                                                                                                                                                                                + . . o + 2 m m 2 o # # # # 6 b n B B B B B V V M M M M M M M M M A A A Z Z Z C Z A C Z ! ` @.*.*.*.-.=.=.=.6.6.6.9.9.x.z.M.M.m.^.^.^.).).oXoXoX].'.'.'.[.'.'.[.'.'.].].;X>X>X>X>X>X>X>X>X>X>X>X$X;X;X;X$X$X]._.Q.U.U.T.n.7.%.^ y % i                                                                 FXAXIXIXGXGXKXJXLXLXLXLXLXPXPXPXPXLXLXLXLXJXJXJXJXJXKX                                                                                                                                                                                                                                            ",
"                                                                                                                                                                                                                                                                                                                                                                                                                          + o . . . # 2 2 5 m f 6 = = 2 6 5 f b n B M B B B V M V V M M M M M M M A A A Z Z C C C ! ! ` @.@.*.*.*.*.-.-.=.=.=.6.6.9.l.z.z.z.c.m.^.).).).'.'.'.].'.'.'._.(.Q.Q.Q._.[.].].&X&X>X>X>X<X>X>X>X>X>X>X$X;X>X;X$X$X$X[.!.R.!._./.T.^.x.v X = t D                                                             AXAXSXAXGXGXKXKXJXJXLXLXLXLXLXLXLXLXLXLXJXJXJXJXJXJXJX                                                                                                                                                                                                                                            ",
"                                                                                                                                                                                                                                                                                                                                                                                                                      + . . . X . . 2 5 5 u m u 5 5 5 u m m b n n n M M M M V M V V V M M M M M A A A C Z C C C ! ' *.*.*.*.*.-.-.-.-.-.&.=.=.=.6.9.l.l.z.z.z.M.^.).(.).).'.'.'.'.'.'.'._.Q.R.Q._.[.].&X&X&X<X>X>X<X>X>X>X>X&X&X>X>X>X>X].[.!.Q.R.!.[.].`.Q.T.c.v % X . X                                                           FXSXAXAXAXSXGXGXKXJXJXJXJXJXJXJXJXKXKXJXJXJXJXJXJXJXJXJXGX                                                                                                                                                                                                                                          ",
"                                                                                                                                                                                                                                                                                                                                                                                                                  6 2 + . . . . . o 2 5 f m m m f f m m b b b n n n n M M M V M M V M M M N A Z Z Z Z Z ! ~ ~ ~ ~ @.=.=.=.=.-.-.-.-.-.-.=.=.6.6.6.9.0.l.z.c.c.M.m.m.T.(.).).[.[.'.'.'.'._._.[.[.].;X>X>X>X>X<X<X<X<X<X<X>X>X>X&X$X;X].).E.t.t.U.(._.$X$X]._.T.9.j & X . X V                                                         AXAXAXAXAXAXSXGXGXHXHXHXHXHXHXHXGXGXGXGXHXKXJXJXKXJXJXJXKX                                                                                                                                                                                                                                          ",
"                                                                                                                                                                                                                                                                                                                                                                                                            . . o o + . . . . o # 2 5 f m m f u u f m m b n b n n n n M M M M M M M M N N Z ! ! ` ` ' @.@.@.@.*.@.*.=.=.=.=.=.-.-.*.%.-.=.=.6.6.6.9.l.l.z.c.v.n.n.n.m.^.(.).).)._.'.].].[._.`.&X&X>X>X<X<X,X,X,X,X,X,X<X*X<X>X>X>X;XM.O.o.) o.9.z.c.m.n.n.T.N.z.v & X . X 3 i                                                       AXAXAXAXAXAXAXSXSXSXSXSXSXSXSXSXSXSXSXSXSXHXHXKXKXJXJXJXKX                                                                                                                                                                                                                                          ",
"                                                                                                                                                                                                                                                                                                                                                                                                        = # . . . . . . . . = 2 6 5 f f f 5 5 f u m m b b b b n n n n M M B M N N N A A Z ! ` ` ` ' #.*.*.*.*.-.=.=.=.=.k.k.=.-.-.*.$.%.%.&.=.=.=.6.0.l.q.t.t.n.n.m.T.).[.'.'._.(._.$X$X].].&X>X<X<X<X<X,X1X2X,X,X,X,X<X&X&X<X>X].).^ * % & & - , , , 9 w P N.B.! & X X . . &                                                     FXFXFXFXCXCXZXZXAXAXAXAXAXDXDXDXDXDXDXDXDXSXSXSXGXKXJXJXJXJX                                                                                                                                                                                                                                          ",
"                                                                                                                                                                                                                                                                                                                                                                                                    + . . . . X . . X + # = 6 5 5 5 m m 5 u 5 u m m m m b b n n n n M B M M A A A A A A Z ! ` ` ` ' @.*.-.-.-.-.-.=.=.k.x.k.*.$.$.' [ $.$.%.=.=.=.6.9.q.c.m.T.T.(.(.[.].].].'._._.[.$X<X<X<X<X<X,X,X,X1X1X2X2X,X,X<X<X<X>X[.].r.k j & . . . . . . . . X % N x.*.g & + X X X =                                                     FXFXCXbXcXcXcXCXCXCXZXZXZXZXAXDXDXDXDXDXDXDXDXDXSXGXHXJXJXJX                                                                                                                                                                                                                                          ",
"                                                                                                                                                                                                                                                                                                                                                                                                # + X . . . . . . . . # 6 5 5 u 5 5 u u u f m f m m m m m b n n n n n B M B Z A A A A A Z ! ` ` ` ` ' ' *.-.-.-.=.=.9.6.=.-.^ / ^ ^ ^ [ $.$.%.=.=.6.9.c.m.R._.'.'.].$X$X$X$X].].].$X<X,X,X,X1X1X,X,X,X,X1X1X1X,X,X<X$X[.'.).m.) * . . . . . . . . . . . . o > & X . . . X X =                                                   CXFXCXbXcXcXvXcXcXbXCXCXZXZXAXDXDXDXDXDXDXDXDXDXDXDXSXHXHXHXHX                                                                                                                                                                                                                                          ",
"                                                                                                                                                                                                                                                                                                                                                                                          . . . . . . . . . . . . o 2 6 5 u u u 5 5 5 5 f m m u u m m m m m b b b b n n B Z Z Z Z Z Z Z Z Z ` ` ' ' ' ~ ^ $.-.-.=.k.h.*.' ^ ! E E ^ $.$.$.^ ^ $.&.4.q.M.E.R.[.'.].$X$X$X;X>X>X>X>X<X,X1X1X2X2X1X1X,X,X,X<X<X,X<X<X3X;X4.o.=.l * X . . . . . . . . . . . . . . . . . . . . X =                                                 vXvXvXcXvXvXvXvXcXCXCXZXAXDXDXSXDXDXDXDXDXDXDXDXDXDXDXSXHXGXGXSX                                                                                                                                                                                                                                          ",
"                                                                                                                                                                                                                                                                                                                                                                                        + . X X . . . . . . . . . # 6 5 u u u u u 5 5 f f m f u 5 5 u 5 u 5 5 5 5 u u b B Z Z Z Z Z Z ` ` ~ ` ' ' @.@.@.~ ' -.-.h.k.k.' ! Z ! C N C ~ ~ ^ ^ ^ $.%.9.v.m.E.Q.[.[.].].$X$X>X>X<X<X>X<X,X,X,X1X1X,X,X<X&X&X&X>X>X].m.z.k.z & & o + . . . . . . . . . . . . . . . . . . . . . . =                                                 XXf.f.f.xXxXxXvXcXDXSXDXSXSXSXHXHXHXSXSXSXDXDXDXDXDXDXDXDXSXAXAX                                                                                                                                                                                                                                          ",
"                                                                                                                                                                                                                                                                                                                                                                                      o . . . . . . . . . . . . . o 2 5 f u u f f f f f f f u 5 5 6 2 : = = : : = 2 3 4 b n B B M M A ! ` ` ` ` ` ' @.' ! @.-.h.k.k.k.' C Z C N M M M M ! ` *.-.*.6.v.m.m.E._.[.[.].$X&X&X&X&X>X>X<X<X<X<X<X*X*X*X&X&X&X>X'.;X;XQ % % X . . . . . . . . . . . . . . . . . . . . . . . . . . =                                               xXV.f.f.V.xXxXxXvXCXSXSXHXHXHXHXHXHXHXHXHXHXHXSXDXDXDXDXDXDXAXAXAX                                                                                                                                                                                                                                          ",
"                                                                                                                                                                                                                                                                                                                                                                                    o . . . . . . . . . . . . . @ o 2 6 5 u f m m m f f f u u 5 5 6 2 # # # # # : 2 2 6 u f b b n M M A ~ ` Z ! ~ ~ ~ ~ ^ *.=.=.h.k.k.' C A M M M M M n A ] h.h.' %.z.M.t.n.Q._.[.].].$X&X$X[.`.&X<X<X<X*X*X&X&X&X&X[.E.T.9.) $.i . . . . . . . . . + . . . o o o . . . . . . . . . . . . X =                                             XXV.f.f.f.V.xXcXCXCXDXHXGXHXHXJXJXJXJXJXJXJXJXJXHXHXSXSXSXSXDXAXSXSX                                                                                                                                                                                                                                          ",
"                                                                                                                                                                                                                                                                                                                                                                                    . . . . . . . . . . . . . . o # 6 6 5 5 m m m m m m f f u 6 2 # < < < < # # : 2 2 2 5 5 u f h n M B Z ! Z Z C N ! *.-.=.-.-.-.h.k.! M M B M M M M B B S ' #.! ^ 4.t.t.n.T.R.)._.'.].$X[.!.!.&X<X&X*X*X*X*X&X>X;X(.+.s * X X . . . . . X + # 2 6 6 2 : 6 m m u 2 . . . . . . . . . . . + :                                             f.f.f.f.f.V.xXCXSXDXHXHXJXJXJXJXJXJXJXJXJXJXJXJXJXHXHXSXHXSXAXDXSXHX                                                                                                                                                                                                                                          ",
"                                                                                                                                                                                                                                                                                                                                                                                    . . . . . . . . . . . . . . o 7 6 5 5 m m m m f 6 6 6 2 # # # # # # < < # # # # 2 2 6 6 5 f f h b n A Z Z C C N E =.k.=.-.*.*.j.h.! B A B B B B B B A Z ! ' ! ! %.l.q.r.t.v.y.y.y.U.E.R.[.$X&X*X&X&X*X*X*X>X'.c./ 0 % . . . . . . + = 3 f M B M b f n B B M b 6 . . . . . . . . . . + o                                             XXf.f.f.f.f.xXxXCXSXHXHXJXJXJXJXJXLXLXLXJXJXJXJXJXJXJXHXHXSXSXDXSXSXSXDX                                                                                                                                                                                                                                        ",
"                                                                                                                                                                                                                                                                                                                                                                                      . . . . . . . . . . . . . o # 7 2 6 2 2 7 # : o $ o o o o # # # < # # # # # # # 2 6 6 5 5 f f f g M A M M z x C *.k.-.*.*.' *.h.Z M M n B M M B B B Z S ] ! ^ %.6.0.8.5.5.>.,.8.w.u.Y.$X>X&X&X&X*X*X*X>X[.6.y % . . . . . . & i u N ! ` ' ` Z M C Z Z Z A B b 4 6 5 5 # . . . . . # 3                                           XXf.s.f.f.XXxXxXvXCXSXHXJXJXJXJXJXJXJXLXLXJXJXLXJXJXJXJXHXHXHXHXHXHXDXCXZX                                                                                                                                                                                                                                        ",
"                                                                                                                                                                                                                                                                                                                                                                                      . . . . . . . . . . . . . . @ @ + + . . . . . . . . . . . + + + @ . . o # # # # 2 2 6 5 5 5 f u u u g h l l C ! ! @.*.-.h.` Z ! M n b b b b b n b B B A ! ' $.%.&.4.5.5.>.>.5.r.t.n.R.`.`.&X&X X*X&X*X>X).R % X . . . . X - V ` ' *.*.*.*.*.@.' ' @.@.` ~ Z A B B B b = . . . . . =                                             f.s.s.f.f.V.vXCXCXAXHXHXJXJXJXJXJXJXJXLXLXJXJXJXJXJXJXJXHXHXHXHXHXHXDXMXCXCX                                                                                                                                                                                                                                      ",
"                                                                                                                                                                                                                                                                                                                                                                                        o + . . . . . . . . . . . . . . . . . . . . . . . . . . . . . . . . . . o # # 7 2 6 6 6 5 u u 4 t g h z l ~ #.! ' ' @.j.! g f u u m m m b b b b b n M Z @.*.=.&.6.8.8.q.c.n.T.T.(.Q.!.~.`. X&X&X&XE.X.J - X X . . . o M ~ ^ [ $.-.-.=.-.%.%.%.*.*.*.@.^ ! Z Z A V n > & = # o . =                                           f.s.s.s.f.f.xXcXDXDXDXHXHXJXJXJXJXJXJXJXJXJXJXJXJXJXJXJXHXHXHXHXHXHXHXSXCXcXbXCX                                                                                                                                                                                                                                    ",
"                                                                                                                                                                                                                                                                                                                                                                                          # . . . . . . . . . . . . . . . . . . . . . . . . . . . . . . . . . . . o # 7 2 6 6 6 5 u u u u h M M M ' *.~ ~ ! Z ! M u u u u 5 u m m m f f m b n M ! $.&.4.6.9.8.q.M.T.^.T.T.R.!.`. X&X&X>X;Xm.e % X X . . . . 3 ` $.$.%.%.%.=.6.6.&.&.%.%.%.$.$.@.^ ~ ~ ~ ! ~ A M B n 4 + =                                         V.f.g.g.s.f.f.xXmXSXSXDXHXHXJXJXJXJXJXJXJXJXJXJXJXJXJXHXHXHXHXHXHXHXHXHXSXZXCXcXcXMX                                                                                                                                                                                                                                  ",
"                                                                                                                                                                                                                                                                                                                                                                                            . . . . . . . . . . . . . . . . . . . . . . . . . . . . . . . . . . . + o # 7 2 6 6 5 5 f f h M M A Z ~ ` ! Z C M h f t 4 6 6 6 5 u u u u u f f n A ~ $.&.4.4.9.8.q.q.t.c.m.E.R.[.$X&X&X&XT.6.[ > X X . . . X o u Z $.-.=.%.%.=.&.6.9.&.o.) ) o.%.%.@.^ ' ' @.@.` ` ` S f = -                                         s.g.g.g.g.f.XXxXmXSXSXDXSXHXHXHXJXJXJXJXJXJXJXJXHXHXHXHXHXHXHXHXHXHXHXHXSXZXAXCXcXbX                                                                                                                                                                                                                                  ",
"                                                                                                                                                                                                                                                                                                                                                                                            + . . . . . . . . . . . . . . . . . . . . . . . . . . . . . . . . . . . . @ # 2 6 5 5 5 f f n M N Z Z Z Z Z C M M g u 5 6 6 6 6 6 5 5 5 5 u f f M ` @.*.=.6.9.9.8.q.q.9.t.m.R.Q.`.&X&X&X].) % X . X . . . . o t g M ! ' $.-.=.o.) k.z.O.P P Q ) %.%.*.*.*.$.@.@.@.' ] S n = &                                       s.| g.g.d.f.XXxXvXbXDXSXDXSXHXHXHXHXJXJXJXJXJXJXHXHXSXHXHXHXHXHXHXHXHXHXHXSXAXDXCXvXvXcX                                                                                                                                                                                                                                ",
"                                                                                                                                                                                                                                                                                                                                                                                              . . . . . . . . . . . . . . . . . . . . . . . . . . . . . . . . . . . . + o 7 6 5 5 f b n A Z Z ! ! ! A C M M M g 5 6 6 2 2 2 6 2 2 2 3 4 u f M ~ *.-.6.9.9.9.9.q.q.q.n.T.(._.$X>X_.m.N.$.X . . . X o X X X o > u h N N E E x c %.9.( H Q O.%.&.%.*.*.$.$.$.*.@.#.' ` A u - i                                     s.| s.XXxXxXcXbXcXmXDXSXDXSXHXHXHXHXHXJXJXJXJXHXHXHXHXHXHXJXJXJXJXJXHXHXHXSXDXDXCXxXxXvX                                                                                                                                                                                                                                ",
"                                                                                                                                                                                                                                                                                                                                                                                                o . . . . . . . . . . . . . . . . . . . . . . . . . . . . . . . . . . . + # 6 5 5 f B Z S Z ! ! ! Z C M M M h u 3 6 2 7 7 7 2 2 2 = : 3 u f h ~ $.%.9.9.9.9.9.9.t.v.T./.(.(.'.t.c q y > . . . X q L w % X X X = t h l l d q q E ) L Q 8.v.z.6.%.*.$.$.$.$.$.*.*.@.@.` V i y                                   b.s.| d.XXvXcXmXmXmXmXDXDXAXDXHXHXHXHXHXJXJXJXHXHXHXHXHXHXJXJXJXJXJXJXJXHXHXSXDXDXCXxXxXvXCX                                                                                                                                                                                                                              ",
"                                                                                                                                                                                                                                                                                                                                                                                                  + . . . . . . . . . . . . . . . . . . . . . . . . . . . . . . . . . . . # 2 5 f m A S ! ! Z Z Z C M M M h g t 3 2 2 7 7 7 7 7 : = = > t f h ! ) &.9.9.q.q.9.8.t.n.E.T.n.n.z.c X X . . . . X ; K 5._ k s x E i = > 0 9 0 d j E / Q 7.M.^.M.k.%.$.$.$.$.*.%.*.$.$.@.@.A i 9                                   s.{ { f.vXnXbXmXmXbXmXDXDXAXAXSXHXHXHXHXJXJXJXHXGXHXHXHXJXJXJXJXJXJXJXJXHXHXDXDXAXCXxXxXvXMX                                                                                                                                                                                                                              ",
"                                                                                                                                                                                                                                                                                                                                                                                                    o . . . . . . . . . . . . . . . . . . . . . . . . . . . . . . . . . . . # 6 m n Z ` Z ! Z Z C M M n h g f 4 3 2 : : 2 2 2 : : : : 3 u g z ~ ^ 4.z.t.q.q.q.t.c.m.T.T.c.P q % . . . . X q c G 5.Y.W.Y.R._.).J ; % % - - y z ! @.%.=.z.c.9.=.%.$.$.$.$.$.$.%.$.$.*.*.! y i                                 { { { { XXMXCXCXCXmXbXmXDXSXDXZXAXSXHXHXHXJXJXJXHXSXHXHXHXHXJXJXJXJXJXHXHXHXHXSXDXAXCXxXxXxXvXvX                                                                                                                                                                                                                            ",
"                                                                                                                                                                                                                                                                                                                                                                                                      + . . . . . . . . . . . . . . . . . . . . . . . . . . . . . . . . . . . 3 b A Z ` ! ! Z Z A M M n h f t 3 2 2 2 7 7 2 2 2 2 2 : 3 u h N E Q 7.c.t.q.q.q.t.n.n.n.^.M.y . . . . . X * I <.<.D.W.F.F.F.W.W.<.I I L L w , 9 t l C @.=.-.%.%.%.%.%.%.$.$.%.*.*.*.-.-.@.N N                                 { V ] s.xXMXCXZXmXbXcXbXDXDXDXAXAXSXHXHXHXJXJXJXHXSXHXHXHXHXJXJXHXHXHXHXHXHXHXSXDXAXCXxXxXxXxXXX                                                                                                                                                                                                                            ",
"                                                                                                                                                                                                                                                                                                                                                                                                        . . . . . . . . . . . . . . . . . . . . . . . . . . . . . . . . X . o u B Z Z ` ! ! A M B n n n h u 3 2 2 2 2 2 2 6 6 6 6 6 3 u g M C / ^ 4.t.t.t.q.q.t.c.n.t.o.E o . . . . % s a.3.C.C.G.G.G.L.C.C.C.C.Z.u.u.<.r ; ; & * 4 g z ! @.%.9.6.%.o.o.$.*.-.-.-.-.-.*.' ] '                               { D V d.vXMXCXCXmXbXcXbXDXDXDXAXSXHXHXHXHXJXJXJXHXHXHXHXHXHXHXHXHXHXHXHXHXHXSXDXDXZXCXxXxXxXXXXX                                                                                                                                                                                                                            ",
"                                                                                                                                                                                                                                                                                                                                                                                                          . . . . . . . . . . . . . . . . . . . . . . . . . . . . . . . . o 4 B Z S Z ! Z Z C M n n h f f 4 2 2 2 2 2 6 6 5 5 u u u u g M C ! Q Q :.t.t.t.8.8.q.q.4.%.z o . . . . . * G 3.G.G.H.J.J.J.H.G.G.G.F.F.F.Z.3.Y U P w & o o * t x *.k.9.%.o.) $.-.-.$.$.*.-.*.' ` S                               { D V d.OXvXbXZXmXbXcXmXDXDXDXDXHXHXHXJXJXJXJXJXHXHXJXHXHXHXHXHXHXHXHXHXHXSXDXAXAXZXCXxXxXXXXXXX                                                                                                                                                                                                                            ",
"                                                                                                                                                                                                                                                                                                                                                                                                            . . . . . . . . . . . . . . . . . . . . . . . . . . . . . . + : b S S S Z Z Z C M B n n f u 5 6 2 2 2 2 6 6 5 m m m m u u h C ! E W Q +.t.q.5.5.5.q.4.j & X . . . . X % G Y C.H.H.J.K.J.J.J.H.G.G.G.G.G.A.G.W. XE.G 8 - o o o > ~ =.k.%.o.) ) ) ) ^ / E ` ' ` ] b y                             { | R b.OXvXbXCXmXbXcXmXDXDXDXSXHXHXKXJXJXJXJXJXJXJXJXKXHXHXHXGXSXSXSXSXSXAXZXZXAXAXCXxXxXV.V.XX                                                                                                                                                                                                                            ",
"                                                                                                                                                                                                                                                                                                                                                                                                                . . . . . . . . . . . . . . . . . . . . . . . . . . . . # u A Z Z Z A A N M M M h h u 5 4 6 3 6 6 6 6 5 m m b b b u g M Z ~ ^ ^ o.&.q.8.>.4.4.9.W - . . . X X w H Y C.G.J.5X5X9X9X5X5X5X%X%X|.J.J.J.J.|.%X%XF. .U W t + . o h ' *.$.^ Q Q ^ W E x l N ~ A u : -                           b.{ { } +XOXOXnXbXmXbXcXmXDXDXDXGXHXKXKXKXJXJXKXKXJXJXJXHXGXHXHXSXSXSXDXDXAXCXCXZXZXAXCXxXXXV.f.XXvX                                                                                                                                                                                                                          ",
"                                                                                                                                                                                                                                                                                                                                                                                                                  @ . . . . . . . . . . . . . . . . . . . . . . . . . o : b S S Z Z A A A M M h f f t 4 4 4 4 6 6 6 5 u m m b b b h M Z ! @.$.%.%.&.4.4.8.8.9.$., . . . . X w _ U.C.H.J.zX8XqXqXqXqXuXuXuXuXuXuXuX8X7X7X9X6X%X}. Xm.p X X . 3 M N E / Q ^ o.) W N x N ! M = X o                           b.[ } } OXOX+XvXbXbXbXcXmXDXDXDXSXHXGXGXKXKXJXKXKXJXLXJXGXGXGXGXSXSXAXAXAXAXZXCXZXZXAXCXxXxXV.f.V.vX                                                                                                                                                                                                                          ",
"                                                                                                                                                                                                                                                                                                                                                                                                                    o . . . . . . . . . . . . . . . . . . . . . . . 6 2 2 f B A B M B M B n n n f u 4 4 4 4 4 3 4 5 5 f f f m b n B Z ~ ~ @.%.o.O.O.:.4.8.z.x.@.> . . . - w G 1.G.G.J.K.zX8XeXqXqX8XqX8X8XqXqXuXuX8X9X9X9X9X6X%X}.S.H % . X = = , j E W Q ^ ) [ E l V B B = . +                           d.d.} d.OXOXI.+XnXbXmXmXCXDXSXSXSXGXGXGXGXKXKXKXKXJXLXJXGXGXGXSXSXAXZXZXZXZXZXCXZXZXAXCXxXxXf.f.f.xXcX                                                                                                                                                                                                                        ",
"                                                                                                                                                                                                                                                                                                                                                                                                                      . . . . . . . . . . . . . . . . . . . . . . o 5 5 6 f n M M M M M n b h f f 4 6 6 4 4 6 4 5 5 u 5 f f f B A Z Z ~ ^ ^ o.o.+.O.4.9.9.9.*.g & . . & _ y.D.}.}.%X5X9X9XeXeXeXeXqXqXqXqXqXeXpXpXeXqXqXqXqXuXuXuXyXT.k & X o o & 9 x / ^ W / ' C u t 5 5 # . +                         d.d.d.b.P.I.+XP.I.nXMXMXbXCXDXSXSXGXGXGXGXGXGXGXGXKXJXLXJXGXGXGXSXSXAXCXCXZXZXZXCXCXZXAXCXxXf.f.f.f.xXvX                                                                                                                                                                                                                        ",
"                                                                                                                                                                                                                                                                                                                                                                                                                      . . . . . . . . . . . . . . . . . . . . . o 2 5 m b n n h h h h h f f f f u 4 6 6 5 5 4 5 4 5 5 5 5 f h B A Z Z ~ ^ ^ o.O.+.O.4.4.o.E 0 X X X X w y. X}.|.%X%X9X9XqXpXeXpXpXpXpXeXqXeXpXpXpXpXpXpXpXaXfXfXfXdX~.K w X + o & 9 N / ^ / ! ~ M > 2 2 2 o X X                         s.s.d.I.XXP.P.d.P.NXNXMXbXbXDXSXSXGXGXGXGXGXGXGXGXKXJXLXJXJXKXGXSXAXZXCXCXCXZXCXMXbXZXZXCXxXf.f.f.f.xXvXxX                                                                                                                                                                                                                      ",
"                                                                                                                                                                                                                                                                                                                                                                                                                      . . . . . . . . . . . . . . . . . . . . = 6 u m n M M M h h h h h f f f f u u 5 5 5 5 5 5 4 5 5 5 5 f f n A A Z E ~ o.O.O.O.:.4.0.o., X X X l &._ S.}.}.|.|.%X5X7XuXpXeXpXpXpXpXeXeXeXpXpXpXpXpXpXpXsXsXsXfXdX}._ k & # = > g C / ^ ! z g u > = # < o . X                         s.} d.I.XXXXd.} d.OXNXNXnXbXZXSXSXGXGXGXGXGXGXGXGXKXKXJXJXJXJXHXGXAXZXCXMXCXZXZXCXbXCXZXMXxXXXf.f.f.V.V.V.                                                                                                                                                                                                                      ",
"                                                                                                                                                                                                                                                                                                                                                                                                                      . . . . . . . . . . . . . . . . . . . # 5 m b n B M M n h h h h f f f f f u f u u 5 5 5 5 5 5 5 5 f f h n M z z x E Q O.4.:.:.4.6.$.- . + X ^ oXQ.~.}.}.}.}.%X=XyXuXpXuXqXqXpXuXqXeXpXpXpXpXpXpXpXpXgXsXsXsXdX}.1.) l u u u g V E E N l g u > = # < o . .                         s.} } P.XXI.d.} } I.OXOXnXMXbXbXCXSXGXGXGXGXGXGXGXGXKXJXJXKXGXAXAXAXAXCXZXZXZXAXAXCXMXCXvXXXXXXXXXV.d.s.s.                                                                                                                                                                                                                      ",
"                                                                                                                                                                                                                                                                                                                                                                                                                      . . . . . . . . . . . . . . . . . . # 2 f b B B B B M h h h g h f b b h f f f u u 5 5 5 5 5 5 5 5 5 f f h h z x E Q ( O.5.5.q.O.x y X . . . y 7.r.Y.D.D.D.Z.D.F.~.}.%X7X7XuXuXuXqXpXpXpXpXpXpXpXpXpXgXsXsXsXdX}.T _ N n M M i 9 l V N N n u : = # # o . +                         { { } P.I.d.d.d.d.I.+X+XUXMXnXvXcXAXGXGXGXKXGXGXGXGXGXKXJXGXFXcXcXCXZXZXZXZXMXCXAXMXvXvXXXV.XXvXOXXXs.{ s.                                                                                                                                                                                                                      ",
"                                                                                                                                                                                                                                                                                                                                                                                                                      . . . . . . . . . . . . . . . . . + 6 b B Z Z A A B n h h h h h n B B n b f f f u 5 5 5 5 5 u m u 5 5 f h z C ~ o.o.+.:.8.t.M.c.w . . . . . . X w <.w.<. .U T  . .T ..C.G.%X7X7X8XpXpXpXpXpXpXrXpXpXgXsXsXsXaXF.Y P x g S V > & 9 l Z A g t : = = # # . +                         { { } P.I.d.d.P.I.I.+X.XOXUXnXnXnXMXMXMXMXAXAXGXGXKXKXKXKXKXFXvXbXZXAXZXZXZXbXMXCXvXg.g.g.s.XXXXXXXXs.| s.                                                                                                                                                                                                                      ",
"                                                                                                                                                                                                                                                                                                                                                                                                                      . . . . . . . . . . . . . . . + 2 u n A Z Z Z A A B M h h n n M M B B n f f u u 5 5 5 5 5 5 u m m f u f l C ~ @.%.O.O.>.q.z.%.*.d X X . X . . X % H 4.:.( P U ( ( U <.2.Y T C.G.%X7X8X8XqXqXqXeXrXgXsXsXsXaXdXW.G W V g B u & & t l A A f u 6 1 # # o X +                         R { { P.+XP.P.P.I.I.+XOXyXOXOXnXvXOXOXOXnXFXIXKXKXKXKXHXGXGXSXCXZXAXAXAXZXZXMXFXFXvXs.s.{ { XXOXXXb.{ D s.                                                                                                                                                                                                                      ",
"                                                                                                                                                                                                                                                                                                                                                                                                                      . . . . . . . . . . . . . . . # 5 B Z A A M M M M M M M M M B B B M M m f u u 5 5 5 5 5 5 5 5 m m f f d z ~ @.o.%.O.>.4.6.^ 9 & X X + + + + . X X & c k w * * - - 8 w q w s ,.Q. X*X%X%X7X7X8X8XqXgXsXsXsXsXdX~.H N n 3 & o X o t M A V f u 2 2 # o + . X                       V V R { P.+XI.P.P.P.I.+XyXNXOX+XOXOXOXOXOXUXFXIXIXGXAXAXSXSXSXSXAXAXAXAXZXCXcXxXcXMXXXs.{ { } {.OXXXb.| D |                                                                                                                                                                                                                       ",
"                                                                                                                                                                                                                                                                                                                                                                                                                      . . . . . . . . . . . . . . . # 3 n B M M h h g g h M A Z Z A B n n h u 5 5 u 5 5 5 5 6 6 6 5 f f h h j x $.%.&.4.:.8.4.Q , . . . . o > > & + X . X - 9 * . . . . . . X X & q J _ _ 3.D.J.%X5XzX8XsXsXsXsXaXiXy.w 0 > + . . . X t M B n t 4 6 1 # o + + X                       D D { } I.+X+XP.P.P.I.+XyXNX6X.XOX+X+XOXyXyXyXUXFXAXAXFXSXSXSXSXAXZXZXZXCXMXxXg.d.b.{ | { { b.{.{.b.b.{ D S                                                                                                                                                                                                                       ",
"                                                                                                                                                                                                                                                                                                                                                                                                                      . . . . . . . . . . . . . . + # > M M V l z h d g h M A A A M B n b f u 5 5 5 5 5 5 5 5 6 6 6 4 u d d c E o.&.4.4.:.4.%.y . . . . . i ! x q * X . . o = + . . . . . . . . . . X % ; w K ..H.J.K.8XsXsXsXaX%XF.P X X . . . . . . 4 M M n u 5 6 o o . + %                         V D R d.I.I.+XP.P.P.+X+X.X@XyXhXiX.XA..XyX.X.XOXNXAXAXAXAXAXFXFXMXMXCXCXMXvXf.g.d.I.b.{ { { b.OX{.I.XXs.D |                                                                                                                                                                                                                       ",
"                                                                                                                                                                                                                                                                                                                                                                                                                      . . . . . . . . . . . . . . o = 4 A Z A M z M M M M M B B M z h g u u 5 5 5 5 5 5 5 5 3 2 6 4 u g z C Q o.4.5.q.t.4.Q l X . . . . X z $.) ( c * % X X X X . . . . . . . . . . . + o X & r 1.=XzX8XsXsXsXdXF.T W o . . . . . . . : u h n f u 2 + . . o                           D i p { } P.+XI.P.P.+X+X+X.X6XhXhX.XA..X.X#XA.+XyXNXAXFXMXnXnXbXcXMXCXZXMXvXf.g.OXUXOXI.I.b.b.oXOXI.b.{ D |                                                                                                                                                                                                                       ",
"                                                                                                                                                                                                                                                                                                                                                                                                                      + . . . . . . . . . . . . . o # 3 Z ` A Z C Z Z Z M M z h f y u u t 4 4 5 5 6 5 5 5 5 5 u b n M C C Q O.&.8.8.r.c.l.l X . . . . . % k o.:.:.P r w 8 & X . . . . . . . . . . . . . . . X 8  .7X8XpXsXsXfXdXW.I y X . . . . . . . # 3 f b b f 2 . . . =                           i - - | F } +X+XP.P.I.+X+X.X.X@X6X.X#X#XA.L...A.+XOXOXOXOXnXMXMXCXCXZXAXFXFXvXd.OXnXOXI.I.b.} {.oXb.{ p a D                                                                                                                                                                                                                       ",
"                                                                                                                                                                                                                                                                                                                                                                                                                      = . . . . . . . . . . . . . . + : Z ` Z Z ! Z ! Z M M h h u t t t 4 6 6 6 5 5 5 5 5 u b B A ` ` ~ / Q o.:.8.w.r.q.k.N . . . . . % e G a.<.1.1. .<.y.z.9 X . . . . . . . . . . . . . , s F }.uXpXaXsXsXaXdXZ.8 X . . . . . . . . = 6 u u 5 5 : . . .                             i - - a a } OXOXI.P.P.I.I.+XF.H.6XhX8X9X5X@XH..X.XI.A.i.I.OXUXMXMXCXCXCXMXFXMXb.b.I.I.} } b.} I.{.b.{ D p D                                                                                                                                                                                                                       ",
"                                                                                                                                                                                                                                                                                                                                                                                                                      = . . . . . . . . . . . . . . + > S ` ! ` ~ M M A M M h g u t 4 4 6 6 6 6 5 5 5 5 5 u b A ! ~ @.^ / Q +.>.,.8.8.6.@.u . . . . . 8 P U  .1.C.F.}.%X2X1XK ; . . . . X . . . . . . . X ( ].G.6XpXpXgXsXsXaXuX .% . . . . . . . . . . # 1 3 = = # . . .                             i - - - a { +XI.i.} } } } I.A.A.|.hXrXpXgXgXhXyXyXOXW.A.I.I.+XXXV.XXXXXXvXMXvXd.{ } } } } } b.I.{.I.b.[ | |                                                                                                                                                                                                                       ",
"                                                                                                                                                                                                                                                                                                                                                                                                                      # . . . . . . . . . . . . . o = 3 M Z ` #.` z h M M M h u u t 4 4 6 6 6 6 6 5 5 5 u u n A ! ~ ^ / W ( +.8.8.8.0.$.h o . . . X X w <.<.C.F.G.J.8X8X8XyXD.( 9 % > L ( q * X . . . X % Y =X9XeXpXgXgXpXgXaXuXU X . . . . . . . . . . . # = o o + . . .                             9 & & & ; p | F } i.} | { } } } A.|.8XrX0X0XzXK.H.H.H.#XA.A.} } { { d.I.XXXXb.{ { { } } } } I.I.{.I.} h.s.]                                                                                                                                                                                                                       ",
"                                                                                                                                                                                                                                                                                                                                                                                                                    . . . . . . . . . . . . . o # 2 u u h ` #.h.` l h M M h u u t t t 4 6 6 6 5 5 5 5 u u g l N ! / ^ Q Q ( >.r.r.8.4.j X . . . . - w r  ...C.J.J.%XpXgXgXdXdXyX7.r K p.*X .K * . . . e <.A.8XpXrXrXpXpXpXpXaXuXU X . . . . . . . . . . . # 2 o + . . . .                             - % X o & a a a } I.} { { } } T T A.K.9X0X0X5XK.K.|.5X@X|..XF.C.T A.I.I.I.d.| F } } } } } } I.I.I.I.} b.B.                                                                                                                                                                                                                        ",
"                                                                                                                                                                                                                                                                                                                                                                                                                    . X . . . . . . . . . @ 2 6 6 4 u n ] j.h.#.Z h f f f u u u u t 4 6 6 6 5 u u u f f g l l E ^ ^ Q ( O.:.8.t.t.q.&.y . . . . X j K G 1.C.L.J.5X9XpXpXpXaXdXiXD.Y ..G.|.G.3.e X o % ,.iXpXsXgXtXgXgXgXsXgXaXiXU % . . . . . . . . . . . + = o + . . . X                             8 - X + o - 8 p d.I.d.{ | } { { Y } C.H.hXsXgXgXgXsXfXgXgXdXhX6X.X.X.X.X.X+XI.} } } } i.I.I.b.I.I.b.} b.).                                                                                                                                                                                                                        ",
"                                                                                                                                                                                                                                                                                                                                                                                                                    . X . . . . . . . . @ # 6 5 6 4 t h #.h.` V h g u u u u u 4 4 4 4 3 3 5 u f m b n B N E E ^ %.O.X.:.r.t.r.t.t.&.J > . . . % w _ <. .D.F.J.5X8X8XpXpXpXpXpXuX7X%X7X7X8X7X*XI * * 8 3.iXpXgXgXgXgXsXgXsXsXdXiX( X . . . . . . . . . . . . . . + + . . X                               n & X X % ; a { } d.{ | } } { | K Y L.7XgXpXgXfXfXfXsXfXfXdXhX6X6X6X6X@XyXOXA.} } } P.I.I.d.b.b.} { d.                                                                                                                                                                                                                          ",
"                                                                                                                                                                                                                                                                                                                                                                                                                  o . . . . . . . . . . o # = 2 2 3 3 t g l t t t t 4 4 4 u u 5 5 4 4 3 3 5 f f b n A Z ^ $.$.&.4.5.<.w.y.U.t.8.q.L % . . . X ; w _ <...G.J.K.5X8XeXpXgXpXpXpXpXpXpXpX8X8X7X}.Y 8 r F C.uXpXsXgXgXgXsXsXsXsXdXiXQ . . . . . . . . . . . . . . . . . X . X                                 & X . X X - p p [ [ } b.b.} { K Y Y A.5X5XzX0XgXgXpXpXhX8X8X8XhX0X8X9X9X@XL.T T } } I.I.b.I.b.{ | {                                                                                                                                                                                                                           ",
"                                                                                                                                                                                                                                                                                                                                                                                                                  o . . . . . . . . . o # # # = : 2 3 > > - > > > 3 6 6 5 u u u u u u 4 4 f f h n M A ~ ^ o.&.8.8.8.w.u.Z.U.y.8.9.d X . . . > c r T ....H.%XK.5XqXpXpXgXaXgXgXpXpXpXpXeX8X9X6XA.<.D.}.7XpXaXsXsXgXgXsXsXsXgXdXiXQ . . . . . . . . . . . . . . . . . . . +                                 - X . . . - i i V { { } [ { } i.i.U } .X@XzX9XrXgXrX0X5X5X8XgXgXgXgXhX0X6XA...} } i.I.I.b.b.{ | D {                                                                                                                                                                                                                           ",
"                                                                                                                                                                                                                                                                                                                                                                                                                  . . . . . . . . . o o o # # : 2 3 3 3 3 3 3 3 > 3 4 4 u u u u f f f f f h n n M A Z ~ ) o.:.8.r.u.e.e.S.E.t.o.^ > . . . X V ^ U w.A.L.%X5XzX9XeXpXpXgXaXaXaXaXaXaXaXaXgXgXdXdXiXdXdXaXaXsXsXsXgXgXsXsXsXsXdXuXQ . . . . . . . . . . . . . . . . . . . o                                 - % X . X 1 u > 9 D V R p p K } Z.T A.|.@XK.@XrXgXrX0X@X5XhXgXhXhXpXhXgXhX|.#XA.A.I.+XI.} { | a | |                                                                                                                                                                                                                           ",
"                                                                                                                                                                                                                                                                                                                                                                                                                . . . . . . . . . o o # # # 2 2 3 6 4 3 3 4 4 4 4 t u f f f b b b b b h h n n M M Z ! / o.O.4.r.u.e.e.e.Z.E.c.c - X . . . X z Q _ Z.F.G.6X9X9X8XpXpXpXpXaXaXsXaXsXsXsXsXsXsXsXsXdXdXaXaXsXsXsXsXsXsXsXsXsXsXsXuX_ X . . . . . . . . . . . . . . . . . . o                                 8 % X . . = 3 - o - y p w 8 a Y A.#X|.6X@XzX@XhXgXhX0X8X8X8X9X@X@X5X8XhXhX|..X.X.X.XOXI.{ F a a {                                                                                                                                                                                                                             ",
"                                                                                                                                                                                                                                                                                                                                                                                                                . . X . . . . @ o # # # # 7 2 2 2 6 4 4 4 u u f u u f b b b n n n n h h M M M N A Z ~ ^ O.4.8.u.u.e.Z.e.y.m.l.d X . . . . X w H G 1.C.L.5X8X8X8XeXpXpXpXaXsXfXfXfXfXfXfXfXsXfXfXfXsXsXsXsXsXsXsXsXgXgXsXsXsXaXyXU X . . . . . . . . . . . . . . . . . + =                                 - ; X . . + = o X & 0 y q w 8 T #X@X@X@X@X@X6XhXhX8X8X8X7X6X|.K.|.@XK.|.K.A.A.A..X.XOXI.{ | a a                                                                                                                                                                                                                               ",
"                                                                                                                                                                                                                                                                                                                                                                                                              . . . . . . . o o o # # 2 2 2 2 6 6 6 6 3 6 u u f f f b n n n n M M M M M M z z C ~ ! ~ ^ &.8.8.r.u.u.Z.e.y.v.%.9 . . . . X % w G G ..A.L.5X8X8X8XeXeXpXpXaXfXfXfXfXfXfXfXfXfXfXfXfXfXsXsXfXfXfXfXsXsXsXsXsXsXaXyX_ ; X . . . . . . . . . . . . . . . . # 3                                   - o . . X X X . % 9 p l w r T H.@XK.K.K.K.zX5X@XK.K.K.|.@X|.K.K.K.K.|.H.A.A.W..XOX{.} | R R R                                                                                                                                                                                                                               ",
"                                                                                                                                                                                                                                                                                                                                                                                                              . . . . . . + o o # # 2 2 2 2 2 2 6 6 6 6 5 u u f f f b n M M M M M M M M M h g z ! ~ ^ o.4.8.8.w.u.e.S.p.r.%.j o . . . o 0 p J U U C.F.H.6X8X8X8XqXeXpXpXgXsXfXfXfXfXfXfXfXfXfXfXfXfXfXfXfXfXfXfXfXfXfXsXsXfXfXuXD.W 9 . . . . . . . . . . . . . . . . = 4                                   t o . . . . . X & i c W k r T H.K.K.K.K.K.K.K.K.H.#X#XK.|.|.K.G.G.J.|..XA.A.{.{.{.i.{ | R {                                                                                                                                                                                                                                 ",
"                                                                                                                                                                                                                                                                                                                                                                                                            . . . . . X . + o o # 2 2 6 2 2 6 2 2 6 4 5 u u f f f f h n B A A A C N M M M h h z E ^ $.&.4.5.8.2.2.u.p.n.c.R % . . . . > N R Q _ T Z.H.J.7X8X8X8XqXeXpXpXpXaXdXfXfXfXfXfXfXfXfXfXfXfXfXfXfXjXjXjXjXjXjXjXjXfXjXaX=X[.^ o . . . . . . . . . . . . . . . # >                                     X . . . . . . - p R ) K F T .X@X@X@X@X5X5X9X9X5XK.|.5X6X5X5XK.H.J.|.F.C.I.I.} K | | | { {                                                                                                                                                                                                                                 ",
"                                                                                                                                                                                                                                                                                                                                                                                                            . . . . X + + o o # # 2 6 6 6 6 6 6 4 4 u u u f f f f f h n B Z Z Z C N z z z z C ~ @.$.%.&.4.:.,.w.2.w.t.q.-.y . . . . . 9 x J W U T D.J.K.9XqXqXqXqXqXpXpXpXgXaXdXfXfXfXjXjXfXjXjXfXfXjXjXjXjXfXjXBXjXjXjXjXjXjXaX7X`.W X . . . . . . . . . . . . . + + o X :                                   X X . . . . . & y / 7.} Y } Y.H.K.5X9X9X9X0X0X8X9X8X8X8X6X6X7X5X|. XW.i.b.} F a | { [ [                                                                                                                                                                                                                                   ",
"                                                                                                                                                                                                                                                                                                                                                                                                          o . . . . + + o # # < 2 2 6 4 5 5 5 u u u u f f f f h h h n B A Z Z Z N N N C C ! ^ @.$.$.%.O.o.:.,.w.w.w.t.L 9 & . . . . X w H I U U T G.J.K.8XqXqXqXqXqXeXpXpXgXaXaXdXfXfXfXfXfXfXjXjXjXjXjXjXjXjXfXjXjXjXjXjXjXjXaX7X XJ . . . . . . . . . . . . . . o + + . >                                     > o . . . X & w ) c.U.i.:.} T L.5X9X0X9X9X9X9X9X8X8X6XH.K.8XyX.XY.Z.7.R p p a | d.                                                                                                                                                                                                                                      ",
"                                                                                                                                                                                                                                                                                                                                                                                                          + . . . X . + o # < 6 6 6 5 f m m f f f f f f f f f h h h n M Z Z Z N N C ! ~ ' @.^ ^ @.o.o.) O.:.,.e.u.r.M.l X . . . . . X w s G Y T T G.%X5X8XeXqXqXqXqXqXeXpXgXaXaXdXdXfXfXfXfXfXjXjXjXjXjXjXjXjXfXfXfXjXjXjXjXjXpX%X].N . . . . . . . . . . . . . + # @ . . 3                                       = . . . X & w ( E.{.U.i._ Y L.9X0X9X9X5XzXzXK.K.K.K.L.G.=X.XC.} 7.[ p a p p R                                                                                                                                                                                                                                         ",
"                                                                                                                                                                                                                                                                                                                                                                                                        X . . . . . . + # 6 6 5 u u f m b b m b h f f f f f h h n M M A Z ! Z N Z ~ ' ' @.@.^ ^ ^ o.O.O.8.w.e.Z.y.4.k.d X . . . . X * r G G T C.C.|.6X9X8XqXqXeXqXqXqXeXpXpXaXaXaXaXdXfXfXfXfXfXfXfXjXjXjXjXjXjXjXfXjXjXjXfXfXyX~./.l . . . . . . . . . . . . . # < # . . = 4                                     & . . . X % 8 K U.{.E.i.} T A.7X8X9X5XzXK.K.K.K.K.H.F..X XE.} _ :.[ R p V {                                                                                                                                                                                                                                           ",
"                                                                                                                                                                                                                                                                                                                                                                                                        . . . . . . + + : 5 u f f f b n n b b b b h f f f h n M M Z Z Z ! ! ! ! ^ ' @.' @.^ ^ ^ o.o.+.:.u.S.S.Y.v.c 9 o . . . . X i k G ,.3.F.=X6X7X9X9X8X8XqXqXeXqXqXqXeXpXpXaXaXaXdXdXsXsXfXfXfXfXjXjXjXjXjXjXjXfXjXjXjXfXdX=XU J & . . . . . . . . . . . . . # 7 < . . o =                                     & . . . . % * r _ u.Z.Z.i.1.F.8X9X5X@XK.K.K.@X5X|.H.C.Z.r._ G r p p i p { d.                                                                                                                                                                                                                                          ",
"                                                                                                                                                                                                                                                                                                                                                                                                      X . . . . . + o = 3 3 u f h b n n n b h f f b h f f h n M A Z Z C ! ~ ~ ' ' @.^ @.^ ~ / ^ %.&.4.r.y.S.D.R.v.y . . . . . . X l K U C.G.|.6X9X9X9X9X9X9XqXqXeXqXqXqXeXeXpXpXaXaXdXdXsXsXsXfXfXfXfXfXfXfXjXjXfXfXfXfXdXuX2Xy.* X . . . . . . . . . . . . . . # 7 7 + . o #                                       X . . . , q r Y ,.u.U.E.Z.H.yX7X|.K.|.K.|.5X6X6X.X..G W R j y 9 8 8 R {                                                                                                                                                                                                                                             ",
"                                                                                                                                                                                                                                                                                                                                                                                                      X . . . . . . # 3 5 u h h h n n b h h h f f b h g g f h h M M z z C Z C ! ~ ~ ~ ~ E / / o.4.9.8.U.Y.W.W.R.v.i . . . . . . X y r Y 1.L.K.9X5X9X9X9X9X9X8XeXeXeXeXeXeXeXeXpXgXaXaXaXsXsXsXsXfXsXfXfXfXfXfXfXfXfXfXdXuXF.<.c . . . . . . . . . . . . . . . . < 6 2 @ . . #                                         & X o M ' J _ ,.<.i.Z.A.H.7X7X|.J.}.}.|.6XyXyXyX{._ [ ! M l p i a /                                                                                                                                                                                                                                               ",
"                                                                                                                                                                                                                                                                                                                                                                                                      X . . . . . = 2 u h h M M g g g g g h h f f b n h f h h h h h z M C C C E ~ / ~ / ~ @.%.4.q.8.w.S.W.~.W.(.M.t . . . . . . X , w F 1.G.%X7X9X9X9X9X9X9X8XqXeXeXeXeXeXeXeXeXpXaXaXaXaXaXsXsXfXsXfXfXfXfXfXsXfXfXuX=X X,.e % . . . . . . . . . . . . . . . . 2 5 6 @ . . #                                           X o N ' p K } T 1.Z.A.F.|.=X}.F.}.}.}.=X=X=X1XT.O.[ N V l l p p                                                                                                                                                                                                                                                 ",
"                                                                                                                                                                                                                                                                                                                                                                                                    o . . . . . . 6 f h n h z z z z z g g g f b n h M A B B M M M M C C ! ~ ~ / ^ / ^ ^ @.%.6.9.q.8.e.Y.~.`._.v.6.> . . . . X = : 9 w G 3.G.%X8X9X9X9X9X9X9X9X8XqXqXeXeXqXqXqXeXeXpXaXaXaXdXsXsXfXfXsXsXsXfXsXsXaXaX=XT k , X . . . . . . . . . . . . . . . . . 6 u 6 # . X #                                           & X > i ; a T i.{.OXF.A.~.}.~.F.}.}.F.3.T T w.>.Q / N V p i V                                                                                                                                                                                                                                                   ",
"                                                                                                                                                                                                                                                                                                                                                                                                  + X . . . . . o 6 h n n h h h z z z h h h h M M B Z ! ] ` Z C N N C ! ~ ^ ^ ^ o.^ o.o.%.9.9.q.8.w.S.~.~.`.'.l.x X . . . . o > 3 9 w r T C.%XyX7X9X9X9X9X9X9X9X8XeXeXqXqXqXqXeXeXeXpXaXaXdXsXsXfXfXsXfXfXsXsXpXqXuX=XK X . . . . . . . . . . . . . . . . . . . 6 m 6 o . . o                                           & X X X % 8 U C. XyX.XD.W.}.}. X X X~.u.Y U 5.7.Q E R R V p                                                                                                                                                                                                                                                     ",
"                                                                                                                                                                                                                                                                                                                                                                                              X X . . . . . . # 2 u h h h g h h l z z z M N A Z Z Z ` ` ` ` ~ ~ E C ! ~ / ^ o.o.o.%.&.6.9.z.t.t.u.e.Y. X X_.m.^ t . . . . . = t t y w 8 r T ~.7X7X6X9X9X9X9X9X9X8XeXeXeXqXeXeXeXeXeXeXpXaXdXdXfXfXfXfXfXsXgXsXpX7XyX].c X . . . . . . . . . . . . . . . . . . . 6 f 6 o . . o                                           - X X X ; 8 Y 1.Z.W.Z.Z.Z.W.W.W.}. X`.T.5.7.l.=./ R N R E p                                                                                                                                                                                                                                                     ",
"                                                                                                                                                                                                                                                                                                                                                                                            . . . . . . . . o 3 3 4 f u y h h h z M M N C ! ! ~ ~ ~ ~ ~ ~ ` ' ^ ~ ~ ^ ^ o.%.&.&.4.4.9.q.t.c.c.y.S.Y.~. X`.R.4., . . . . . . : t y u 0 * 8 r <.3.G.=X7X8X8X8X9X9X8XeXeXeXeXeXeXeXeXeXeXpXaXaXaXsXfXfXfXsXpXpXgX=XC.U.) * X . . . . . . . . . . . . . . . . . . + u f u # . . +                                           , X X X t p _ r.u.u.<.1.Z.Y.Z.C.C.Z.u.y.5.[ ) R x v v N [ /                                                                                                                                                                                                                                                     ",
"                                                                                                                                                                                                                                                                                                                                                                                        . . . . . . . . X + = u u u d d d z N N C Z ! ~ ~ ~ ~ ~ ~ ~ ~ ~ ~ ~ ^ ^ ^ @.*.$.%.6.9.q.q.q.q.t.t.t.t.y.!.&X*X X!.E.^ X . . . . . . > i y p t - 9 y s G ..=XyXuX8X8X9X9X9XqXeXeXeXeXeXeXeXeXeXeXpXaXaXsXsXsXaXpXpXpXuXF.Y _ R X . . . . . . . . . . . . . . . . . . . = M A M 6 # . + u                                         9 X X X y l l R W _ _ ,.Z.W.Z.Z.C.1. .1.<.U Q Q L x j p ' *.                                                                                                                                                                                                                                                    ",
"                                                                                                                                                                                                                                                                                                                                                                                      . . . . . . . # o o & t g h l l z N C E ! ~ ~ ^ ^ ^ ^ ^ ^ ^ ^ / / ^ ^ @.$.*.*.%.%.o.&.9.t.t.t.q.q.t.t.u.e.W. X X`.T.o.9 . . . . . . . > 9 0 y y t b V z k K u.C.J.7X8X9X9X9X8XqXeXeXeXeXeXeXeXrXeXpXpXgXgXpXpXpXpXeXeXpX%XG. X^.4 . . . . . . . . . . . . . . . . . . . > ` #.Z b u # + = %                                       9 X X X > > * X % w I <.Z.W.W.W. X~.F.F.C.3.w.4.&.^ j w p R                                                                                                                                                                                                                                                     ",
"                                                                                                                                                                                                                                                                                                                                                                                    + . . . . o = 2 u u u y l M N N C C C E E E ! ! ^ ^ ^ ^ ^ ^ ^ ^ ^ ^ o.@.o.%.%.%.%.o.%.9.q.t.t.t.q.q.t.r.u.e.Y.~.!.U.l.c X . . . . . . . - 9 i 9 y g M M z p e r F ..=X8X8X8X8X8XqXeXeXeXeXeXrXrXeXeXeXeXeXeXeXrXeXeXeXeXpXqX7XyX>Xz . . . . . . . . . . . . . . . . . . . > ` #.A t > # . . .                                       8 % o o = 3 = o & e _ w.U.Y.F.}.yX7X=X*X}.W.Z.5.7.%.z * * p                                                                                                                                                                                                                                                     ",
"                                                                                                                                                                                                                                                                                                                                                                                  . . . . . = 4 f f h M A M C C C E E ! ! ! ! E E ! ~ ' @.@.@.o.$.%.o.o.o.o.o.%.%.%.%.&.9.9.q.q.q.q.q.r.r.t.U.Y.Y.!.U._ x > . . . . . . . & t g p j l z N N N N J s s  .*X2X7X7X8X8XqXqXqXeXeXrXrXrXrXrXrXrXrXeXeXeXeXeXeXeXeX8X8X7X XR X . . . . . . . . . . . . . . . . . X - E ' z , > : + . .                                       9 % % & > 3 t > w ) v.v.Y.Y.F.}.yXiXyX7X=X XZ.,.:.[ y % ; 8                                                                                                                                                                                                                                                     ",
"                                                                                                                                                                                                                                                                                                                                                                                + . . . + = 5 b n n n Z ` M l d h h d g d y y y y p l V N C E E Q ^ o.%.o.o.o.O.%.%.&.9.q.q.q.q.q.q.t.r.w.y.Q.!.Q.T.8.w X . . . . . . # > g N E E ! ! ! ! ^ ) / Q J e r U ..C.%X7X8X8X8X8XqXqXqXrXrXrX0X8X0X0XrXrXrXrXeXeXrXrXrX9X7X Xx X . . . . . . . . . . . . . . . . + * , E @.x 0 u 4 o . .                                       8 % % % > t t 9 p 0.m.U.Y.W.F.}.uXuXyX=X=X Xy.O.) N > ; % w                                                                                                                                                                                                                                                     ",
"                                                                                                                                                                                                                                                                                                                                                                              o . . . o 6 m b B B A B S S M 3 = = o # o o X . + + X . + X X X - 0 c ^ %.%.O.O.%.%.&.4.9.8.q.8.8.q.r.r.u.u.y.Y.R.T.l./ & . . . . . . X o , V / ^ ) ( ^ Q ^ $.O._ _ Q k w w G e.*X=X6X8XqXqXqX8X8X0X0X0X0X8X8XrXeXrXeXeXeXeXrXrXrX9X7X~.q . . . . . . . . . . . . . . . . . * l l / $.E d g f = . .                                       8 % % & 0 y y 8 q %.c.n.T.W.W.}.=X6X|.G.F.D.<.W N 9 X X ; i                                                                                                                                                                                                                                                     ",
"                                                                                                                                                                                                                                                                                                                                                                            . . . . o 2 5 f b n n n t 3 : = # + . . . X X . . . . . . . . . . o > l ~ *.%.$.%.%.&.&.4.4.8.8.8.8.8.8.u.U.R.U.S.S.t.x - . . . . . . . . . X j ( ( ( ( ( P P _ _ _ _ _ Q p w k U 5.Z.C.J.6X6X8X8X8X8X8X8X8X8X8XeXeXrXeXeXrXrXrXrXpX8XyX`.y . . . . . . . . . . . . . . . . . , E / ) $./ z M b # . . o                                     8 % ; * y l y 9 e _ 0.v.E.Y.W.}.7XyX%XG.F.u.U E V = . X ; i                                                                                                                                                                                                                                                     ",
"                                                                                                                                                                                                                                                                                                                                                                            . . . . o : 2 5 u u 5 : o + . . . . . . . . . . . . . . . . . . . . + o > u y y y x o.4.4.4.9.8.8.8.8.8.t.E.!.Q.S.y.8.9 . . . . . . . . . . X j ) _ <.<.,.,.,.,.,.<.,.<.o.k w j w 8 r G ..G.H.7X8X8X9X9X8X8X8X8XeXeXeXeXpXpXpXgXsXaX7XyX'.i . . . . . . . . . . . . . . . X X , ^ $.o.%.! l n m # . . &                                     9 ; ; ; y V l l c ( :.5.y.Y.W.=XiXdXuX=X Xy.U E V = . + % i                                                                                                                                                                                                                                                     ",
"                                                                                                                                                                                                                                                                                                                                                                          . . . . . . o # # # o + . . . . X . . . . . . . . . . . . . . . . . . . . . . . . X 0 E k.9.9.q.t.t.t.r.r.w.S.R.!.Y.E.c.9 X . . . . . . . . . . N l.r.y.Z.Z.S.S.U.S.Z.Z.Z.w._ I k * & - w U u.~.=XyXyX7X9X8X9X8X8X8XpXpXpXpXpXgXaXaXdX}.,.J o . . . . . . . . . . . . . . . t 9 k o.%.%.%./ l n b # . . &                                     9 ; ; ; 9 l V ! ^ Q I Y T Z.~.%XiXdXiX2X&Xt.P x n = . . % i                                                                                                                                                                                                                                                     ",
"                                                                                                                                                                                                                                                                                                                                                                        . . . . . . . . . . . . . . . . . . X . . . . . . . . . . . . . . . . . . . . . . . X * 0 ^ o.&.q.c.t.t.t.t.w.e.Y.!.!.!.N.y . . . . . . . . . . . - j I ,.Z.Z.Z.Z.D.D.D.D.S.S.e.,.o.k y t & 9 c <.<.D.W.F.H.|.|.K.|.5X9X8X8X8XqXqXqX8XyX<.; X . . . . . . . . . . . . . . . X z E ^ &.O.O.&.^ M n b # . . =                                     w % % ; 8 y V ^ ) Q K Y T C.}.%XiXiXyX*XY.<.I v 0 X . X % 9                                                                                                                                                                                                                                                     ",
"                                                                                                                                                                                                                                                                                                                                                                      . . . . . . . . . . . . . . . . . . . . X . . . . . . . . . . . . . . . . . . . . . . . X X > d ^ =.9.q.c.t.t.u.y.Y.~.~._.N.d . . . . . . . . . . . . X 8 ( t.3.3.C.C.C.C.Z.Z.Z.Z.e.t.4.W y - * * w r K U Y  .F.F.G.H.K.|.6X7X9X8X8X7X7X*XH X . . . . . . . . . . . . . . . . X N ^ o.O.+.O.%.^ M n m # . . =                                     8 % % % - i z / ) _ :.u.Z.~.=X=X7XyX}.W.y.U Q E t . . . X 9                                                                                                                                                                                                                                                     ",
"                                                                                                                                                                                                                                                                                                                                                                      . . . . . . . . . . . . . . . . . . . . . . . . . . . . . . . . . . . . . . . . . . . . . X X % i z c P c.t.t.y.S.W.~.~._.m.y . . . . . . . . . . . . . % x X.<.3.C.C.C.C.C.Z.Z.Z.Z.Z.v.%.j * & % - 9 j x L X.E.[.W. X X|.yXyXyXuXuXyXyX].y . . . . . . . . . . . . . . . . X * W o.o._ O.&.%.^ M h f # . . &                                     * X X % * i l E ( O.v.!.`.=X7X=X7XyX}.`.T.( ) *.A + . . X 9                                                                                                                                                                                                                                                     ",
"                                                                                                                                                                                                                                                                                                                                                                      . . . . . . . . . . . . . . . . . . . . . . . . . . . . . . . . . . . . . . . . . . . . . . X . X % & k z.n.v.y.S.Y.W.~.!.(.W X . . . . . . . . . . . . . X ; G 3.3.3.3.3.3.3.Z.3.3.Z.y.,.P k q , * X + & & - q c H I I U Z.Z.C.F.F.Z.y.7.- . . . . . . . . . . . . . . . % & w ) O.) ( O.&.%.$.N h f # . . &                                     - X X % * 9 j E ( 4.E.!. X1X7X=X7X2XW.R.v.Q R ! n + . . X i                                                                                                                                                                                                                                                     ",
"                                                                                                                                                                                                                                                                                                                                                                    . . . . . . . . . . . . . . . . . . . . . . . . . . . . . . . . . . . . . . . . . . . . . . . . . . . . - E q.t.t.p.S.D.W.W.(.q.x > . . . . . . . . . . . . . X q <.w.3.3.1.1.3.3.3.3.3.Z.u.,.:.( L d & . . . . . . . X X ; H P I U _ K k 9 X . . . . . . . . . . . . . . . 0 k k ( O.O.) ) %.*.' M f u # . . &                                     - X X > p p R / ( 5.U.S.W.=X=X}.=X=XZ.,._ J x y = . . . %                                                                                                                                                                                                                                                       ",
"                                                                                                                                                                                                                                                                                                                                                                    + . . . . . . . . . . . . . . . . . . . . . . . . . . . . . . . . . . . . . . . . . . . . . . . . . . . . & / &.q.U.Y.Y.W.W.W.U.v.$.. . . . . . . . . . . . . . % k <.,.w.1.1.1.3.Z.C.C.Z.Z.Z.u.,.+.W j * . . . . . . . . . u l y l l h t o . . . . . . . . . . . . . . . . l %.&.o.O.O.) ) $.^ M u 4 6 o . .                                       9 X X V ' E [ ) _ 5.Z.C.C.W.}.H.}.}.<.Y I J l & . . . + %                                                                                                                                                                                                                                                       ",
"                                                                                                                                                                                                                                                                                                                                                                    . . . . . . . . . . . . . . . . . . . . . . . . . . . . . . . . . . . . . . . . . . . . . . . . . . . . . . > N ^ c.v.U.Y.Y.Y.Y.E.O.* & . . . . . . . . . . . . . * k _ w.w.1.1.1.3.Z.F.F.Z.C.Z.3.,.O.^ y & . . . . . . . . . . . . . . . . . . . . . . . . . . . . . . . . C k.9.&.O.O.o.) ~ M y 4 3 2 + . X                                       , X X y N v ( _ :.u.Z.Z.W.}.J.F.}.*X,.G I E l % . . . + %                                                                                                                                                                                                                                                       ",
"                                                                                                                                                                                                                                                                                                                                                                    . . . . . . . . . . . . . . . . . . . . . . . . . . . . . . . . + + . o . . . . . . . . . . . . . . . . . . . X & 0 s 8.E.Y.Y.W.R.t.4.' & . . . . . . . . . . . . X & w ( u.3.3.3.C.D.~.~.F.F.C.Z.u.w.4.L 0 - . . . . . . . . . . . . . . . . . . . . . . . . . . . . . . X E k.q.4.O.o.Q x z t > : = # X X                                       q ; X X * w e J ( 1.Z.Z.F. X=X}.}.}. Xy.U ) $.` t . . . + &                                                                                                                                                                                                                                                       ",
"                                                                                                                                                                                                                                                                                                                                                                    . . . . . . . . . . . . . . . . . . . . . . . . . . + @ . @ . o o o o o o @ o o . . . . . . . . . . . . . . . . + X ; 7.^.U.E.Y.E.Y.(.c.w X . . . . . . . . . . . . . X J w.U.Y.D.Z.D.F.~.F.F.C.C.u.w.w.>.) ! & . . . . . . . . . . . . . . . . . . . . . . . . . . . X X % L &.7.O.+.o.Q c y > : = + X X                                         9 % % & 8 q e H I 1.Y.W.}.|.=X=X}.}.!.w.P ) -.h.g X . . o -                                                                                                                                                                                                                                                       ",
"                                                                                                                                                                                                                                                                                                                                                                      . . . . . . . . . . . . . . . . . . . . . . . . . . + @ @ o # # # o # # # # 7 # . . . . . . . . . . . . . . . . X X p / 4.c.U.U.W.{.v.I c y X . . . . . . . . . . . X c 4.y.Y.W.F.F.G.F.}.F.G.A.C.3.3.,.4.9.y . . . . . . . . . . . . . . . . . . . . . . . = = X % j j q I ( U ( O.4.6.*.M u 3 = + + &                                         y * * 8 i p l J K y.&X X-X=X=X=X}.~.Y.U r j N A 3 . . X t V                                                                                                                                                                                                                                                       ",
"                                                                                                                                                                                                                                                                                                                                                                      . . . . . . . . . . . . . . . . . . . . . . . . . . + @ o # < < 2 2 6 2 2 6 6 2 o . o o # # o . . . . . . . . . . . X % l 6.5.t.{.{.U.u.q.O.x g 3 . . . . . . . . . . & 9 e ,.~.}.H.H.J.}.}.}.F.C.C.3.w.r.M.z . . . . . . . . . . . . . . . . . . . . . . . l N w j ) o._ O.4.O._ &.6.$.~ g 3 3 # o =                                           y - 9 i y p l J H 8. X X X X X}.W.Y.S._ k q i > o . . . n                                                                                                                                                                                                                                                         ",
"                                                                                                                                                                                                                                                                                                                                                                        + . . . . . . . . . . . . . . . . . . . . . . . . . @ # # 2 2 6 5 5 5 5 5 5 6 6 2 2 2 6 2 # . . . . . . . . . . . . . o y p ( 0.w.u.y.w.5._ J l % X . . . . . . . . . . X ( ]. X}.J.|.|.|.|.}.F.C.C.Z.y.5.y . . . . . . . . . . . . . . . . . . . . X X % L o.( +.5.:.4.4.c.0.Q ) *.^ z , = = o &                                           w - - 9 y p p l p 8 e ( Y Y T 1.3.Z.Z.r._ W y & X . . . X p                                                                                                                                                                                                                                                         ",
"                                                                                                                                                                                                                                                                                                                                                                          . . . . . . . . . . . . . . . . . . . . . . . . . . o # 2 6 6 6 6 6 5 5 5 5 5 6 6 6 2 = o . . . . . . X . . . . . . . . X j k I :.,.,.,.<.Y P H p ; X X . . . . . . . . 0 O.D.}.%X|.|.|.|.|.}.A.C.Z.5.w % . . . . . . . . . . . . . . . . . o # & % X * P :.>.>.2.8.4.4.l.6.J c j 9 > % X & &                                             - ; 8 0 y p l l p w w r a r G Y 1.Z.U.r.Q v y o . . . . X                                                                                                                                                                                                                                                           ",
"                                                                                                                                                                                                                                                                                                                                                                          o . . . . . . . . . . . . . . . . . . . . . . . . . . o o # # # # 2 6 6 6 5 5 6 6 6 6 6 2 2 2 2 2 2 6 6 6 # . . . . . . . & * x J P _ _ w.w.u.u.5.K e 8 % X . . . . . . X % H ~.=X|.|.|.|.|.}.D.C.Z.O.% . . . . . . . . . . . . . . . . . o = = d E x K >.8.2.,.,.4.4.7.6.[ N j , X . X X =                                             9 ; ; - i y y l l z x _ w.w.Z.U.Z.Z.U.E.8.^ N t + . . X - -                                                                                                                                                                                                                                                           ",
"                                                                                                                                                                                                                                                                                                                                                                            . . . . . . . . . . . . . . . . . . . . . . . . . . . . . . . . + # 2 6 6 5 6 5 5 6 6 6 4 5 u u f m m u 4 # . . . . . . . X - * 8 r U u.u.Z.Z.Z.3.1.:.P R , . . . . . . . 8 w.F.}.%X%X|.|.}.C.C.Z.Q X X . . . . . . . . . . . . . . . . # 3 0 E 6.4.>.8.8.,.<.<.:.O.) E x 0 > = X . X X                                               9 % % - 0 y y p l J Q y.~. X*X XW.S.Y.y.Q x g = . . . &                                                                                                                                                                                                                                                               ",
"                                                                                                                                                                                                                                                                                                                                                                            . . . . . . . . . . . . . . . . . . . . . . . . . . . . . . . . . # 6 6 5 5 6 5 6 6 6 6 5 4 5 u u f f f u > = # # . . . . . . . X w ) r.,.3.C.C.A.F.D.U.r.H ; X X X . . . X w U [.-X=X=X=X~.C.C.U.L X X . . . . . . . . . . . . . . . . : t w W 8.8.,.8.,.>.:.O.o.^ x y - o + + . . X *                                               - X % - 9 9 y p p J I ,.D.W.}.}.F.D.U.8.e , : . . . . -                                                                                                                                                                                                                                                               ",
"                                                                                                                                                                                                                                                                                                                                                                            . . . . . . . . . . . . . . . . . . . . . . . . . . . . . . . . . o o o o o o o + . : 6 5 5 5 5 5 u b M h u f f h u = + + . . . . & 9 e r T D.F.F.F.F.D.Z.r.O.^ $.! * X . . X q 8.E. X*X}.}.C.C.v.W . . . . . . . . . . . . . . . . . . : t q W 4.>.>.:.+.X._ ) Q E z > o . . X . X =                                                 - X o , 0 y p w e J K Y Y  .1.C.Z.Z.U.5.e 9 = . . . X *                                                                                                                                                                                                                                                               ",
"                                                                                                                                                                                                                                                                                                                                                                            . . . . . . . . . . . . . . . . . . . . . . . . . . . . . . . . . . . . . . . . . . . : 6 6 6 6 5 u h M n h h h n h u 4 : = + . . X . X ; _ S.D.F.F.F.F.D.U.U.v.v.6.j 0 & . . X & w u.*X=X XF.C.U.W X . . . . . . . . . . . . . . . . . > d d ^ &.O.+.( ( P W E x N g = + . X . . &                                                   - X o 0 z N x w r ( <.<. .....1.3.3.,.X.L N n : . X -                                                                                                                                                                                                                                                                 ",
"                                                                                                                                                                                                                                                                                                                                                                          o . . . . . . . . . . . . . . . . . . . . . . . . . X X . . . . . . . . . . . . . . . . . 2 6 6 6 4 4 h B B M z z M M n n f u 4 2 = # . X % e K <.W.W.F.F.D.S.S.Z.v.y.>.4.[ l # . . X W [.[.D.D.Z.E.) . . . . . . . . . . . . . . . . . . 3 h z @.*.%.%.Q L x E E z l 4 3 6 # 1 3 =                                                     > + o p ~ ^ / s H X.w.D.W.W.F.Z.1.<.U U L ` ] f o &                                                                                                                                                                                                                                                                   ",
"                                                                                                                                                                                                                                                                                                                                                                        + . . . . . . . . . . . . . . . . . . . . + o 2 6 2 = = = # o + . . . . . . . . . . . . . . . o # : 2 3 f A N M z M C C M M h u u u f u > = > 8 ; H r.y.Y.W.F.D.D.S.U.Y.E.T.N.x.g . . . ; p r Y S.W.(.$.. . . . . . . . . . . . . . . . . . 2 h M M l y d d w q C ~ ~ Z b b b 5 5 b                                                     9 & + & g N ^ %.Q _ 8.y.W.~.W.F.D.Z.Z.3.w.Q z B b : -                                                                                                                                                                                                                                                                   ",
"                                                                                                                                                                                                                                                                                                                                                                      o . . . . . . . . . . . . . . . . . . . o o o # 6 u u u u 4 4 4 t t 3 : = o . . . . . . . . . . . . . o : n S ` ~ ! ~ ` ` ! Z M g h n M A S ` h.Z y 0 e P T.Q.D.D.D.D.S.Y.Y.E.n.v.) j y & X X % P T._.oX=.+ . . . . . . . . . . . . . . . . . + # & & % % % 9 d x ~ @.@.` Z B b 6 # 5                                                     - o + = t y x / ( _ :.w.Z.D.C.D.F.W.~.~.R.Q w t 3 = -                                                                                                                                                                                                                                                                   ",
"                                                                                                                                                                                                                                                                                                                                                                    + . . . . . . . . . . . . . . $ # # # o o : # 2 = 6 f f n n n B M M C C C Z A h 3 o . . . . . . . . . . . = f M Z ` @.' @.' ` ! N M z M M C ` h.h.` Z g % 0 4.y.S.D.D.D.S.S.S.U.U.E.m.v.l.[ - X X - p x j.@.. . . . . . . . . . . . . . . . . . . . . X * 0 d E o.-.*.*.` A M f 6 + . + 6                                                   - X X = = % q x H K K K Y T T 1.C.C.C.3.5.W 9 & o o >                                                                                                                                                                                                                                                                   ",
"                                                                                                                                                                                                                                                                                                                                                                  o X . . . . . . . . . . . . . $ : 6 5 6 = = 4 4 u f n M M V M M C ~ ^ ^ ^ ^ @.@.~ C z h t t t : o . . . . . . . X X = > i M Z ` ` ! N M M M z E @.*.*.h.*.z q w r >.E.Y.Y.D.D.Y.U.U.Z.U.R.T.^.6.i o . . . o o . . . . . . . . . . . . . . . . . . . . X - d / ^ o.-.-.$.` N f t 3 # . . . 3                                                   & . . . . X 0 R H H G G G F Y 1.1.T Y G G q 9 = o X                                                                                                                                                                                                                                                                     ",
"                                                                                                                                                                                                                                                                                                                                                                o . . . . . . . . . . + @ o o o # 7 2 5 4 t u b M A S S M V M z z x / *.%.*.o.o.@.@.^ ~ ~ E ! ~ N l u = . . . . . . . . X & t Z ` A A Z A C M C E ^ $.*.*.' ! E c k ( _ _ U.!.~.~.W.Y.Y.W.W.[.].oX[ * X . . . . . . . . . . . . . . . . . . . . . X * y E o.%.&.&.+.^ x l d y 0 t 3 = . . . =                                                   & . . . . X y E J I X.3.u.1.3.Z.<.Y G s e 8 & + X X                                                                                                                                                                                                                                                                     ",
"                                                                                                                                                                                                                                                                                                                                                              o . . . . . . . . . . . + o : : : : : 2 4 u f h M A Z ` ] ! Z N E E E ^ %.6.9.9.9.9.&.%.%.%.$.^ ^ ^ ! V u = . . . . . . . . + o 3 t 3 u A ~ ~ C N E ^ $.*.@./ x x E %.%.e w u.!.~.~.~.~.~.F.D.F.!.R.5.L N 4 . . . . . . . . . . . . . . . . . . . > N ~ %.9.q.t.c.t.4.Q e q w 9 0 i u 3 + . . . X                                                 & . . . X X y E K I <.S.W.~.~.S.<.Y K I k - o . . %                                                                                                                                                                                                                                                                     ",
"                                                                                                                                                                                                                                                                                                                                                            # . . . . . . . . . . . + + # 2 2 3 3 > 3 t f h M B Z ! ` ' @.' ' [ [ o.o.O.6.q.q.q.q.q.9.9.9.6.%.$.$.^ E z g > o o X . . . . . . X X X = M @.@.Z C ~ @.$.%.%.-.%.%.=.6.9.( P 8.u.Y.!.~. X~.C...C.D.Y.Q.;X:XN.= . . . . . . . . . . . . . . . o o 9 ! =.=.9.8.8.r.y.r.r.8.4.%.Q x d y y t o . . . .                                                 & . . . . X d W I <.3.D.F.~.}.W.Z.u.y.t.%.y + . . =                                                                                                                                                                                                                                                                     ",
"                                                                                                                                                                                                                                                                                                                                                          . . . . . . . . . . . . . + + # 2 3 6 3 3 u f h M M A Z ` ` ' @.$.$.$.$.o.%.O.9.l.q.q.q.q.q.q.9.9.9.6.6.9.=.*.[ ~ E N l t X X . X . X . + : h A S ` *.*.@.N E %.k.x.x.l.0.z.M.n.:.s :.t.U.&X X~.F.F.D.~.&X;X;XB.* . . . . . . . : 4 > o . . . X z @.@.^ E W o.>.2.u.y.p.S.E.U.n.q.o.x j i & X . . . X                                                 & . . . . X t x ( S.W.W.}.}.}.}.Y.S.E.n.9.l X . X -                                                                                                                                                                                                                                                                     ",
"                                                                                                                                                                                                                                                                                                                                                          . . . . . . . . . . . . + + + # 6 6 5 5 5 f h M M M C Z ! ~ ^ ' $.$.$.$.$.%.%.0.z.q.q.q.q.8.8.8.q.z.z.z.z.z.q.9.&.%.$.^ E d % X . . . . . . o : 4 h Z @.~ j x $.k.x.z.z.z.M.t.,._ E E d o.$X,X*X-X*XF.D.W.p.,.L 9 , * % > 3 & % l @.` g X . o * ! x.-.c 9 q L >.y.E.Y.Y.Q.R.E.m.c.9.^ C g X X . . X X                                                 % . . . . . * 0 Q U.!.~.}.}.}.~.Z.3.y.r.o.0 . . X 9                                                                                                                                                                                                                                                                     ",
"                                                                                                                                                                                                                                                                                                                                                        . . . . . . . . . . + + + + + + = 6 5 u f f h n M M M C C ! ! ~ ^ ^ [ [ o.o.%.&.0.q.q.q.q.8.q.q.q.t.t.c.n.n.n.n.t.q.q.9.9.9.^ j t > = . . . . . . . + : M ` ' @.$.-.=.%.7.c.m.t.<.n.).^ X 9 4.Q.}.-X*XF.D.S.<.U I s W ) L -.k.C 0 C @.@.z X . = ! =.x.@.j 0 j P n.'.].Q.R.Y.U.Y.n.n.t.%.@.z % X . X X &                                                 & . . . . . . X w X.<.2.Z.S.S.y.<.U ,.>.W * . . X 9                                                                                                                                                                                                                                                                     ",
"                                                                                                                                                                                                                                                                                                                                                        . . . . . . . . . + + + . o + # 6 5 u f f f h M M M M C C ! ! ! / ^ / ^ ^ ) o.&.6.0.q.q.q.t.z.z.t.t.t.c.n.T.T.R.T.T.T.T.^.^.N.M.x.k.*.h . + . . . . . X 3 A Z Z C C / W o.q.v.n.n.^.).E % X ; r 3.*X*X}.W.S.<.U U K r.T.v.c.! y C ~ ' ' M = X > x.B.=.x j d j W m.;X;X_.E.U.S.S.n.n.M.-.@.C > o X X X ,                                                 & . . . . . . . % w 8 r G G Y Y Y :.t.c.$.& . . X                                                                                                                                                                                                                                                                       ",
"                                                                                                                                                                                                                                                                                                                                                        . . . . . . . . + + + + . + o : 6 5 5 u f f h h M M z N C ! ^ ^ ^ ^ ) ) ) ) O.7.5.0.c.v.n.n.n.m.m.m.m.U.R.Q._.[.[._._.[.'.'.'.).(.m.M.@.0 t o . . . . . . o o & > d x E $.j.9.6.0.q.q.&.-.! % % :.`. X X XS.<.X.:.:.U.R.(.9.> X u Z ! ~ ` A u > ` ! C z h M C W 4.m.n.n.n.t.t.t.c.M.z.$.~ Z M u o X X -                                                 & X . . . . . . % k P I U U U P P _ ( Q c X . . .                                                                                                                                                                                                                                                                       ",
"                                                                                                                                                                                                                                                                                                                                                        o . . . . . . . + . + . . o o 2 6 6 6 5 f f h h z z z x C E ^ $.&.6.6.6.6.8.r.c.n.E./.(.[.'.'.].].].].'.`.`.`.].$X$X$X$X$X$X$X`.`._.Q.n.z.=.> . . . . . . . . . . * i M ^ [ $.%.7.4.9.c.N.9.9 ; K _ 3.~.~.S.w.X.X.u.U.Z.c.L X . . t l M A A f = : > t t t z ` ^ Q o.o.&.&.O.O.%.%.=.^ c E ~ S g o X X *                                                   X X . . . . . * _ r.y.y.y.8.( ( L q 0 - . . . .                                                                                                                                                                                                                                                                       ",
"                                                                                                                                                                                                                                                                                                                                                          . . . . . . . . . + . . o o 2 6 6 6 u m m b n M M x x E ^ %.9.z.c.c.n.n.m.U.U.T.(.[.&X>X<X<X<X,X,X<X<X&X&X$X&X&X&X&X&X&X&X&X&X&X$X`.[.'.M.q X . . . . . . . . . . o y N R / ^ [ %.&.9.q.9.o.o.k 8 Y W.~.S.v.( s <.n.y.8.H - . . = 4 t u t : & o # = & o & d C / @.;.=.k.=.@.E l x c q j C h & X X X &                                                   > o . . . . . 9 :.y.y.y.y.4.K L E l y & . . . X                                                                                                                                                                                                                                                                       ",
"                                                                                                                                                                                                                                                                                                                                                          . . . . . . . . . . . . . o = 6 6 6 5 f h h M M C x L Q %.6.5.r.y.y.y.S.S.U.U.U.Y.!.].&X<X<X<X&X&X&X&X&X&X&X&X&X&X&X&X*X&X&X&X&X&X&X`.!.T.8.o.! N > + . . . . . . . o - V E E E W W Q ( 4.l.N.8.K ,.!.Y.y.c.x * Q q.y.E.n.%.& . 3 h u u t > o + o # . . . & h C ~ @.@.@.~ M l g d d y 9 > o X X X &                                                       o . . . . . w 4.y.e.e.u.:.k j y t : . . . X -                                                                                                                                                                                                                                                                       ",
"                                                                                                                                                                                                                                                                                                                                                          . . . . . . . . . . . . . o # 2 6 4 t t t y y d c J L P &.8.5.w.y.y.S.U.U.S.U.Y.Y.Q.`.&X&X<X*X&X&X&X&X&X&X&X&X&X&X&X,X,X*X&X&X&X&X&X$X$X'.).^.N.N.-.A 2 . . . . . . . X u V N N l c c L ) 4.q.n.y.U.U.y.5.) , X q L :.y.m.l.> . 2 h h M h u > = # # + . . o 3 d h h d 3 > , > 0 9 > , * & o X X >                                                         X . . . . X q 5.y.e.e.u.:.c 9 & + . . . . &                                                                                                                                                                                                                                                                         ",
"                                                                                                                                                                                                                                                                                                                                                          o . . . . . . . X X . . o o 2 6 4 t i 0 0 j j s H ( O.O.4.8.8.u.y.y.S.U.U.U.Y.Y.Y.Y.~.~.$X&X&X&X&X&X&X&X&X&X&X&X<X<X,X,X,X&X&X&X<X<X&X_.T.U.c.c.x.=.#.u . . . . . . . . t B V V z x E E ( O.O.8.8.t.c.4.K e % X % 8 r a.t.q.9 . o u M M A Z A f : # o . . o : > > , , , > > > > > > = & = & X X ,                                                         X X . . . X s 8.e.e.e.u.8.%.y X . . . . . *                                                                                                                                                                                                                                                                         ",
"                                                                                                                                                                                                                                                                                                                                                            . . . . . . . . X . + # = 2 4 t g y j R ^ ) o.+.4.q.q.r.r.w.u.y.y.p.U.U.U.Y.Y.Y.Y.Y.Y.Y.!.!.!.!.~.~.`.`.&X&X>X$X_.Y.U.U.S.U.U.U.U.p.w.2.2.>.o._ ) $.M o . . . . . . . = B A A M N ` ' [ %.%.( Q ( ( c w 0 9 * * * 8 P c.9., . . : M S @.@.#.S 4 o o o o = u u t t t 0 > = * > > > = = = = + X & 0                                                       & o . . & y I r.e.e.y.p.m.c.g . . . . . . &                                                                                                                                                                                                                                                                         ",
"                                                                                                                                                                                                                                                                                                                                                            . . . . . . . . . . o : : 3 t y h l c W o.O.:.>.8.8.8.r.u.t.y.y.y.y.U.E.U.U.U.S.S.Y.Y.Y.W.!.!.!.!.!.!._._.[.(.T.t.8.8.8.8.8.8.r.r.8.8.8.5.O.o.o.%.-.^ i & . . . . . . . 2 2 = o & 3 y z E x p e k x w w E $.E J L U +.4.W & . . . 3 M ` ` C C t : > 4 t u h h g t 0 > - & X & - - = = = = o X o % &                                                     = # + X y ^ _ t.p.S.S.Y.T.z.i . . . . . .                                                                                                                                                                                                                                                                           ",
"                                                                                                                                                                                                                                                                                                                                                            # X . . . . . . . . # 6 5 5 u d z c c W +.:.>.>.2.8.r.t.t.y.y.t.t.y.n.n.n.p.p.y.S.Y.R.Q.Q.Q.Q.T.E.T.E.R.R.T.m.c.t.r.t.y.u.u.u.t.p.t.t.t.q.8.4.4.4.&.o.E z u 3 4 6 o . . . . . . . . X * , * ; ; w p w e Q 4.q.4.m.^.8.o.W 9 X . . . o 4 u > #.j.Z > > y d x ~ *.*.@.' ~ x j l y , , > = = & X X X %                                                     = o o X j ) X.y.E.U.Q._.(.z.i . . . . . X                                                                                                                                                                                                                                                                           ",
"                                                                                                                                                                                                                                                                                                                                                              . . . . . . . . + # 5 f f d l x J L Q O.>.>.8.8.8.r.t.t.t.t.r.8.r.r.q.r.y.t.r.t.n.m.n.n.n.t.t.8.r.t.t.r.r.t.t.r.u.y.e.Z.S.S.S.S.U.U.S.p.y.t.w.8.4.&.=.=.! l M B 2 . . . . . . . . . X % % ; 8 j c H ( X.,.S.S.`.`.Y.(.^.k.' > . . . . X + A j.@.9 d E W ^ =.x.c.z.l.9.&.o.o.c * , , - & % X X X % 9                                                   = o o % p P U u.U.Y.!.$X'.N.l . . . . . ;                                                                                                                                                                                                                                                                           ",
"                                                                                                                                                                                                                                                                                                                                                            o . . . . . . . o # = 4 f g g z x J L Q o.+.+.+.:.4.4.4.4.4.9.4.4.4.4.4.q.n.n.v.t.t.q.8.4.4.4.4.4.8.8.8.r.y.U.R.Y.Y.!.!.~. X*X*X*X&X&X&X&X`.!.Q.Y.Y.U.v.P s 9 9 9 = . . . . X > 9 9 t 9 y y y c W P O.v.2.3.F.~.*X*X*X&X].].N.j * . . X X X % w W O.9.N.N.z.8.q.9.9.9.4.&.O.o.L w q z 0 % X X X X X & 9                                                 = o + & v ( U ,.S.Y.`.<X;X^.l X . . . %                                                                                                                                                                                                                                                                             ",
"                                                                                                                                                                                                                                                                                                                                                          . X . . . . . X o # = : 4 g g l z N E E Q ) Q Q Q ) o.o.O.+.O.%.%.O.o.O.%.4.l.q.6.4.4.4.4.9.8.q.q.t.c.T.T.R.[.`.`. X X*X X*X*X*X-X-X-X-X-X-X*X X}.}.~.~.Y.a.K H j y t & . . . * $.&.4.%.W E E E E Q I <.!.D.G.%XJ.%X=XyX*X X>Xv.J j , 9 t z x L I >.t.8.v.n.t.9.4.&.O.O.&.&.&.&.&.%.-.h.V & % X X X X X % *                                               : o + & J 4.<.y._.[.[.[._.M.l o . . . &                                                                                                                                                                                                                                                                             ",
"                                                                                                                                                                                                                                                                                                                                                          . . . . . . X . o = 2 3 u g h z M C C E / Q W L W ) ) ) o.$.o.o.%.%.) Q Q Q Q Q Q Q o.+.8.z.M.^.^.^.(.'.$X$X&X X X}.}.}.}.*X-X-X-X-X=X=X=X-X*X}.}.}.}.~.W.D.Z.U.v.k.h.Z 3 . . w 4.r.y.+.Q W E E E Q Y ..*X%X=XuXqXuXuXiX}.F.&XR.X.L J k.N.).].]._.y.3.<.>.4.4.&.O.O.o.o.O.&.4.6.9.9.l.k.E 8 * % X X o o % 9                                             ! 3 o o * Q q.8.R.<X>XY.e.w.9.y % + . . %                                                                                                                                                                                                                                                                             ",
"                                                                                                                                                                                                                                                                                                                                                        o . . . . . . X . o 1 2 6 u h M M M M N V x x x J W ^ ^ ^ ) ^ ^ ^ ^ ^ ^ ^ Q W P Q o.o.+.:.q.c.c.n.n.T.R._.&X<X&X*X*X}.}.}.*X-X=X-X=X=X=X=X=X=X=X=X=X=X=X}.}.}.F.Y.n.=.' Z f X X H y.e.Y.r.Q J x C C Q U 3.2X7XuXdXaXaXdXdXG.C. X`.r.X.P 9.z.4.E.&X`.Y.e.u.r.5.4.O.O.o.o.o.o.o.o.+.O.4.8.9.o.c j 9 & % o X X -                                             A : o + * ) t.y.Q.<X$XS.,.,.6.l = + . . %                                                                                                                                                                                                                                                                             ",
"                                                                                                                                                                                                                                                                                                                                                        X . . X . . . . . o # 2 3 4 u f g g g l z z V N N E / ^ ^ ^ ^ E x c H W o.4.&.O.4.q.t.t.c.m.n.v.y.n.E.Y.Y.~.*X*X*X*X*X*X*X=X=X2X2X2X7X7X7X7X7X7X7X7X2X2X=X=X=X}.Q.m.Q 9 i t + & 4.`.~. XS.P p 9 > > h j U *X%XuXdXaXdXdXaX%X=XyX*X!.m.4.4.P w K W.~.W.Y.R.R.n.c.t.t.t.c.M.c.4.+.O.8.t.p.t.8.&.&.Q w * % X % & *                                           0 = # + * o.n.p.Q.$X!.3.3.w.9.V = o . X                                                                                                                                                                                                                                                                               ",
"                                                                                                                                                                                                                                                                                                                                                      . . . . . . + + + + o = 2 2 2 3 4 4 > u n n V C Z E ! ! ~ ~ ~ ! E k s L _ 4.q.c.c.n.T.(.(.(.(.R.U.y.U.U.Y.D.F.}.*X*X-X-X-X-X=X2X2X2X2XyXyX2X2X2XyX2X=X*X*X1X1X1X>X'.^.! & o # . - q._. X*XW.Y r % X . + o , 2...%XaXaXaXaXaXaXdXyXJ.}.[.T.q.J 8 I Q.~.F.W.W.Y.E.T.T.T.Q._.'.).T.n.U.R.R.R.T.m.t.t.O.k j > % % & *                                         8 - = # o & ^ M.p.Y.[.Y.e.e.t.9.g + . .                                                                                                                                                                                                                                                                                 ",
"                                                                                                                                                                                                                                                                                                                                                    + . . . . . + o o # # # = 2 2 : : > 3 3 u n g g M M N Z ! ~ E x x x c L %.5.8.t.v.v.n.n.T.E.Y.U.U.y.e.D.Y.W.W.~.*X*X-X-X-X-X-X=X2X2X2X2X2X2X*X*X}.`.!.S. .U U :.5.4.o.~ t . . . . & %.t.Z. X}.C.w.) = . . . X o.C.%XuXaXaXaXdXdXdXuXJ.*X*X[.m.c % o.(.S.D.D.W.W.W.Y.Y.Y.Y.!._._.[.[.'.[._.!.R.E.m.m.t.%.=.y % & & *                                         w - = + . & ^ c.p.Y.!.Y.S.p.n.l.0 . . X                                                                                                                                                                                                                                                                                 ",
"                                                                                                                                                                                                                                                                                                                                                    + X . X . . o # # # 1 = = 2 2 # # : 3 4 u u u u y i i y j j e w j ) %.4.q.r.r.t.t.r.r.u.u.e.e.e.e.e.S.~. X}.}. X*X*X-X-X-X-X-X-X-X1X1X-X&X$X`.!.R.T.n.q.k ; ; % ; % X . . . . . . . y H U ~.-X}.*XT.q + X . . ~ Q.*XyXpXaXaXaXdXdXuX7XyX2X&X/.l X l Q K <.S.W.~.~.~.W.W.Y.!.`. X].[.[.[.[.!.R.E.E.T.m.z.k.l % * & *                                         w - = . . & $.q.p.Y.!.Y.S.S.m.l.9 . . X                                                                                                                                                                                                                                                                                 ",
"                                                                                                                                                                                                                                                                                                                                                  + X . X . . o o # 2 2 2 2 = 2 2 : : 3 4 u u t u t > , * 8 w w w q L 4.q.t.t.t.t.r.r.8.w.w.3.u.e.Z.S.D.F.~.*X*X*X*X-X*X*X*X*X*X*X}.W.D.U.8.( x x x x c l d - X X . . . . . . . . . . . X % e S.}.%X=XW.G * + X . > P U ~.iXdXdXaXaXdXaXuXiXyX*X(.z . o & * K y.!.~.~. X~.~.~.`.&X&X&X`.~.!.!.Q.Q.R.R.T.m.q.9.j % & * *                                         0 , X . . = $.q.y.Y.!.Y.D.S.U.z.> . .                                                                                                                                                                                                                                                                                   ",
"                                                                                                                                                                                                                                                                                                                                                  . . . X . o o # # 2 2 2 2 2 : : : 6 u u u u t > , , 0 j L L L Q ( 4.q.q.r.w.w.w.w.u.w.w.w.3.e.Z.D.W.~.}. X*X*X=X-X-X*X*X*X*X&X&X$XQ.t.z.x X . . . . . . . . . . . . . . . . . . . . . . . q u.D.%XyX}. .I i o . . X w 3.7XdXaXaXaXaXaXaXdX7X*X(.j . . . X p l.t.S.`. X`. X X X*X*X X~.D.D.!.!.!._.(.(.N.z.-.y X % * 9                                         9 - X . . = $.q.y.Y.Y.Y.Y.S.U.l.9 . X                                                                                                                                                                                                                                                                                   ",
"                                                                                                                                                                                                                                                                                                                                                . . . . . + o # : = 2 6 2 2 : : : = 3 u t 0 y 9 9 c x W %.&.O.O.4.4.5.5.8.w.w.w.u.u.e.e.e.u.e.S.S.D.~. X X X X*X*X*X X!.U.w.<.5.4.4.) x g > . . . . . . . . . . . . . . . . . . . . . . . . 9 4.e.*XyX=X~.R.q.j + . . * >.F.7XaXaXaXaXaXaXdX7X*X'.x X . . . X y e U S.D.F.W.~.}.}. X*X~.Z.e.S.Y.R.R.E.m.M.k.*.> X X & 0                                         * X . . . = $.8.y.R.Y.S.W.`.T.q.9 . X                                                                                                                                                                                                                                                                                   ",
"                                                                                                                                                                                                                                                                                                                                                . . X . . + o # = : 2 2 2 2 : = # = : > * * y c c %.%.+.&.&.:.>.>.>.,.,.,.,.w.w.u.e.e.e.e.e.e.S.S.Y.~.~.`. X X X`.[.R.m.4.e * ; & & X X . . . . . . . . . . . . . . . . . . . . . . . . . . X q K Z.=X5X%X*XY.s X X . o o.D.-XaXaXaXaXaXaXdX7X*X;X~ X . . . . X ; k 8.1.D.}. X*X*X*X*X*XW.Z.e.u.t.8.O.( o.*.! - . . X                                           ; X . . . = $.8.n.Q.Y.S.!.<X].c.> . X                                                                                                                                                                                                                                                                                   ",
"                                                                                                                                                                                                                                                                                                                                              # . . X . . o o # = = 2 2 2 = = o + & y z c c Q o.O.4.4.O.O.:.>.>.:.<.,.,.,.,.,.w.e.e.Z.S.S.Z.e.e.S.U.Y.Y.U.y.u.,.X.P x z h = . . . . . . . . . . . . . . . . . . . . o 2 4 u m 6 + . X O . . . X ; G F.7X5X7XF.G w X . . 0 p.*XiXdXdXdXaXaXjXiX1X:X^ . . . . . X X E M.u.`.2X2XyXyXyX2X2X&X!.Y.y.>.( L c c C i X . . X                                           ; . . . . : $.q.E.$X_.Y.&X,X;Xk.> . X                                                                                                                                                                                                                                                                                   ",
"                                                                                                                                                                                                                                                                                                                                              . . . X . . + o # # = 1 < # # # o X * ! -.%.o.o.O.O.:.>.>.O.O.:.:.<.<.,.,.,.,.w.w.e.e.S.S.D.S.U.T.E.T.m.m.N.l.) c 8 X X . . . . . . . . . . . . . . . . o # # o o o = u n B Z b 4 1 # + O . . . . X r F.yX8XuX7XG.T.' . . o o.p.*XiXuXaXaXdXdX-X!.).h . . . . . . . > l c +.y.U.E.R.Q.Q.R.S.!.R.t.8.o./ x y , & . . . X                                           * . . . . > %.q.T.$X`.Y.$X<X'.Q & . %                                                                                                                                                                                                                                                                                   ",
"                                                                                                                                                                                                                                                                                                                                            . . . . . . . + # # # o o o # # + o % 0 [ %.%.O.o.o.+.+.X.X.X.:.:.<.<.,.1.1.3.u.u.u.y.e.e.S.S.2.>.4.^ x j d l t > & o . . . . . . . . . . . . . . . . . f S A B h u 3 3 t g n V t = 3 5 3 = + . . . . 0 !.iXuXuXqX7X2XN.o . . & s U D.%X7X7X7X2XZ.K j & . . . . . . . . X X % * 8 w 9 9 9 e G S.E.U _ Q x g 9 o . . . . %                                           * . . . . i %.t.U.!.!.Y.!.&Xn.0 X . %                                                                                                                                                                                                                                                                                   ",
"                                                                                                                                                                                                                                                                                                                                            . . . . . . . + # # o o o o # + o t 0 E %.O.O.O.+._ X.X.X.X._ <.8.u.u.,.3.3.u.e.U.U.E.E.E.T.m.Q w - % . . . . . . . . . . . . . . . . . . . . . . . . . b ] ] Z M f f g g h M N M h h b m 5 = . . . . & >.~.J.5XqX8X2Xp.o . . . % s U.<X=X=X2X3X/.e & X . . . . . . . . . . . X o o o o & 8 L m.^.o.) E y > = . . . . X                                             & + . . X j 9.c.U.Y.Y.Y.`.>X8.* X . %                                                                                                                                                                                                                                                                                   ",
"                                                                                                                                                                                                                                                                                                                                          X . . . . . . X + o o # # # : t 3 > M E ^ o.o.O.X.X.X.X.:.:.:.,.w.y.U.S.y.y.y.y.y.E.4.I J J x x 9 & X . . . . . . . . . . . . . . . . . . . . . . . . . o u M B V M h g h l z M N ! ! A M g u 3 + . . . X 8 G ..H.7XqXyXD.e - o . X y l.^.U.n.m.x.^ - > 3 > * , - - X . . . . . . . . . X X o , x ^ E ~ Z n 2 . . . X &                                               & X . . X x z.n.E._.!.!.&X<Xq.; + + %                                                                                                                                                                                                                                                                                   ",
"                                                                                                                                                                                                                                                                                                                                          X . . . . . . X . o # # # & g S A M ! W Q ( _ O.X.X.X.:.:.<.,.u.Z.S.D.U.U.v.n.n.c.M.Q * X X X . . . . . . . . . . . . . . . . . . . . . . . . . . . . # 4 h h h l z M M M M M z M ` ` Z z g u u 3 = o X . X G 3.D.%X=X7X=X`./.E X $ > l 0 * & & o X . = M @.&.q.4.%.9 . . . . . . . . . . . . . X X X = = = . . . . +                                               * % + . . % Q c.U.[.&X`.`.*X3Xv.- + + &                                                                                                                                                                                                                                                                                   ",
"                                                                                                                                                                                                                                                                                                                                          . . . . . . . . . + # # & * M #.` E E E L P ( _ X.X.<.<.<.2.e.U.Y.S.y.y.8.Q H J c V i X . . . . X . . . . o # 2 2 = # o o # o . . . . . . . . . . . . 3 f h h n M M M M M N M z M ~ ~ M l y y p V f 6 # . . y :.<.C.C.J.=X2X1Xo.X o u n > & . . . . . % e U y.Q.n.8.y . . . . X > = X X . X . . . . . . . . . . . . .                                               * & X X X , ^ t.E.&X<X*X*X*X<XM., o X                                                                                                                                                                                                                                                                                     ",
"                                                                                                                                                                                                                                                                                                                                          + . . . . . . . . + + o & , N ' ~ E E L I P U X.:.<.<.,.w.u.S.E.T.n.n.c.-.9 . . . . . . . . . . X X X . o f A S A B u 2 2 6 2 o . . . . . . . . . . o u f n M M N N N N M N N z N ~ ~ N z d 9 0 ' #.A 3 . . . 8 G  ...G.}.*X}.<.* > l N C z u > 9 c Q K s F ..S.y.t.0 . . . . & [ W q w * % + . . . . . . . . . . . .                                               * & o X X 0 o.t.U.`.*X*X*X&X<Xc.- X %                                                                                                                                                                                                                                                                                     ",
"                                                                                                                                                                                                                                                                                                                                        # . . . . . . . . . + o o * d z C E E L I I U _ <.,.8.8.w.u.w.y.n.q.L v z t . . . . . . . . . . . . . + + = b Z Z B b 5 2 1 2 2 # . . . . . . . . . . = t g M M N Z N N M z x N N C ' @.C x c w x k.x.=.h = + . X - H <.D.F.}.F.2.I k k c E ' $.L ( n.[.Q.e. .C.Z.3.m.d . . . . & ) 4.:.4.) v - o . . . . . . . . . . +                                               , & & o X y o.t.S.W.`. X*X&X>Xz.& . %                                                                                                                                                                                                                                                                                     ",
"                                                                                                                                                                                                                                                                                                                                        . . . . . . . . + o = t y g N z c L L I I U <.w.y.y.n.n.n.t.:.o.%.$.9 X X . . . . . . . . . . # 5 m f u u u M A M h t 3 = = 1 2 # . . . . . . . . . # > u g l z N ! ! N z z N C ~ $.*.*.x c x s o.c.q.9.$.` u . . . X J y.Y.W.D.u.2.>.P H L Q ) U <.Y.&X*X*X*X=X~.w.M.N . . . . % J 8.v.v.t.6./ t . . . . . . . . . . o                                               9 & = o X j O.t.p.D.W. X*X&X;X=.% . &                                                                                                                                                                                                                                                                                     ",
"                                                                                                                                                                                                                                                                                                                                      . . . . . . . . . 3 u f V Z C E x L Q P U U X.r.y.U.T.T.v.c.k.E 9 & : = . . . . . . . . . . = > b ] h.#.] S Z A Z M f t 3 1 = 1 = # . . . . . . . . + 4 f g g l l M ! ! Z N N N C ' -.=.*.c s o.( +.8.4.4.9.=.N X . . . * W 8.S.S.3.3.U.8.I I P X.,.1.F.*X-X=X=X1X!.<.&.M . . . . % H 8.p.y.t.l.=.u X . . . . . . . . . o                                               9 & & o X j O.p.S.D.W.}.*X`.(.E X . %                                                                                                                                                                                                                                                                                     ",
"                                                                                                                                                                                                                                                                                                                                      + . . . . . . o : m n M Z E E E W Q o._ X.X.<.2.y.U.E.m.( * % X . + X X X . . . . + = : : t M M B ` ` ` ` Z M A Z A n u 4 2 1 1 1 # . . . . . . . + = f n h h g g N ` ` ! Z C C ! ' -.=.*.c J z.t.u.e.e.r.8.6.-.C > . . . & 8 H a.e.S.Y.u.U U U 2.S.D.W.*X=X=X XW.u.P x 3 . . . . % e :.y.y.8.4.^ p = . . . . . . . . . +                                               9 & = o X c 4.U.Y.W. X*X*X`.m.q . . &                                                                                                                                                                                                                                                                                     ",
"                                                                                                                                                                                                                                                                                                                                      + . . . . . o : 3 f M N C E E Q Q ( o.o.:.5.8.8.8.q.m.c.c X X X . X . . . . . . o t M B Z Z Z Z Z ` ` ` Z A M A Z A u u 5 2 1 < 1 # . . . . . . o = 4 f n h h g g N ` ' ` ! Z C ! ' %.=.*.c H n.S.Y.W.~.R.y.c.M.x.C & . . . % x P e.W.D.3...3.Z.D.D.F.W.}.-X*XW. .K e y u # . X . X w U u.u.X.P x p = . . . . . . . . . + &                                             , o = % * k 5.U.Y.W.*X*X&X_.v.y . %                                                                                                                                                                                                                                                                                       ",
"                                                                                                                                                                                                                                                                                                                                    2 + . . . . . o 2 4 f M C E W W Q ( o.o.+.4.8.q.q.4.c j y & X . . . . . . . . . X 3 M Z ! ` ~ ! ! ! ~ ~ ~ ~ Z Z ! ! B u u u 6 < # # o . . . . . . = 3 u h n z l d g N ` ' ~ ! E E ~ $.-.%.%.c G y.D.W.~. X!.U.n.m.z./ 0 9 - X = z k :.!.F.D.F.~.~.W.D.C.D.~.=X*XS.G w 0 u S 5 . . & - w U r.r.U G c M 3 X . . . . . . . . . X                                             > X & % w G 5.U.D.W.&X*X`.T.l.y X *                                                                                                                                                                                                                                                                                       ",
"                                                                                                                                                                                                                                                                                                                                    + . . . . . . # 2 t l N E E ) ( ( X.+.:.:.0.%.) $.$.i . X . X . . . . . . . + # > M A ` ` ` ` ~ ~ ~ ~ ! ! ` ` ` ` ! A b b m 6 2 < # + . . . . . . = 4 u h M M z z N ! ~ ^ ~ N N E / $.%.%.o.H K U.W.F.~. X~.Y.y.r.4.&.=.h.M X . o & o.>X~. X*X~.~.F.C.C.C.D.~.Y.w.w * 3 4 b 6 . + > 9 8 P t.q.( k x Z t . . . . . . . . . . . >                                           - X o % y K 5.U.S.W.<X>X_.m.9.9 X &                                                                                                                                                                                                                                                                                       ",
"                                                                                                                                                                                                                                                                                                                                  . . . . . . . + 2 3 t g x x W %.4.4.4.5.4.&.6.v ; - > & X . . . . . . . . . = 5 f h M Z ~ ` ' ' ^ ^ ^ ^ ^ ' ' ` ` ` ` Z B b b 6 2 1 # . . . . . . . = 4 u h M M M C ! ~ ^ ^ ~ E E E ^ %.O.( _ H Y Y.W.F.}.}. XQ.y.,.X.q.z.6.x & = = & l &.X.,.Y.D.D.F.F.F.D.D.Z.r.8.y X o . . . . . o o % H c.r._ H x Z t . . . . . . # # . . . &                                       w w & X o - z L 5.U.S.Y.]._.n.z.*.- X &                                                                                                                                                                                                                                                                                       ",
"                                                                                                                                                                                                                                                                                                                                  . . . . . . . + : > t y v c Q &.8.q.q.q.4.^ @.g X . . . . . . . . . . o : 2 5 n B A Z ~ ~ ~ ' $.$.*.*.*.-.*.@.' ` ` ` Z B b m 5 2 < # X . . . . . . 2 4 u n M N C C ! ~ ^ ^ ^ ^ ^ o.%.&.+.U X.U  .W.W.J.}.}. X!.S.,.:.>.4.o.W v z n - % & % * I !.W.~. X*X X[.n.:.) y X . . . . . . . . X k t.r.:.P J R t X = : + # 2 4 4 + . . X t                                   * % ; X X o 9 R ( >.y.p.U.Q.n.+.W l % X &                                                                                                                                                                                                                                                                                       ",
"                                                                                                                                                                                                                                                                                                                                  . . . . . . . + = > d x L E ) 4.9.8.9.%.W w 9 - X . . . . . . . . X + 4 n h n A ` ` ' ' ^ ^ [ *.=.h.k.k.k.k.*.' ` ' ` A B b f 5 1 # + X . . . . . + 2 5 u n V N N Z Z ! ~ ^ $.%.%.%.&.7.X.U w.Q.~. X}.}.}.*X}.Y.e.,.X.U U X.4.7.6.-.z t X X X c oX'.S.3.e.r.q.( w % % > = + # . . . . . X k r.r.>._ ( E y X > M f f h : > + . . X -                             k P I 8 ; ; ; X % 8 J P X.r.y.U.T.8.L q > o + -                                                                                                                                                                                                                                                                                       ",
"                                                                                                                                                                                                                                                                                                                                o . . . . . . X o > 0 d E / ) o.&.9.6.-.x l = X X . . . . . . . . # 2 : f M N Z ` @.@.@.' ' ' $.*.-.=.k.k.k.k.-.@.' ' ` V b b u 5 1 # . X . . . . + o 2 5 u n V N Z ! ! E E ^ $.%.%.%.&.o.U U e.}.}.%X%X%X%X=X}.F.Z.3.<.U U >.5.5.4.%.$.N & X X & x J s s s e e y * & > l u 3 3 o . . . . X k r.t.8.:.o.^ l 9 d ` ` ` Z g u = . . . o &                         l 8 F Z.W.!.~.~.e.2.y.8.K U 5.t.n.n.:.s * & + + -                                                                                                                                                                                                                                                                                       ",
"                                                                                                                                                                                                                                                                                                                                + . . . . . + 6 u g h z / o.o.o.^ o.^ *.l > = . . . . . . . . . . 5 n n B Z ! ~ ^ ' @.$.@.@.@.$.*.-.-.h.k.k.k.*.@.*.#.] V u u u 5 2 + X . . . . . o # 3 u u n M N C Z ! E E o.%.%.&.&.o.( :. .C.}.}.}.%X%X=X%X}.W.Y.S.U.<.<.5.,.:._ o.%.C + . + o - j ' ! c w 9 p z V N N g u 4 # . . . . X x r.y.u.>.O.) x j E @.' ~ ! N N 3 . . . . X -                   E e * 8 r }.dXdXdXdXdXiXVX_.r G _ :.8.5.P w % X . o 9                                                                                                                                                                                                                                                                                       ",
"                                                                                                                                                                                                                                                                                                                              + . . . . . . # u b M z C ' *.^ x 0 0 t n 3 + . X . . . . . . . . X h A M Z ~ ! ~ ^ / ' @.@.*.*.*.*.*.-.=.k.k.k.-.*.*.#.' V u 4 5 u 6 + X . . . . + # # 3 u f M V N N N N J E %.=.=.6.6.) I ,...G.%X|.|.%X=X-X%X}.W.~.~.[.<.G U U U U X.%.C . . + o & t *.' 9 & % i ~ @.~ C l u t : . . . . X J 0.e.e.,.O.) c j ^ @.^ E E C Z t X . . . o -                 =.j 8 w G ..7XdXsXsXfXfXdXVX XF F Y <.5.8.( w % % % & i                                                                                                                                                                                                                                                                                       ",
"                                                                                                                                                                                                                                                                                                                              . . . . . . . # 3 4 t > u M ! A t X = + # . . . . . . . . . . o # & h Z N C E E / ~ E ~ ^ @.*.*.$.$.$.*.-.=.k.h.*.$.*.*.#.Z f t u f 2 . . . . . . o # # 6 u n M M N x x x E ^ *.-.-.=.l.o.K 3.C.J.%X%X%X=X7X7X=X}.~.~.`.&XU r F F G U X.o.l . . = = o X l V * X % y ^ $.' ~ M u u = . . . . X x O.,.y.8.:.E 9 , ! @.^ ! E ^ ' u . . . . . X *             V z * r Z.}.6XpXsXfXfXfXsXsXjXdX*XW.S.u.y.U.v.U G H R l p E                                                                                                                                                                                                                                                                                     ",
"                                                                                                                                                                                                                                                                                                                              . . . . . # # : = = & o X o : 2 # X o . . . . . . . . . . . . : 4 h ' *.@.@.^ ^ ^ ^ ^ E E ^ ' ' ' ^ ! ' -.=.h.=.$.@.*.-.*.] n u b m 2 . . . . . o o # # 6 f n M M N N x x / *.-.-.%.^ $.( I D.}.|.%X5X=X6X7X7X=X%X}.}.*X&XU r Y I G K _ ^ 0 . + 6 3 & & j ^ E x c E $.-.$.^ C y t = . . . . X y P 2.U.u.:.c & X l ~ ~ ! E ' *.l o X . . . X X           h.t X ; G %XpXgXsXsXsXfXfXsXsXjXjXBXdX*X3.Z.S.D.3. .T _ K r k q e W                                                                                                                                                                                                                                                                               ",
"                                                                                                                                                                                                                                                                                                                            = . . . . . 3 6 4 3 : = o + + + + . . . . . . . . . . . . . + # u A @.-.=.=.=.-.%.-.=.-.^ C C C E C N x / *.=.=.-.$.' *.-.*.` b u b m 2 . . . . . o o # = 5 b n M N N x x E $.-.-.-.*.x x J I D.}.%X%X5X%X%X=X=X=X*X}.*X1X2X,.G <.,.U Y ( W > . o 4 t 9 q W v.v.t.4.7.9.k.%.^ ! g u > . . . . . w K 2.Y.e.4.v X X 0 N ! / / ^ *.E - X . . . . X       9 V ] 4 t q T 6XgXsXsXsXsXsXsXsXsXkXjXjXdX7XF.~.}.}.F.C.G.}. X X].8.H x p                                                                                                                                                                                                                                                                             ",
"                                                                                                                                                                                                                                                                                                                            # . . . . . = 4 5 5 6 2 # + + + + . . . . . . . . . . . = : 3 > h ' -.-.-.=.6.=.*.-.k.k.=.o.^ ~ ~ C C ! ' *.-.-.-.#.@.*.*.#.S b u 4 2 o . . . . . . o # = 5 b h M N x x E ^ $.-.-.h.~ q q k G C.%X%X%X%X%X|.}.}.*X*X*X X X&X1.T 3.Z.3.8.o.c , X : g l z J %.n.p.y.t.8.z.l.&.$.' N h t . . . . . w P e.W.Z.t.^ = + i Z N E / ^ ^ c 8 % X + . . . &   9 X X X X y ( C.8XgXsXsXsXsXgXpXtXaXsXsXfXfXdXuXyXyXuXuXuXuXdXdXdXdX1X<.e % w                                                                                                                                                                                                                                                                           ",
"                                                                                                                                                                                                                                                                                                                            + . . . . . o 2 2 2 2 = + . . + + + + o o $ o # # 3 4 u f M A A ~ *.-.-.-.-.=.*.$.*.9.k.9.%.*.*.*.@.@.-.h.-.*.*.*.#.#.*.*.#.S u 3 # . . . . . . . $ o = = 5 n M z N x x ^ *.$.$.@.-.! 9 w s G ..%X%X%X%X%X}.H.F.~.}.*XD.T  .3.D.Y.S.2.>.W , % * t M Z R W :.p.S.p.t.8.t.t.4.=.*.N M f . . . . . 9 Q e.W.e.t.$.- o u ` / ^ ) %.O._ Q R l 3 # . . X X X . . . X q T J.uXsXsXsXsXpXpXrXeXrXpXsXsXfXfXfXdXdXdXdXdXsXsXsXfXfXdX2X:.% p                                                                                                                                                                                                                                                                           ",
"                                                                                                                                                                                                                                                                                                                          + . . . . . . . . + + . . . X X + + o o o # # 2 5 f B A M M A ! ! ! ' $.*.-.-.*.$.^ ^ %.-.-.*.$.$.*.*.*.-.-.*.@.@.#.@.@.' ` ] Z 5 = . . . . . . . . . o = 1 u n M N C L E $.*.*.@.E @.~ 0 J X. .C.}.%X%X%X%X}.F.D.D.W.`.3.G Y C.F.W.Z. .I w X X > z N E W P X.p.Y.R.U.t.c.c.0.k.-.N M m . . . . . * H S.~.Z.r./ & X 9 ! ) O.O.q.n.U.n.q.^ d : . . . . . . . . % G Y H.qXpXpXpXrXeXeXeX8XqXrXtXaXfXfXfXfXfXfXsXsXsXsXsXfXjXjXVX3XL k c                                                                                                                                                                                                                                                                         ",
"                                                                                                                                                                                                                                                                                                                          . . . . . . . . . . . X . X X . + o # # # 7 : 2 3 u g n M N C C C C E ^ / ' *.*.$.^ ^ o.-.=.-.*.$.*.*.@.@.' ' ` ` ` Z z M A Z n : # o . . . . . . . + o 1 2 u M M C E ~ ^ $.$.*.! d g y w :.[.W.}.%X%X%X*X*X}.D.Z.Z.Z.e. .G T C.D.S.3.U k 0 X X j ~ / Q ) U :.U.!.[.Q.U.n.c.q.l.=.E N b . . . . . X r S.`.Z.5.J & X 9 E o.4.8.p.R.W.Y.y.( j > o . . . . . . X 8 U T L.9XrXrXrX8X9X8X8X8X8XqX8XpXfXfXjXfXfXfXsXsXsXsXfXfXjXjXBXiXw.e 8 e                                                                                                                                                                                                                                                                       ",
"                                                                                                                                                                                                                                                                                                                        # . . . . . . . . . X X . . X X + + # # # # 2 2 2 3 3 f h M C N N C C C N c N ' $.@.' @.*.-.h.h.=.-.-.@.^ ! ~ ~ ~ ! ! l , t B A b 2 = o . . . . . . . . o 1 3 u M M ! ^ @.$.$.^ ~ z - - w r <.*X*X}.%X%X}.F.F.D.D.D.D.D.D.D.Z.e.u.<.U U H 9 > > 9 C *.%.&.4.8.p._.$X].Q.n.n.c.q.l.=.E Z n . . . . . X w D.*XC.<.J - X p %.0.y.y.S.Y.D.Y.y.U L h o . . . . . . . q u.L.K.9X9X5X5X9XqXpXaXpX8X9X9XqXaXfXjXjXfXfXsXfXfXfXfXfXjXjXBXyX..s r k                                                                                                                                                                                                                                                                       ",
"                                                                                                                                                                                                                                                                                                                        . . . . . . . . . . X X X X X X + + # # # # : 6 6 3 4 f M M N C C C E E x w j ! ' @.@.$.*.*.*.=.=.j.=.*.^ ~ ~ ! ! Z N g > u M B m 2 # . . . . . . . . . o 2 6 u n M ! @.$.$.^ C z h , * s Y C.=X%X%X%XH.C.L.C.3.C.D.Y.D.Y.Y.U.e.5._ k w * X = u N ) =.9.8.t.m.(.$X&X$X_.U.m.m.c.z.=.! Z n . . . . . . e ~.-X3.X.W 9 & / c.v.E.U.S.Z.D.!.(.q.o.Z : . . . . . . . w e.%X8XqX9XK.H.%XuXgXdXdX8X5X9X8XqXpXfXfXfXfXfXfXfXfXfXfXjXjXBXiX*X(.( H                                                                                                                                                                                                                                                                       ",
"                                                                                                                                                                                                                                                                                                                      . . . . . . . . . . . . . X X X + + + # # o # : 6 6 4 u f n M N C C ~ ~ ~ C w j ! ' ' $.*.*.@.^ @.*.-.=.*.' ~ ~ ! ! A M h f B A n u 2 o . . . . . . . . . o # 2 u n M Z ^ @.@.! q , , % ; G ..C.=X%X%X%XJ.G.G.G.F.D.D.Z.1.<.<.<.:.0.=.z % X . & i x %.9.9.8.w.E.'.&X&X&X_.E.E.m.c.z.=.! ! n . . . . . X e ~.-X3.<.$.y 9 %.t.S.S.S.Z.D.W.`.'.9.E ~ 4 . . . . . . X 8 1.=XuXqX9XK.L.G.%XyXuXuX7X5X9X8X8X8XpXsXsXsXsXsXfXfXfXfXjXjXBXVXiX3X<.H                                                                                                                                                                                                                                                                       ",
"                                                                                                                                                                                                                                                                                                                      . . . . . . . . . . . . X . . . + + + # o o # : 5 f h f f h M M C C ~ ^ ~ N 0 z ~ ' @.@.*.*.' ^ ^ @.@.@.@.' ` ~ ! Z B n b n B B b 6 o . . . . . . . . . . o 2 6 u n h z E ~ ^ ~ 0 . X 8 r  .D.G.%X5X%X%X%X7X7X2X-XW.S.e. .T U U Q E V 3 X + . & 8 e O.8.8.w.y.Q.$X>X&X$X_.U.E.m.z.l.=./ ! M . . . . . X e ~.*XC.,.k.N y %.u.Z.Z.C.D.W.~._.m.L * : o . . . . . . X * U }.%X%X%X5XJ.G.J.%X%X%XJ.K.%X7X8X8XqXaXfXsXsXsXsXsXsXfXjXjXjXdX-X$XK r                                                                                                                                                                                                                                                                       ",
"                                                                                                                                                                                                                                                                                                                      . . . . . . . . . . . X + + o o + + o o o o # : u h M h g g h h M Z ~ ~ E z y N ^ @.@.@.@.@.' ^ ^ @.@.` ~ ~ ~ ! ! Z B f f b n b 5 # . . . . . . . . . o o # 6 6 u f y d x E ~ ` t X y Q U 3.F.G.%X5X%X%X7X7X7XyX-XD.1.<. . ._ P c * X . . + = > q e O.t.n.T.Q.$X&X&X&X$X(.n.n.v.q.0.=.W ! M + . . . . X r D.*XC.w.k.N y o.e.Z.Z.D.F.~.[.T.z.c X . . . . . X . X X * G 1.C.L.H.6X=XH.J.J.J.J.H.G.|.7X8XuXpXfXfXsXsXsXsXsXsXfXfXjXBXiXF.:.w p                                                                                                                                                                                                                                                                       ",
"                                                                                                                                                                                                                                                                                                                    # . . . . . . . . . . . . + # # # o + o # # o o > u h C A l f f f h Z ~ ~ C h d N ` @.@.*.*.@.@.' ' ~ ~ ! ! ! ! ! A B M u u u b u 2 . . . . . . . . . . . o 2 5 u u f g h N C ~ ~ 9 % v 8.3.C.G.L.J.%X%X%X7X7X7X7X}...U U X.O.) x - . . . . # u l c K O.c.T.'.;X>X&X&X>X;X(.n.n.c.q.9.=.E ! M + . . . . X w C.}.C.,.%.l - P S.D.~. X`.!.T.O.~ y X . . . X . . X . X * K Z.H.H.|.%X=X|.J.J.%X=X%X}.}.=XyXuXuXdXdXfXfXfXfXfXfXfXfXfXBXVXE.s 8 e                                                                                                                                                                                                                                                                       ",
"                                                                                                                                                                                                                                                                                                                    o . . . . . . . . . . . . o # < < < 1 < # 2 : 4 h M A ~ ~ M d t > t z ! C z l d l C ` @.@.' ~ ~ ! ! ! Z Z Z ! ! Z M n n u u u u 6 # . . . . . . . . . . o # 6 5 5 u u g h M C Z C , , k ,.S.F.G.C.}.-X-X-X-X=X-X-XF...<.U H H j 9 . . . . . + i p c 4.t.E.(.].$X&X&X>X;X;X).n.n.c.8.9.%.E ! M . . . . . X 8 C.}.Z.,.Q 0 X k U.W.*X*X`.T.9.q - & X X > z Z A = . + - 8 ,.=XyX7X6X5X%X%X%X6X7XuXyXD.1.3.F.}.%X7X7X7XuXpXpXuXdXdXiXiXNX3X4.* % w                                                                                                                                                                                                                                                                       ",
"                                                                                                                                                                                                                                                                                                                  + . . . . . . . . . . . + # # < < 1 2 6 2 # 2 f M A Z E ~ ! z y 0 > 3 h z N z l l z M Z ! ! N z z z z z M A A A Z A n f u 5 6 6 2 # . . . . . . . . . . . @ # 6 5 5 u u f g g f t 0 > 9 W q.S.S.3. .p.Y.D.S.D.D.F.*X*XW.E.O.w * % X . . . = t 9 y c ) T.(.).].$X$X&X&X>X;X;X[.E.m.m.q.9.%.E ! B . . . . . X w S.}.C.<.J * X e U.~.*X`.n.c.*., & & % * x &.x.x.t . + > 8 o.[.*X}.5X5X5X%X6X6X6XyX2X..Y T ..G.J.}.H.G.G.G.G.L.G.G.C.C.u.Q * X X 8                                                                                                                                                                                                                                                                       ",
"                                                                                                                                                                                                                                                                                                                  . . . . . . . . . . . + # < < < < 1 2 6 2 # 6 b M Z E E E E z h d d u l z N z z z z N C Z N l g g d h h M B M M A B n u 5 2 = # o + . . . . . . . . . . . . # 6 5 u t u f u u : > > > , x o.:.U G F G G F r G Y 1.F.~.Y.v.W % X X X X X X 9 z x $.9.c.(.)._.].].$X$X&X;X;X;X'.T.T.M.q.9.%.E ~ B . . . . . X w D.}.3.<.c X . s e.W.*XY.X.%.M X X % , j P +.k.k.y & = t ; w J U ..J.9X5X|.%X}.H.}.-XC.C.}.%X%X=X6X%X|.J.H.G.L.C.C.1. .G * . X X 8                                                                                                                                                                                                                                                                       ",
"                                                                                                                                                                                                                                                                                                                o . . . . . . . . . . + # < 2 2 2 2 2 2 6 2 2 f M A ~ ~ E W E c l z z N E ^ ^ E C N x z N C Z l g y y d g g h M A Z Z b u 6 1 # o . . . . . . . . . . . . . o # 6 6 4 t f f f 4 & > > = * * * 8 r U _ U U U Y Y Y Y G G s w % . X o = t i - 0 x / x.^.^.T.T.[.].].$X$X$X;X;X;X'.^.^.m.0.9.%.E ! B . . . O . X w Z.~.3.U q . . s e.W.&XU.H 9 + . . X d Q o.( o.L c h.h.Z & X X w Y J.8X9X|.A.....G.=X=X6XuXuXuXuXdXBXBXBXdXuXuXyX7X=X XZ.c X % ; e                                                                                                                                                                                                                                                                       ",
"                                                                                                                                                                                                                                                                                                                + . . . . . . . . . . . # 2 6 6 6 5 6 6 6 u f n M C ~ ' Q W L L E E E / o.%.-.o.^ ) ^ E N N C z d y y 0 9 9 > t h B M u > = # o o . . . . . . . . . . . . . @ o 2 6 u u b h u > & = > & & * * 8 K ~.2X=X*X~.D.Z.Z.w.P 8 % X . . + > i l N l E =.q.M.^.(.T.T._.].$X$X$X$X$X;X;X'.^.^.m.0.6.%.E ! V . . . O X X 8 e.~.1.G ; . . s p.!.&XT.v X . . . X c o.+.o.Q k J x.B.! * % * k <.}.8X8X6XG.T ..F.7X8X8XuXpXpXgXfXBXBXBXBXBXBXdXgXuXyX*X,.w l J                                                                                                                                                                                                                                                                         ",
"                                                                                                                                                                                                                                                                                                                X . . . . . . . . . . + # 2 6 6 5 5 5 5 u B A A A N C / ^ ) &.9.z.M.z.z.M.M.z.9.9.9.=.$.^ / E c j q q 0 9 9 , 9 0 u t > = = # # o . . . . . . . . . . . . . . + o 2 5 u b n f 3 : = t 9 0 x W G T ~.=X=X%XJ.J.F.Y.T.%.- . . . . = 9 9 j E ^ %.M.m.^.).).(.Q.'.$X;X].$X$X$X;X;X'.T.^.m.l.6.$.! ~ V X . . . X X 8 e.W. .r % . . r u.Y.[.N.l . . . . X x o.o.o.Q L L -.k.x 8 8 w G 1.J.7X6XyX XC...G.8X8X8XpXpXpXpXdXdXBXBXBXBXfXdXpXuX8X=Xe.G J Q                                                                                                                                                                                                                                                                         ",
"                                                                                                                                                                                                                                                                                                              . . . . . . . . . . . . + # 2 6 5 5 6 6 4 f A ~ ~ A z z E %.9.N.).'.;XoXoXoX).M.z.q.9.9.6.6.6.&.&.%.%.) ^ ^ E E C N N N M u u 6 # o + . . . . . . . . . . . . . o # 6 5 f b m u 3 : : l x c ) t.y.D.}.}.J.G.C.D.e.w.O.x X . . . . 4 l y c ) 6.4.M.^.^.)._.).(.'.].].].].$X$X;X;X'././.N.l.6.$.! ' B . . . . X X 8 3.W.1.I w . X H u.p.y.9.y . . . . X d Q o.o.( Q Q %.%.k 8 r I K Y F.7X|.|.,XC...G.uXpXeXpXgXgXgXdXdXdXfXdXdXdXaXpXpXuXyX`.G e (                                                                                                                                                                                                                                                                         ",
"                                                                                                                                                                                                                                                                                                              . . . . . . . . . . . + # # 1 2 6 6 6 4 u h Z ! ~ C z C ^ =.9.M.N.^.).).).).).N.z.q.9.9.9.z.v.M.M.M.N.M.M.x.x.k.j.-.-.*.#.Z B m # . . . . . . . . . . . @ o @ o # 2 5 m b n m 3 : : & d L L ( 8.n.S.D.F.D.D.D.e. .K s 9 . . . . . 3 ! ^ [ 6.l.8.v.m.^.(.(.(.(._.].].].].].$X;X;X'.^./.N.l.6.$./ ' Z + . . . . X 8 ,.S.3.8.L o X ( y.u.,.) t . . . . X q W ( +.o.( o.%.&.k r 5.(.r.F 3.2X~.C.Y.3...G.8XpXpXpXaXaXaXdXdXdXdXdXdXaXgXgXgXpXdX3XI e                                                                                                                                                                                                                                                                           ",
"                                                                                                                                                                                                                                                                                                              . . . . . . . . . . + + o # 1 2 6 6 5 u h n M Z ! Z C ! @.-.-.o.+.&.4.9.q.q.z.z.9.9.9.9.9.z.N.M.N.N.N.N.N.M.z.l.l.9.-.-.*.` S n = . + . . . . . . . . . @ o o o # o # 6 f m f 3 : > * 9 E Q W ( _ X.:.<.<.2.t.4.H * & X . . . + & t ~ $.=.k.l.8.t.c.T.(.(./.R._.].].].].$X$X;X;X'.T.^.^.l.6.$./ ' A + . . . X . *  .S.e.t.^ = X ( p.2.:.L > . . . . X 9 x Q o.o.o.) o.%.H K T.<XU.r G U.5.<.w.<...L.5X8X8XeXpXgXaXdXdXdXdXdXdXaXaXgXpXpXdX2XI s                                                                                                                                                                                                                                                                           ",
"                                                                                                                                                                                                                                                                                                              . . . . . . . . . . + + o # # 2 2 6 5 f n h l C C Z ~ ~ ^ *.@.W L W Q ( o.o.o.%.&.4.6.9.6.9.M.N.M.N.m.m.m.M.z.q.z.9.%.-.-.` Z B = . . . . . . . . . . . . @ . . o o o o # 2 5 2 : : = i ' $.x e j e e s r e q 9 * X . . . . + t n ` $.%.=.9.q.8.q.c.m.T.^.T.T.(.'.'.].].$X$X;X;X).T.(.^.q.6.$.E ' M + . . . . . *  .C.3.t./ o . U p.u.>.J > . . . . . & q c ( o.o.o.) ) Q I U.3Xm.8 ; w e W 4.U ..C.K.5X9X9X8XeXpXgXdXdXdXdXdXaXaXaXaXpXiX&Xr e                                                                                                                                                                                                                                                                           ",
"                                                                                                                                                                                                                                                                                                            + . . . . . . . . . . + + o # 1 2 2 6 4 u h l l M C C ! ! ! ~ ! x E / @.o.$.o.o.%.&.4.9.9.9.9.x.x.c.M.m.m.n.c.t.q.q.9.&.=.*.! M n # . . . . . . . . . . . . . . . o o + o o o 2 : # # o > M N 0 & % X X X % X X X . . . . . . > V ` *.-.%.=.9.9.8.q.t.n.T.T.T.E.(.'.[.].$X$X$X$X;X).T.^.M.0.=.) E ~ l X . . . . . *  .3.3.t.W % . ( p.e.8.W t . . . . . X * c ) =.&.O.( ( ) I 5.>Xt.8 ; % - E ) K T C.H.5X9X9X9X9X8X8XpXdXBXBXBXBXfXfXdXdXdX>Xr e                                                                                                                                                                                                                                                                           ",
"                                                                                                                                                                                                                                                                                                            o . . . . . . . . . . + + o # 1 1 2 5 u u g h z z z M A A C C C N N ! ' @.@.*.*.-.=.9.9.9.x.z.k.6.%.&.l.c.M.c.c.z.z.q.6.-.*.C h t + . . . . . . . . . . . . . . . . + + o + . o 5 6 . . . X o X X X X X X X + + . . . . . . o t z ~ @.*.%.&.6.6.9.q.t.v.m.m.n.m.).].'.].$X$X$X$X$X(.m.m.M.6.&.) E ~ g X . . . . . 8 ,.Z.3.8.x o . P p.u.5.W g $ . . . . . & c 6.l.6.%.( Q ) L U [.[._ J - t M E s U 3.G.6X8X8X8X8X8X8XpXdXBXBXBXBXBXBXBXdXiX(.w q                                                                                                                                                                                                                                                                           ",
"                                                                                                                                                                                                                                                                                                            + . . . . . . . . . . . . o # 1 2 6 m b n h M M M l z M M M M N M N N N C C ! ~ -.k.k.9.6.k.k.=.) W W %.9.z.c.c.z.z.k.=.-.@.z u > . . . . . . . . . . . . . . . . . . o o . . . m 5 . . . X & > > = & & o + X . X . . . = 3 i g z ~ $.o.o.%.&.4.9.z.c.v.M.n.n.m.).].'.].$X;X;X].'./.n.v.z.&.&.) ^ @.u . . . . . . w u.Z.3.<.x o . P p.w.>.c > . . . . . . X w $.l.l.6.) ^ Q H G Y.&X`._.) - = l H U C.L.%X8XqXeXeXeXpXpXgXdXdXdXdXuXuX2X~.,.H * q                                                                                                                                                                                                                                                                           ",
"                                                                                                                                                                                                                                                                                                            . . . . . . . . . . . + o o # 2 3 5 b B M V A A l i i u t u y u y d l z l l j d @.k.k.=./ [ @./ / E ^ %.6.9.z.z.x.x.k.-.*.` g : o . . . . . . . . . . . . . . . . . . . . . . . = : > j y * * y z y y g 3 o . . 5 m # # n Z A N z E ^ ) o.%.&.&.9.z.c.c.v.n.n.m.).'.'.].$X>X;X].'.^.c.c.q.&.=.$.@.@.t . . . . . . q e.Z.1.<.J & X o.U.e.8.k X . . . . . . . % J l.q.9.%.^ W k s u.F.~.<Xz.& X 9 H <.C.G.5XqXeXrXeXpXpXpXpXpXuXuXuX8X=X}.1.r 8 * w                                                                                                                                                                                                                                                                           ",
"                                                                                                                                                                                                                                                                                                          o . . . . . . . . . . + . o # 1 2 6 u b M n M Z Z z 9 - - - - , , > 0 d l z l j 0 C =.k.=.~ ' ' ~ ~ ~ ^ *.-.-.=.9.9.=.-.^ ~ M : . . . . . . . . . . . . . . . . . . . . . + . X o & 0 *.x.9.J k J ^ E N M B = X . u n 3 4 A ` ~ ! N E o.o.O.%.&.6.6.z.c.z.c.M.m.^.).[.Q.[.;X;X].'.).N.M.c.9.%.=.*.*.` 3 . . . . . . q u.Z.1.<./ - % X.U.S.n.J X . . . . . . . X p 6.z.l.%./ R p p ( 2.!.;X&.& . * H ,.J.J.8XeXrXrXrXeXpXpXpXpXpXpXpXuX7X*Xn.w % & *                                                                                                                                                                                                                                                                           ",
"                                                                                                                                                                                                                                                                                                          . . . . . . . . . . . . . o # 1 2 5 u b b n l N Z N j t i 0 0 9 9 9 0 j c x x c p l ~ ' ! z C @.` ` ' ' ' *.-.*.*.*.' C d M t o . . . . . . . . . . . . . . . . . . . . . + X 9 N k P c.m.r.5.0.0.9.o.! C n # . . # 2 3 u B Z ! ~ E ^ %.%.&.4.6.6.9.q.q.8.z.v.^.).).).Q._.;X].).^.N.M.z.z.&.%.-.*.*.` : . . . . . . q u.S.3.w.*.> & _ p.U.E.W % . . . . . . . . - ^ x.x.k.$.l 9 0 p K q.N.x X . 8 I 3.}.%X8XeXrXrXrXeXpXpXpXpXpXpXpXuX%XF.w.w % & ;                                                                                                                                                                                                                                                                           ",
"                                                                                                                                                                                                                                                                                                        X . . . . . . . . . . . . . o o # < 5 u f b n g h z N ! ^ ~ E E N x x E / ) ) ^ Q W x j 0 , & , l z M A A ` h.j.-.*.#.' M > 4 : + . . . . . . . . . . . . . . . . . . . . X X % / 6.P ( 8.y.w.r.c.c.6.^ N g > + . + o = t u h M C / ^ $.=.6.6.6.6.9.0.q.8.8.q.c.^.(.(.).).'.oX'./.m.m.z.9.9.%.$.-.@.' S : . . . . . . e e.Z.3.w.-.t * U S.Y.T.) & . . . . . . . . X 0 ^ k.j.' 9 & X % & q j & X . ; G 1.}.%X5X8X8X0X0XrXeXeXeXpXeXpXpX8XH.C.8.w X - w                                                                                                                                                                                                                                                                           ",
"                                                                                                                                                                                                                                                                                                        + . . . . . . . . . . . . . . o o # 6 5 f u t l M z E *.=.*.$.%.o.o.&.9.l.z.c.z.z.l.&.Q x d 9 - * & = : > M h.j.' Z N B u o o + . . . . . . . . . . . . . . . . . . . . X 9 p j &.:.U U :.5.:.P P Q J 0 , & + . . + = t u u g l N / ^ %.=.6.9.9.0.0.l.q.8.8.q.q.m.T.(.'.'.'.oX).m.M.z.9.6.6.=.-.-.! M n # . . . . . . p t.e.1.5.[ - & U S.Y.R.%.> . . . . . . . . . X > i i > X X . . X % % - & X * G ,.F.J.K.zX9X9X8X0XqXqXqXpXeXqX8X7XG.D.v.0 X 9                                                                                                                                                                                                                                                                             ",
"                                                                                                                                                                                                                                                                                                        + . . . . . . . . . . . . . . . o o # 2 5 t u M ! E ^ =.6.&.&.%.&.4.q.c.n.m.E.m.m.T.m.z.9.=.*.N & X o + o 3 b n > & o o . . . . . . . . . . . . . . . . . . . . . . . . & ^ M.t.v.r.,.<.U U K r w 9 9 & X . X . + : u f f g M x E ^ ^ %.6.9.9.0.0.q.l.0.q.c.c.8.n.'.'.'.'.'.).^.c.9.9.%.&.9.k.h.*.M g 5 o . . . . . . j t.e.3.8./ % % U S.S.T.o.> . . . . . . . . . . . . . . . . . . . X o > - & y Q 5.Z.F.L.K.5X5X9X8X8X9X9X9X9X9X9X%XG.e.O.* % w                                                                                                                                                                                                                                                                             ",
"                                                                                                                                                                                                                                                                                                      o + . . . . . . . . . . . . . . . . + o = 4 g l ! ' ^ $.=.4.4.4.4.8.t.p.n.E.R.R.R.(.[./.n.M.M.x.$.* % o = = # # o . . . . . . . . . . . . . . . . . . . . . . . . . . . X , ) m.E.U.y.e.2. .Y K k w * & + . . X . = u M n g M ! ^ E E W o.=.9.9.q.q.q.q.4.8.m.v.4.t.^.).).^.^.^.N.M.z.l.&.%.=.=.-.' M f 3 . . . . . . . q r.e.3.r.R o % :.Z.Z.y.L - + . . . . . . . . . . . . . . . . . . . + = = & i J P U  .T L.H.K.5X9X9X5XK.K.K.K.J.J.C.U w X X 8                                                                                                                                                                                                                                                                             ",
"                                                                                                                                                                                                                                                                                                      . . . . . . . . . . . . . . . . . . . # > u M ~ ' $.$.%.4.6.9.5.>.t._._._.`.`.].&X&X>X].Q./.).).B.E 9 y d = o o + . . . . . . . . . . . . . . . . . . . . . . . . . . . o y ^ 0.r.y.u.y.Y.U.y.t.q.' y o . . . + 2 4 n V V V ! ^ ^ E c c Q -.6.9.l.q.q.0.&.0.v.q.o.9.c.M.N.N.M.N.N.M.M.x.6.%.$.~ C N h f : . . . . . . . w :.2.3.t.R % ; >.S.e.w.J 0 : . . . . . . . . . . . . . . . . . . . . + & & & 9 w H U U 1.F.}.=X6X6X%X|.}.}.}.}.}.T.H ; ; *                                                                                                                                                                                                                                                                               ",
"                                                                                                                                                                                                                                                                                                    . . . . . . . . . . . . . . . . . . . o : u h A @.$.*.%.&.4.6.8.8.8.y.[.&X*X*X&X&X,X,X<X>X&X&X;X<X;Xv.o.-.' i % o . . . . . . . . . . . . . . . . . . . . . . . . . . . . o - j W ( 4.,.y.`.`.E.m.c./ > . . . + 4 b b n V N N ! ^ / W J J Q %.6.9.9.9.q.7.O.9.z.6.Q %.&.6.9.9.%.%.%.%.=.=.-.$./ c y u u u = . . . . . . . 9 X. .w.c./ % * :.e.u.w.P N b + . . . . . . . . . . . . . . . . . . . . # = & & - p H I ( <.<.,.1.1.,.<.<.T T T ,.[ p % 9                                                                                                                                                                                                                                                                                 ",
"                                                                                                                                                                                                                                                                                                    . . . . . . . . . . . . . . . . . . + 2 f h l N ~ $.%.7.4.4.8.8.8.8.u.R.&X*X*X*X&X&X,X,X*X&X&X>X<X<X(.v.m.M.%.x l - . . . . . . . . . . . . . . . . . . . . . . . . . . . + + & 9 w c P 5.;X'.8.O.$.y X . . . : n B B M V V N N E ^ ) ) ) ) o.%.%.4.6.6.7.&.6.l.-.E ^ ^ ^ ^ ^ ^ ^ / / ^ *.*.$.' V u 4 4 5 : . . . . . . . y 4.X.,.v./ % * <.3.3.w.( / ] = . . . . . . . . . . . . . . . . . . . . + o & ; ; 8 * ; % % ; ; ; ; % ; 8 8 ; ; 8 * ; % w                                                                                                                                                                                                                                                                                 ",
"                                                                                                                                                                                                                                                                                                    . . . . . . . . . . . . . . . . . . 3 n n h l c E Q %.4.8.8.8.8.r.u.w.U. X X~.`. X&X&X*X*X&X&X&X<X<X;X;X>X;X'.N.x.E * X . . . . . . . . . . . . . . . . . . . . . . . . . . . + & - q k P c.4.k w 0 o . . . + f A A A B N V V z x / $.%.%.%.) ) o.&.4.7.6.=.=.=.$.N ! ~ ~ ~ ~ ^ ' @.@.@.@.*.#.' ! z t 4 5 2 . . . . . . . 9 ) P O.v./ ; 8 <.3.3.w.X.^ ' 2 . . . . . . . . . . . . . . . . . . . . . X o * 8 w p p 9 8 * * 9 y - & 9 & X X o o X % 8                                                                                                                                                                                                                                                                                 ",
"                                                                                                                                                                                                                                                                                                  = X . . . . . . . . . . . . . . . . o t B n l c x L ( O.4.8.8.8.8.w.u.u.S.`.`.W.D.W.~.`.*X*X*X*X*X*X<X<X<X<X<X;X).m.%.w - = X . . . . . . . . . . . . . . . . . . . . . . . . . . X & t y q x q % X . . . . . # 5 m b b n M M g 0 j ! $.-.=.%.$.%.%.&.&.&.=.=.%.*.~ l l M N A A Z ~ S ~ ~ ! ! C N N A u : 6 < . . . . . . . X 9 w ) x.` & 8 <.3.3.w.X.%.' : . . . . . . . . . . . . . . . . . . . . . . & l R ) 4.4.o.( Q Q $.=.! - = # X X . % 9 p                                                                                                                                                                                                                                                                                   ",
"                                                                                                                                                                                                                                                                                                  + . . . . . . . . . . . . . . . . o = > f N N L P o.5.8.,.2.w.u.u.u.e.e.Y.`.&X~.Y.W.D.D.~.*X=X=X*X*X&X*X&X&X&X>X'.(.m.&.' ` 3 X X . . . . . . . . . . . . . . . . . . . . . . . . . . + = - 9 = . . . . . . . . + o o # = = = & & - z / [ $.$.*.%.%.%.%.*.-.*.$.' N t > > > 3 4 u u u u u i i i y z N t # = o . . . . . . . X , * R -.V % 8 <.3.u.u.+.o.^ > . . . . . . . . . . . . . . . . . . . . . X t $.6.8.r.u.w.5.5.8.q.c.^ * X . . X . & E                                                                                                                                                                                                                                                                                     ",
"                                                                                                                                                                                                                                                                                                . . . . . . . . . . . . . . . . . + 1 = = t N ! ^ ( 4.y.y.3.e.S.!.!.!.!.Y.!.!.!.[.`.`.W.D.W.*X1X1X*X X~.~.~. X&X&X].].].).M.x.N o + . . . . . + X X X X o - 9 q j J L J x e 8 * & X . . . . + + . . . . . . . X X . X X X . . . . . . & 0 l C ^ ' $.$.^ / ' $.$.' ! n = X X + o # # # # # & = = - - 0 l 0 & + . . . . . . . . = z w x N , X q w.u.Z.y.:.^ N = . . . . . . . . . . . . . . . . . . . . . . - E %.8.r.u.u.8.,.5.q.c.( * X . . . . %                                                                                                                                                                                                                                                                                       ",
"                                                                                                                                                                                                                                                                                                X . . . . . . . . . . . . . . . X + 1 t t y z ! ) _ ,.S.S.S.Y.~.*X&X&X`.`.!.3.3.!.$X&X&X`.`.*X=X1X=X*X X`.~. X&X&X`.`.].).N.x.*.t # + . . . > l y y p j x O.0.t.U._._._._.R.n.5.7.N X . . . + X . . o h C x Q %.$.^ W W W E N V y - X + = 3 M Z ! ! Z C C Z ~ ` ] ! h = . . . . . . X X X X X % & % ; 8 * X . . . . . . . . . . 9 9 ! ! * X x y.e.Z.y.4.W 9 . . . . . . . . . . . . . . . . . . . . . . . % 8 J 5.8.r.r.8.8.8.t.c.Q 8 . . . . . %                                                                                                                                                                                                                                                                                       ",
"                                                                                                                                                                                                                                                                                                + . . . . . . . . . . . . . . . X + 2 u g l N E W U 8.Y.Y.D.F. X*X*X*X`.Y.p.<.2.!.].$X].]. X*X*X1X1X*X*X*X*X*X*X`.!.Y._.'.^.M.k.g # + X . . , c e s H H K <.3.3.D.F.F.~.}. X`.Y.v.6., . . . + . . . * -.z.q.T.'.oX'.'.'.'.'.oX).N.*.> + # 5 b b M n b f f f g g g u = + * ;.=.&.9.q.t.:.k s K I K H k e e 9 * X . . . . . . . . X - ! ` * X R v.u.u.r.7.L - . . . . . . . . . . . . . . . . . . . . . . X % % e _ ( _ 4.4.5.8.0.q.Q - . . . . %                                                                                                                                                                                                                                                                                         ",
"                                                                                                                                                                                                                                                                                                . . . . . . . . . . . . + + + + + # t y g l R W ( _ y.!.`.F.W.`.&X&X>X'.T.T.E.n.T.T.Q.R.E.R._.`. X X X*X*X*X*X*X~.D.e.U.(.m.l.-.t o + . . . 9 L _ >.r.u.e.S.D.D.F.F.J.J.}.*X XY.v.=.- . . . + . . . & %.t.2.S.!.].].&X&X&X].].].).$., X . # # # o o o + + + X X X . . . y 4XVXVXlXlXVXiXF.D.D.D.S.e.u.r.8.4.) w % X . . . . . . X - V Z & X v r.5.,.:.) E i o . . . . . . . . . . . . . . . . . . . . . % 9 q L O.G r L ( ( Q ( o.R - . o - -                                                                                                                                                                                                                                                                                           ",
"                                                                                                                                                                                                                                                                                              = . . . . . . . . . . . + @ o o o # = y z z c E ( _ :.y.!.`.Y.!._.U.v.v.c.7.%.o.x y q j y w e I 4.v.E.E.].<X<X,X&X$X!.S.S.U.4.&.' > # + . . . 9 o.t.E.[.&X X X}.}.}.*X%X=X=X-X*XE.l.E X . . + + X . . * o.t.w.e.S.!.`.&X&X&X`.`.$XR.O.x y X . . . . . . . . . . . . . . . 0 iXBXkXkXkXjXuXJ.F.F.F.W.D.S.Z.e.u.8.c 9 > X . . . . . o - l V & X 0 o.:.X.P L ^ ~ B 4 . . . . . . . . . . . . . . . . . . . X w ^ 4.l.c._ H R W p 8 8 w 9 & . t                                                                                                                                                                                                                                                                                               ",
"                                                                                                                                                                                                                                                                                              + . . . . . . . . . . . + o # o o = t l N x J Q &.4.r.y.U.E.<.X.L q w w 9 ; % X . . . . . . . X * w e J 4.r.n.Q.;X&X].!.Q.T.X.O.^ 9 o + . . . 9 ( <.w.S.W.W.W.~.}.}.*X-X=X*X*X_.:.J 9 X . + o + . . . * &.n.p.p.e.D.!.`.`.~.W.Q.!.Q.T.m.&.p 8 9 , * o X X % = o . . . . . 0 yXBXkXkXkXkXuXL.C.D.D.D.D.D.Z.3.,.:.k 8 > . . . . . X = - y h o . & H _ _ P I Q @.#.B o . . . . . . . . . . . . . . . . . . X w O.q.t.c.( e e q * % X X % X . 9                                                                                                                                                                                                                                                                                               ",
"                                                                                                                                                                                                                                                                                            . . . . . . . . . . . . . + @ # # # = 0 j x J J ( q.v.m.c.z.l.Q 0 & X X X . . . . . . . . . . . . X X X % ; * 8 L ).>X;X;X'.R.>.9.$.0 o . . . . , P :.,.3.D.W.~.}.}.}. X X X&X`.r.w & & o # # o + . . . , 6.m.U.S.3.S.W.~.W.D.Y.!.!._._.(.4.( :.0.8.o.x j d j z u + . . . . q 4XBXkXkXkXkX=XY U >.u.y.S.S.e.3.,.:.H 9 > . . . . . . = & 3 t + . X E &.) P P W ^ @.A # . . . . . . . . . . . . . . . . . X % w _ 5.r.5.P r r 8 * - o . . . . -                                                                                                                                                                                                                                                                                               ",
"                                                                                                                                                                                                                                                                                            . . . . . . . . . . . . . + o # = = , y c L ) %.6.9.6.%.J y 9 - X . . X . . . . . . . . . . . . . X . X X X X X > x.).^.)./.T.c.M.-.y & . . . . & K X.,.1.3.W. X*X X X~.C.3.Z.U.7.* X % & t g i = . . . , 9.m.U.y.3.Y.~.~.D.D.W.`.`.`.`.!.<._ U.R.U.3.a.I K I L N = . . . . w -XjXkXkXkXlX*Xs H J I X.<.,.3.3.,.:.J y > X . . . . . o o - 3 . . % E %.) o.( W L ! M = . . . . . . . . . . . . . . . . . X ; w U ,.w.r.8.0.4.%.%.` 3 . . . . *                                                                                                                                                                                                                                                                                               ",
"                                                                                                                                                                                                                                                                                          = . . . . . . . . . . . . . o o # = > 0 L o.O.9.k.=.c 8 & X . . . . . . . . . . . . . . . . . . . X o X X o + X . . & 9 w 9 q H Q =.' l > + . . . % s 5.y.w.1.D.~.~.~.W.D.1. .,.8.%.* X - 9 C x.x.Z o . . 9 9.v.c.2.,.!.`. X X`.`.`.`. X&XR.U U y.Z.Z.D.C.3.3.,.&.-.i . . . . w -XjXkXkXkXdX}.s e s G I U  .,.,.:.( j 9 = . . . . . . . = 3 3 X . X - c ) &.) L x x l : . . . . . . . . . . . . . . . . . & * r :.w.w.u.t.v.v.c.l.*.> . X . X                                                                                                                                                                                                                                                                                                 ",
"                                                                                                                                                                                                                                                                                          = . . . . . . . . . . . . . o o = > 9 d W &.&.&.=./ - X . . . . . . . . . . . . X . X + X o = = > u t > - t t o X X . . X X % ; 0 C N M h = X . . X e 0.v.w.1.3.3.Z.Z.1.3.1.<.,.7.^ = o 0 j E k.k.M X . . 9 %.4.8.,.w.!.~.~.*X,X&X X`.`.&XE.Y K ,.3.D.~. X}.`.U.c.x.y . . . . k uXkXkXkXaXaX%XU I I U <.,.,.,.<.I H 9 & + . . . . . . . > 4 = . . . X 0 $.6.o.Q W N l > o . . . . . . . . . . . . . . . . X * k q.u.u.u.y.n.c.c.q./ > . . + &                                                                                                                                                                                                                                                                                                 ",
"                                                                                                                                                                                                                                                                                          = . . . . . . . . . . . . . o = = 9 d L ) &.9.=.^ h X . . . . . . . . . . . = 3 4 3 3 3 - > y p g N N z V ` ' n 3 > # + + + o X & > t g u = . . X % p %.4.:.,.,.1.<...3.D.S.,.4.) z & o y N N C z = . . . 0 $.&.4.>.e.!.W.W.*X1X*X X~.`.>XU.K G K U u.~.W.W.Y.2.+.o.0 . . . X K wXtXtXtXqXqX=XF.S.y.y.e.e.u.u.X.r q 0 * . . . . . . . . t u = . . . . 9 E ) o.o.^ ! l t > o . . . . . . . . . . . . . . . X ; c t.y.u.e.y.t.8.>.4.~ - . . X *                                                                                                                                                                                                                                                                                                 ",
"                                                                                                                                                                                                                                                                                        # + . . . . . . . . . . . . X + = 3 y x Q o.&.=.x & . . . . . . . . . . . + = u M B M n l l z N N N / $.' ' $.' ! Z M 4 # o + . . . . . X X . . . o 9 k ( _ U U <.,.<. .D.`.`.v.O.c > X & y N V M t & . . . 0 *.=.4.,.y.!.Y.F.-X2X1X X~.`.$Xn.K k k s X.t.2.,.<.Y H x > . . . X K wXwXwXwXwXqX%XW.W.Y.Z.e.3.w.u.:.r q y > . . . . . . . . 4 n : . . . . & 9 w ^ *.$.E y , = = # . . . . . . . . . . . . . . X & c t.y.S.U.n.r.+.( o.C - + o X *                                                                                                                                                                                                                                                                                                 ",
"                                                                                                                                                                                                                                                                                        . . . . . . . . . . . . . X . + > g N E o.%.&.~ > . . . . . . . . . . . + : 4 f M V M l l R / [ [ [ %.-.-.-.-.*.~ ! Z n 3 = o . . . . . . . . X X * p J ( U U U U <.1.3.F.`.!.c.W * X o & t l z M g = . . . t *.=.4.5.u.Q.W.~.1X2X2X-X`.`.<Xm.J l l w k ( X.X.X.I H c > . . + % Y wXwXwXwXtXqXJ.C.C.Z.Z.Z.e.3.w.<.I k j t o . . . . . . . 3 f 3 . . . . . X - C @.^ x , - - & = o . . . . . . . . . . . . . . % e 8.p.U.E./.m.O.I W x - % % ; *                                                                                                                                                                                                                                                                                                 ",
"                                                                                                                                                                                                                                                                                      . . . . . . . . . . . . . X . . o u N ^ $.%.%.-.z & . . . . . . . . . . + : f h f l l j q q x ^ $.%.%.%.%.%.%.=.%.E N ~ ` S B u o . . . . . . X & 8 k U _ <.<.,.1.1.e.Y.~.*X`.U.q.v X o = > 0 h z M n = . . . d $.%.4.5.u.!.W.~.2X2X2X2X*X&X3XN.x l y 9 q c o.8.9.( J x > . . o ; Y wXwXwXwXtXuXH...1.3.Z.W.Y.e.w.<.U L l g : . . . . . . . : f 3 . . . . . X 0 M ! E N l M M y u t o . . . . . . . . . . . . . & e t.E.U.E.(.).4.J R y - & * ;                                                                                                                                                                                                                                                                                                   ",
"                                                                                                                                                                                                                                                                                      . . . . . . . . . . . . . X X X & g ! [ -.=.-.C & X . . . . . . . . . : u h n z h z j c x x E $.%.%.%.%.%.%.&.&.$.J c E @.` ` B : . . . . . . % 8 r Y <.3.e.D.W. X~.~.*X&X,X>Xm.) 0 X % t t t h h M g & . . . y $.%.4.,.y.[.`.*XyX2X2X2X1X,X3XM.x g t 9 9 c ^ =.&.L x M 3 + X o ; U qXtXtXtXtXuXH...1.1.Z.~.!.e.w.<._ _ c u 4 # . X . . . . = f 3 . . . . . X : h N z E @.@.^ N z h o . . . . . . . . . . . . X w I T.Q.E.n.^./.%.J x 9 & % 9                                                                                                                                                                                                                                                                                                     ",
"                                                                                                                                                                                                                                                                                      . . . . . . . . . . . . . X + o & y ~ $.=.k.@., o 4 o . . . . . . . # b Z Z A z l x J $.l.l.l.x.z.9.%.%.&.&.4.4.%.E c E ' Z M B u + . . . X X w Q U ..3.C.D.F.}.*X}. X X*X&X].v.q ; % - t g h d 3 * & + + . . y @.+.>.2.U.&X-X2XyX2X2X2X2X,X3Xc.l y t t u g 0 0 q 9 0 u 2 + X o ;  .aXtXtXtXaXuXH...3.3.Z.~.~.e.1.<.X.O.j u u # . . . . . . > g t . . . . . . = i l j E $.$.^ x j d * X . . . . . . . . . . . , H X.E.R.Y.y.n.v.O.W x 9 % X y                                                                                                                                                                                                                                                                                                     ",
"                                                                                                                                                                                                                                                                                    . . . . . . . . . . . . O . . + : t y ~ =.=.*.N X . 2 o . . . . . . . # b A A N N x E ^ 6.c.x.x.z.l.9.&.%.&.4.9.9.l.%.W ~ ~ M n B 5 # + X & , w I U.~.W.J.J.J.J.J.%X*X*X&X>Xt.( c ; 9 d d 0 h h 4 o X . . + . . y ^ %.8.y.Y.$X*XyXyXyXyX2X2X,X<X9.j i 3 4 f 4 o o X X & = o . . + %  .kXtXtXtXaXuXH.1.3.3.e.D.D.e.3.<.>.%.c d u # . . . . . . > h t + . X X . . X = i j x ^ @.^ E E N d t 4 = . . . . . . . . . 9 I _ u.E.Y.y.r.8.&.) x , X X                                                                                                                                                                                                                                                                                                       ",
"                                                                                                                                                                                                                                                                                    . . . . . . . . . . . . + + + = u h l C -.k.N , X . . . . . . . . . = = u M z z E @.-.=.k.l.l.x.l.4.&.&.%.4.8.9.l.c.9.) ^ ! h n b 2 o o : d x k U D.}.%X=X=X%X%X%X%X=X*X`.;X( % ; ; w E ! d f n > X X . o o . . y @.%.z.m.T.Y.~.2X2XyXyX2X2X>X].%.j 0 > : : # o + X + + + X . . X ; 1.kXkXtXtXtXuXF...3.2.3.3.e.e.y.w.5.O.e d f # . . . . . . > h t o . . X X . + o > z N E ^ ^ ^ ^ ~ C A A b + . . . . . . . . w P U 8.E.E.y.8.4.6.$.l - o X                                                                                                                                                                                                                                                                                                       ",
"                                                                                                                                                                                                                                                                                  . . . . . . . . . . . . O + + # = g Z / ^ @.*.> . . . . . . . . . . . 4 u g n p j ~ *.h.6.6.&.%.=.6.7.&.&.%.4.9.q.z.c.6.^ ^ C f n m 2 # o & y L U  .D.}.}.%X%X%X%X%X%X-X~.U L 9 X % q e L [ 0 : u : . X # : # . . u ~ E %.c.M.r.p.<X<X,X3X3X<X].(.o.p 9 - = = # o + + + + . X . . % 8 3.jXkXkXsXtXuXF. .5.>.,.,.,.e.Y.U.r.O.w > 3 $ . . . . . . > l t & . . . . . X + = u l C ~ / ^ ^ ~ E C A M o . . . . . . . . 0 U U 8.E.T.p.8.4.6.-.p * X X                                                                                                                                                                                                                                                                                                       ",
"                                                                                                                                                                                                                                                                                  X . . . . . . . . . . X + + + # = g ~ *.=.E i X . . . . . . . . . . . 6 u f n y j ! *.-.-.&.o.o.%.&.&.&.&.&.7.0.z.z.c.9.o.@.' g h u : # o X 9 E +.8.Y.`.*X%X=X=X=X*X*X&Xv.9 X X X * Q P ( E * . # o . + = : # . . u g * w R W P X.w.u.S.Y.R.T./.M.E 0 9 - - - & o o + + X X . . X 8 r D.BXkXkXkXeX7XC.K L Q ( ( _ 8.E.m.l.W * & o . . . . . . . > l y & X . . . . X X + & u l z N C E E C C Z n = + . . . . . . . q ( X.r.E.T.n.8.4.6.-.y * o X                                                                                                                                                                                                                                                                                                       ",
"                                                                                                                                                                                                                                                                                  . . . . . . . . . . . . . + # = - y ~ *.h.d X X . . . . . . . . . . + 4 4 t g y d E ^ $.$.$.o.o.%.=.=.&.%.%.&.9.l.z.z.k.%.-.@.h u 3 : # o o & j ) %.5.y.R.!.&X&X&X&X].;Xx.> . . X w ( X.X.J % . . . . = 3 4 : . . = t - 8 j x I U U U U U U +.l.x.E w q w w * X & = = o X X . . % K U *XBXkXkXaX7X}.,.w ; & * 8 w c Q Q x w X . . . . . . . . . > l u & X . . . . X X . . = > i l l l x N C Z n 3 3 . . . . . . . q ( X.8.E.T.U.8.4.6.%.y & o X                                                                                                                                                                                                                                                                                                       ",
"                                                                                                                                                                                                                                                                                o . . . . . . . . . . . . . o = > i l E $.' > X X . . . . . . . . . . + 6 4 3 t y l V E ^ ^ ^ ) %.=.=.=.-.%.%.%.&.7.k.k.6.-.-.' z g t > = = = X X X X % % 8 q k H H J L ! M + . . % r U ,.8.J o . . . . : u u 3 . . . % 9 l x L O.8.8.8.,.,.q.6.y y d c o.4._ k w - , > > & % % ; s w.3.-XjXkXaXuXH.e.o.9 . . . X % & ; ; % X . . . . . . . . . . > M g & X . . . . . . . . . o > u y 0 y y d d i t 4 . . . . . . X j O.<.,.T.(.^.0.O.%.W w & % X                                                                                                                                                                                                                                                                                                       ",
"                                                                                                                                                                                                                                                                                + . . . . . . . . . . . . . # 3 t g N ' ! i X . . . . . . . . . . . . . = = = > t g l C ^ ^ ^ ) -.=.=.=.-.%.%.$.o.%.=.=.%.^ ' ' N z g t : = = + + . . . . . . X X X X X X . . . X w K  .3.r.J o . . . + 3 u u 3 . . . . 9 c H P >.r.y.y.y.p.n.9.- . X w >.E.E.:.H e 9 9 9 9 y l c <.~.G.7XkXaXaX7XF.u.^ 9 X . X - i 0 9 0 0 > : + . . . . . . . . > n y & o X . . . . . . . . + : 3 u i i 0 y d y u u . . . . . . X j 4.>.8.).;X'.q.( P c 9 - & %                                                                                                                                                                                                                                                                                                       ",
"                                                                                                                                                                                                                                                                              o . . . . . . . . . . . . . . = 3 t g C *.l X . . . . . . . . . . . . . . + + o = > t g C ^ ^ ^ ^ -.k.=.%.$.o.$.o.Q Q ^ ) / E ! ~ Z M h g 4 2 2 # # o + + . X . + + + . . . . . . * L <.1.u.r.J o . . . = 3 u g t . . . X q x I X.8.y.S.U.S.U.m.6.= . . ; :.~.W.e.<.J p y y 0 j x H Y G.J.%X7XqXyX7X=XT.J 9 > > i d d y q q t M B 3 . . . . . . . . > g u - o . . . . . . . . . . . + : u f g l z h n m . . . . . . X k 8.r.v.[.>X;X^.%.W l , , * %                                                                                                                                                                                                                                                                                                       ",
"                                                                                                                                                                                                                                                                              . . . . . . . . . . . . . . # > u h z C ` u . . . . . . . . . . . . . . . . . + # = 9 y N ~ ^ ^ / *.k.6.%.) Q ) %.%.o.) ) ^ ! E ! C M h h u 6 6 2 # o o o + o 2 u u 4 : o + . . . 9 o.2.3.u.r.x o . . o 3 y y l u X . . & l L ( >.y.Z.S.D.D.D.n.=.= . . % X.`.}.~.S._ H c p 9 w w r r C.%XG.G.J.%X%X*Xy.e 9 i t g z l d j d q t g 3 . . . . . . . . - u i = & X . . . . . . . . . . . o 3 u f M M M B b . . . . o + % H 0.t.T./.T.^.^.x.=.! > * ; ;                                                                                                                                                                                                                                                                                                       ",
"                                                                                                                                                                                                                                                                            o . . . . . . . . . . . . . # 3 t h A A h u o . . . . . . . . . . . . . . . . . . = > i g N ! / ' ^ ) %.&.6.&.%.6.k.l.9.=.%.$./ ! ! A M b f 5 2 6 2 # # = # o 3 h M n f 4 & o o X X q X.,.1.3.8.c X . . o i x v N M X . . * l L ( >.y.S.Z.Z.S.D.n.%.# . . X J Y.~.}.~.Z.U K s e 8 q e G `.yXG.L.G.F.G.F.,.e 9 > * w N E W ) ^ C 0 & . . . . . . . . . - i > = & + . . . . . . . . . . . . # = u M n f f 3 . . . . o + % L 0.y.T.(.T.t.8.%.*.! - % 8 w                                                                                                                                                                                                                                                                                                       ",
"                                                                                                                                                                                                                                                                            + . . . . . . . . . . . . . 3 f f M Z Z t . . . . . . . . . . . . . . . . . . . + 3 u h N C E ! ^ $.^ ) o.&.6.6.0.l.l.l.6.%.$./ ~ ~ A b 5 6 2 # # = & % & & - q z N M h 0 * & & & % e X.,.,.w.4.j . . . & y E / $.~ o . . > l J P :.w.e.e.Z.D.D.U.&.= . . . * K 3.F.}.}.Y.u.U J w w w r S.*XC.L.G.F.G.D.5.k w w ; e ) %.&.&.-.$.j o . . . . . . . . . - t > = = o . X . . . . . . . . . . . . = 4 3 = o . . . . . . + % L q.r.U.(./.n.&.Q x d X % w                                                                                                                                                                                                                                                                                                         ",
"                                                                                                                                                                                                                                                                            X . . . . . . X . . . . . + u n n M Z M = . . . . . . . . . . . . . . . . . X + = u h N Z E E E / ) ) ) o.7.6.6.8.q.l.9.&.o.o.^ ' ` M > # # . . o * 8 w q e e k x E E x 0 , * , 0 w H :.,.<.,.O.0 . . X * j E o.=.~ X . . t c x P X.,.w.3.3.D.D.U.&.& . . . . % _ `.*X1X1X Xe._ s w * % e U D.}.}.J.F.D.w.H k J H P 4.4.4.&.%.$.c X . . . . . . . . . - t - & & + . X . . . . . . . . . . . . . . . . . . . . . . X X & Q r.t.U.R.^.t.o.x q * . & p                                                                                                                                                                                                                                                                                                         ",
"                                                                                                                                                                                                                                                                          . . . . . . . . X . . + o o = f M M M B : . . . . . . . . . . . . . . . . . + = 4 u h M C C E E ! ^ $.%.%.&.9.9.9.8.q.q.q.&.%.o.$.@.' h : # # . + & 9 k I O.4.o.( L P o.^ x d 9 0 j H P :.<.<.,._ * . . X 9 c W 7.k.! X . + g x J Q O.,.,.1.3.D.W.E.%.& . . . . X q X.1.F.*X*XW.Z.r.4.J 8 % 8 y.*X}.F.F.W.y.P P X.U <.<.<.a.X.o.) j * X . . . . . . . . - t > & o + . . . . . . . . . . . . . . . . . . . . . . . . . X ; ( r.y.U.T.^.9.L d 9 X . %                                                                                                                                                                                                                                                                                                           ",
"                                                                                                                                                                                                                                                                          . . . . . . . . X . + o # 6 f h A A h : . . . . . . . . . . . . . . . . . . o 3 n M C Z Z ! ! / ^ $.-.=.&.4.9.0.8.8.0.t.q.9.&.o.%.*.' l > : # o # t z W ( 8.r.5._ K G H W W x 0 w c Q X.,.<.<.,._ - . . X 0 x ) c.M.' % . & l x J ( O.5.,.<.1.D.W.E.O.& . . . . . . % w <.&X2X2X,X>XT.>.s ; ; +.W.D.D.D.S.y.<.U  .<.S.3. .U U U ( c q , . . . . . . . . - u t - o X . . . . . . . . . . . . . . . . . . . . . . . . . % 8 ( r.p.Q._.^.O.s 9 , X . %                                                                                                                                                                                                                                                                                                           ",
"                                                                                                                                                                                                                                                                        . . . . . . . . . . . . + 2 b B M A M > X . . . . . . . . . . . . . . . . . . # t M A Z ! ! ^ ^ ^ ) *.=.6.&.&.6.9.8.8.0.q.q.8.4.&.%.%.^ z i 4 : # = g N J ( 5.8.>._ U G s Q ^ c 0 q J ) :.,.<.,.5.) % . . X d J O.v.M./ X + > z c E ) O.5.,. .3.D.W.T.) & X . . . . . . % k 8.Q.Q.W.!.S.2.U G k 2.`.Z.1.1.1.1. . . .Z.,X!.1. .U a.>.+.L h X . . . . . . X > y t t = . . . . . . . . . . . . . . . . . . . . . . . . . X * w U t.U._.'.T.Q q 0 > X . %                                                                                                                                                                                                                                                                                                           ",
"                                                                                                                                                                                                                                                                        . . . . . . . . . . + o = 4 B A A Z h X . . . . . . . . . . . . . . . . . . + # u A ! ! ~ ^ ' $.$.$.-.k.k.&.&.7.4.4.5.0.q.q.q.8.6.&.%.^ x d h u - = t l p P >.,.<.U U I K O.$.k w s W :.,.,.,.,.w.) X . . X d c L O.-.V X & t M c W o.O.5.,.<.3.D.W.R.o.& . . . . . . . . . % w r U U.!.!.~.`.~.~.}.C....... .T ....C.-X~.3... .,.E.E.z.-.> . . . . . . X > u g u > . . . . . . . . . . . . . . . . . . . . . . . . . X 9 k X.U.R.'.[.n.K w 9 : . . %                                                                                                                                                                                                                                                                                                           ",
"                                                                                                                                                                                                                                                                      + . . . . . . . . . . + # 4 u B Z Z A u X . . . . . . . . . . . . . . . . . . + = u Z ~ ~ ^ [ $.%.%.%.&.l.l.6.&.4.4.4.5.0.q.q.q.0.6.&.%.$./ E ` ! t & = - w G _ <._ U U U P %.) q w e P >.,.1.1.1.w.^ X . . X y k K P E y X = u z x ^ O.:.5.,.1.Z.F.W.R.o.& . . . . . . . . . . % 8 k 8.n.E.R.`.}.F.G.C.D.D.F.D.C.D.C.C.*X~.C...T 3.`.Q.n.k.3 . . . . . . X > u u t = . . . . . . . . . . . . . . . . . . . . . . . . . X p Q t.(.Q.Q.(.c.H w 0 & . . %                                                                                                                                                                                                                                                                                                           ",
"                                                                                                                                                                                                                                                                      + . . . . . . . . . . + 2 f n B A Z h o . . . . . . . . . . . . . . . . . . . o = u Z ` ` ^ $.%.&.&.4.6.q.l.8.4.8.8.8.8.q.n.M.z.0.9.6.&.%.%.$.*.#.V 3 = - 8 r U <._ U U _ _ %.) q 8 e U 5.w.1.3.1.w.Q . . . * j x I ( E 0 X = y z E ) o.:.5.,.3.Z.F.W.T.o.& . . . . . . . . . . . X % * 9 q G 2.Y. X*X X X*X*X*X}.}.F.H.*X}.C...T C.*X~.y.9.0 . . . . . . X > u u 3 o . . . . . . . . . . . . . . . . . . . . . . . . . % J O.U.[.R.S.T.c.L w > o . . %                                                                                                                                                                                                                                                                                                           ",
"                                                                                                                                                                                                                                                                      . . . . . . . . . . + o 4 n B M B M 4 . . . . . . . . . . . . . . . . . . . + # 4 n ` ' ' [ %.&.6.9.9.9.9.0.q.q.q.q.r.r.t./.).x.6.=.%.%.%.%.-.-.*.Z f 4 3 9 p ( O._ X.<.:.:.O.( w 8 r X.u.u.u.3.3.w.W . . . > z L ( O.) 9 X = u l W ) _ :.8.,.3.D.D.D.E.) & . . . o : = o + : + . . . . . X w q.).$X<X,X*X*X*X X}.}.}.}.%X}.F.3...D.1X*Xp.4.0 . . . . . . X , y u > X X + . . . . . . . . . . . . . . . . . . . . . . . * O.c.Q.[.Q.U.T.v.W 9 & X . . o                                                                                                                                                                                                                                                                                                           ",
"                                                                                                                                                                                                                                                                    + . . . . . . . X X + : 3 f M M M n u = . . . . . . . . . . . . . . . . . . . o = 5 B ' *.*.-.6.9.x.z.l.9.6.6.0.0.q.r.z.v.N.).^.%.R E E ! @.*.*.*.#.B u 6 u V E $.7.O.:.5.5.4.4.( q 8 s :.u.y.Z.Z.w.w.E . . . , C ) 4.q.k.t . o 9 j W ) ( >.w.2.3.D.F.D.E.( % . X . 2 A B f t u # X . . . . X & j P ( :.w.y.Y.~.~.}.}.%X%X%X%X~.C...D.1X*Xp.4.0 . . . . . . X , y u > o = > . . . . . . . . . . . . . . . . . . . . . . . 8 7.T._.!.Q.E.T.9.c & X . . . X                                                                                                                                                                                                                                                                                                           ",
"                                                                                                                                                                                                                                                                    + . . . . . . X X + = u n n M B M b = . . . . . . . . . . . . . . . . . . . . 2 6 f B ] *.j.k.k.k.x.x.k.$.^ ) %.&.&.&.6.k.x.x.=.q * w y l x l g y u 3 # + = 3 g z x J ) 4.5.4.7.) e w H :.w.u.u.Z.u.r.W . . . , / &.t.m.x.t . o - q ) O.X.>.8.2.e.F.F.D.U.P % X . . 2 Z Z Z M u # + X . . . . . X X % ; 8 r :.E.!. X*X*X=X*X}.W.C. .C.-X`.y.9.y . . . . . . X 9 g u 3 o = 4 = . . . . . . . . . . . . . . . . . . . . . . w 5.E.!.!.Y.U.n.W - X . . . X %                                                                                                                                                                                                                                                                                                           ",
"                                                                                                                                                                                                                                                                  # . . . . . . . X . + = f M M M M M u + . . . . . . . . . . . . . . . . . . . o 6 m f u u n Z Z Z C ! ~ N y p l j p p y p y y p x p w e e q * % X X X . . . . . . . X % 0 c J H x k e r K <.w.u.C.C.Z.y.W . . . > ^ 9.t.m.x.> . X & q o.O.X.,.w.2.C.F.F.D.y.H % . . . = A Z Z S n 4 3 = X . . . . . . . . X % q W O.,.D.W.~.~.W.W.C...C.*XW.y.z.d . . . . . . X i h g t & o = 3 # . . . . . . . . . . . . . . . . . . . . X w 5.y.S.Y.S.y.8.c o . . . . &                                                                                                                                                                                                                                                                                                             ",
"                                                                                                                                                                                                                                                                  + . . . . . . . . . o 3 b n M M M M 4 X . . . . . . . . . . . . . . . . . . . . # 2 # + . X o X . . . X % & 0 y w w w 9 0 w w e W P P o._ L e 8 & % & + . . . . . . . X , d j w w w w r I <.3.3.C.Z.S.n.W . . X 0 o.q.p.T.z.> . X & q $.O.X.8.w.3.D.F.F.Y.t.k % . . . = A ` ` ` Z M u 3 # . . . . . . . . . . . X ; 8 U S.Q.~. X&X}.F.~.~.e.t.=.t . . . . . . o t g n t & + = 4 6 + + + . . . . . . . . . . . . . . . . . X e r.y.e.S.S.p.q.c X . . . . >                                                                                                                                                                                                                                                                                                             ",
"                                                                                                                                                                                                                                                                # X . . . . . . . . X = 4 h M M M f u = . . . . . . . . . . . . . . . . . . . . . . . . . . X X . X . . . . & 9 q e r r G U U U U T  .,.e.y.2.X.P k w y - X . X . + + + & i M C x c c k G U <.u.Z.C.D.W.T.R . . X y o.5.r.T.k.: . X - e o.+.>.2.w.3.D.W.W.W.y.k X . . . : A ` ` ` ` Z M u 3 . . . . . . . . . . . . X % c Q o.:.>.u.S.D.p. .K E z & . . . . . . o t u u t & o = u 4 o + + . . . . . . . . . . . . . . . . . X k n.U.Z.!.].].^./ X . . . . -                                                                                                                                                                                                                                                                                                             ",
"                                                                                                                                                                                                                                                                . . . . . . . . . X : u u h n n M u = + . . . . . . . . . . . . . . . . . . . . . . . + + X O + . . . . . X * e r K 1.C.G.F.F.F.F.F.F.D.F.F.D.u.u.,._ W k * X + # 1 = = = > d x E / Q P I _ w.S.Z.C.F. X(.R . X % x l.8.r.^.k.= . X 9 e P ( >.2.,.3.D.W.W.R.c.c X . . . u ` @.` @.` ! Z n 5 . . . . . . . . . . . . . . X X X % & w U 2.8.U s 0 & . . . . . . . & t u t = o X = u 4 # + . . . . . . . . . . . . . . . . . . X I (.!.Y.&X3X3X:X-.o . . . . &                                                                                                                                                                                                                                                                                                             ",
"                                                                                                                                                                                                                                                              + . . . . . . . . . = u n n n n n b u + . . . . X . . . . . . . . . . . . . . . . . . + = - X + + + X . . . X 8 G U W.yXuXuXqX8XuXuXuX7X%X|.}.H.F.F.F.C.1.K 8 % o = 3 3 3 3 t y l L Q ( P I _ u.W.Z.C.F. X'.z . . & / x.q.8.M.k.> . X 0 q e H X.<.<.,.3.e.u.,._ 0 X . . o M #.@.@.@.` ` ` A u . . . . . . X X . . . . . . . . . . X - J 4.9.Q j > X . : # . . . . = t t > = o X = u u = o . . . . . . . . . . . . . . . . . . % P (.].[.&X&X;X:X-.& . . . . ;                                                                                                                                                                                                                                                                                                             ",
"                                                                                                                                                                                                                                                            . . . . . . . . . . . 3 n n n B B b 4 = . . . . . . . . . . . . . . . . . . . . . . . . X w r 8 8 8 ; ; ; ; * w G ..C.=XgXgXsXfXfXsXgXpX7X|.K.K.K.J.=X7XyXyX X_ 8 8 > t t u y d d j c Q ( P K _ u.Y.Z.C.F. X(.p . . = z ^ o.o.W l o . * 9 9 w s ( :.<.<.,.,.X.U L , . . . o C *.@.@.@.^ ' ' ` t . . . . + = o . . . . . . . . . . . . + - y i - & X . o 6 b 5 + . . & 3 t 3 > & X = u u = + . . . . . . . . . . . . . . . . . X ; U _.&X`.`.Y.p.m.E X . . . .                                                                                                                                                                                                                                                                                                               ",
"                                                                                                                                                                                                                                                            . . . . . . . . . . . 4 B n n n n 4 # + . . . . . . . . . . . . . . . . . . . . . . . . % r U i.U.Z.1._ U U _ <.C.}.6XuXsXfXfXjXfXsXpXpX6XK.K.|.7XuXdXBXBXBXBX*XG p y i t i y q w e k I P I I U w.Y.C.C.F. XE.w . . o 0 z Q W q % . X = = & - 0 E *.6.6.7.O.( ^ ! > . . . & C @.@.$.$.$.$.@.' t . . . + : u 4 > = o . . . . . . . . . . X X X . . . = h n S S 5 + X X = 3 t 3 = = 3 f u = o + . . . . . . . . . . . . . . . . . w r.].&X`._.U.t.q.j X . . . %                                                                                                                                                                                                                                                                                                               ",
"                                                                                                                                                                                                                                                          + . . . . . . . . . o # u n n n n u o . X . . . . . . . . . . . . . . . . . . . . . . . . % G Z..X6X6X=X}.W.W.W.W.}.6X8XgXfXfXfXfXfXsXgXpX6X|.K.6XdXfXBXBXBXBXBXiX3._ j 0 0 i 0 9 w r k I U U I _ w.Z.D.C.F.~.r.8 . . + > u z z 0 o . . . . . X X - i d d y 9 9 y g = . . . o z *.*.*.*.*.$.$.` t . . . = 4 b n M B 4 X . . . . . . . . . . . . . X & ` B.h.] #.Z : X X = 3 t t 4 u f u 3 = o + . . . . . . . . . . . . . . . . X H Q.>X&X`.!.S.t.4.0 . . . = y                                                                                                                                                                                                                                                                                                               ",
"                                                                                                                                                                                                                                                          . . . . . . . . . # f u f b M n b = . . . . . . . . . . . . . . . . . . . . . . . . . . . X F Z.|.6X6X5XK.H..X.XH.}.5X8XgXfXfXfXfXfXgXgXpX6X|.|.6XfXBXBXBXBXBXBXBX}.r.Q 0 0 q 0 9 k Q O.o._ U U <.u.Z.C.C.F.Y.4.- . . . + + o & + . . . . . . . . . . X X X X X + # . . . X o z -.*.%.=.%.$.%.` t . . + 4 f n B A Z z , = o . . . . . . . . X j c k k x.B.` ` #.` t . . & 3 4 > t f f t = # # o . . . . . . . . . . . . . . . . % ( [.&X&X&X!.y.8.o., . . o g ~                                                                                                                                                                                                                                                                                                               ",
"                                                                                                                                                                                                                                                        . . . . . . . . . o 4 A A n h n n u # . . . . . . . . . . . . . . . . . . . . . . . . . . . . e Z.|.7X9X6X|.|.|.%X|.5X7XpXsXfXfXfXfXsXgXpXpX9X|.|.|.pXjXjXjXBXBXBXBX=Xu.Q w 0 0 9 9 c %.6.4.+.X._ ,.y.Z.C.C.D.Y._ % . . . . . . . . . . . . . . X X . . . . . . . . o o . . X * C =.-.=.=.-.-.-.! - . . + t f M A A Z Z M M u o . . . . . . . > &.y.2.a.,.O.z ~ *.#.g X . o 3 > 3 t f f 4 = o o o . . . . . . . . . . . . . . . . % _ !.`.*X&X!.u.4.o.9 X . o y                                                                                                                                                                                                                                                                                                                 ",
"                                                                                                                                                                                                                                                        . . . . . . . . . : g n Z M h f u : + . . . . . . . . . . . . . . . . . . . . . . . . . . . X e Z.|.6X9X9X9X|.|.6X7X7XhXgXsXsXfXfXsXsXsXpXgX8X|.|.K.5XaXfXjXjXBXBXBX|.1.L 9 9 9 9 , 0 J W Q ( U U <.w.u.Z.C.D.U.L X . . . . . . . . . . . . . X X . . . . . . . . . # # . o = 0 ^ k.k.k.6.=.=.=.! & . . o u h M A M Z ` ' ` M = . + o . . . . , +.e.3...1.G j ' -.*.! > . X & > t u u u : o o o o . . . . . . . . . . . . . . . . % X.Q.!.&X&XY.2.:.o.9 X X X 9                                                                                                                                                                                                                                                                                                                 ",
"                                                                                                                                                                                                                                                      + . . . . . . o 1 = 3 n g M h f f 2 o . . . . . . . . . . . . . . . . . . . . . . . . . . . . o e u.|.5X5X9X8X5X|.5X6X6XhXgXsXsXsXsXsXsXsXgXgX8X|..XG.K.pXfXfXjXjXjXBX%XT K , , > , - * 9 q e e r G U T <.u.C.Z.t.v X . . . . . . . @ o o o o o . + . . o o @ + o o o = 2 # o > 0 ^ x.k.k.6.=.-.j.` = . X = f h M M M A ` @.` M t = = 2 # . . . * U p.D.~.*X2.s Q =.-.-.M X . . = t u u 4 # o # o o . . . . . . . . . . . . . . . . & :.!.W.&X&XS.,.>.) 9 X X X *                                                                                                                                                                                                                                                                                                                 ",
"                                                                                                                                                                                                                                                    X . . . . . . . = u t t M n u u u 6 # . . . . . . . . . . . . . . . . . . . . . . . . . . . . . X w 1..X@X5X9X8X9X|.5X6X6X7XpXsXsXsXsXsXsXsXgXgX8X|..XA.H.8XfXfXfXjXjXBX|...L - = : : = = - 9 y 0 p J ) 4.5.y.Z.v.0.d . . . . . . . . . o o $ o $ @ o o o o o o o o o # = = o % * 8 ^ x.k.k.k.6.-.j.Z o . . : h M M M A S ` ` Z A n 4 3 4 : . . . % K e.D.-XiX*X<.o.9.k.k.' > . . o 3 4 4 3 & = = # o @ . . . . . . . . . . . . . . . ; 5.!.W.&X&XS.,.9.) , X X - 9                                                                                                                                                                                                                                                                                                                 ",
"                                                                                                                                                                                                                                                    . . . . . . . o = f M h n y 3 3 3 2 o . . . . . . . . . . . . . . . . . . . . . . . . . . . . . . 8 1.H.@X9X9X0X8X|.%X6X|.5XhXgXfXsXfXsXsXsXgXgX7X.XZ.T L.8XsXfXfXfXfXdXH.T J o o o o + + + o & = 9 y x E R W ( ( E > . . . . . . . . + $ @ $ $ o o o o $ o o o o o o = = o * 0 j q Q q.l.k.k.9.=.j.M + . . : f M B M S ` ` Z Z C M h g f 3 . . . X s <.1.*XiXiX'.>.6.l.k.-.l X . . = > > 3 = & = # o @ . . . . . . . . . . . . . . . * 8.!.W.*X&XS.8.q.' , . o 9 y                                                                                                                                                                                                                                                                                                                 ",
"                                                                                                                                                                                                                                                  . . . . . . . = 6 t M Z A g * 3 3 : # . . . . . . . . . . . . . . . . . . . . . . . . . . . . . . . * T F.@X0X8X0XhX@X|.%X%X6XhXdXfXfXfXfXsXgXpXpX|.C.T Y T 9XsXfXfXfXfXgXH.Y c . . . . . . . . . . . . X X X X X X X . . . . . . . . . . . . . . o o + + + @ o o o o o 3 t 3 N $.9.&.4.q.l.l.0.9.6.k.M X . . : f M B M ` #.` Z Z C M n M n 3 . . . . q a. .~.iXVX4Xp.8.q.9.k.' & . . o = > 3 = o # o o @ . . . . . . . . . . . . . . . * r.!.Y. X&Xe._ ) N > . X 9                                                                                                                                                                                                                                                                                                                   ",
"                                                                                                                                                                                                                                                  . . . . . . . 3 g A ] ] Z g = 3 u # + . . . . . . . . . . . . . . . . . . . . . . . . . . . . . . . % U C.|.pX0X9X8X@X|.|.|.%XuXdXfXfXfXfXsXgXpX8XF.T Y F T 9XsXfXfXfXgXuX.XY q . . . . . . . . . . . . . . . . . . . . . . . . . $ $ . . . . . . $ o + + o # . . @ o # = 0 x k.B.M.z.c.z.z.l.q.9.=.h.h . . . = t n A Z ` @.` C C N M M M n > + . . . u O.a.S.*X-X2XU.8.8.0.k.h.g X . . o : : = # # o o @ . . . . . . . . . . . . . . % q 8.Y.S.`.&Xw.P j * & X X -                                                                                                                                                                                                                                                                                                                   ",
"                                                                                                                                                                                                                                                . . . . . . X = t g C ` ` n t - = = + . . . . . . . . . . . . . . . . . . . . . . . . . . . . . . X . X G 1.|.hX0X5X5X|.}.H.H.|.yXdXfXfXfXfXsXgXpX8XF.Y F F T 5XsXsXsXgXhX6X XH - . . . . . . . . . . . . . . . . . . . . . . . . . $ $ . . . . . . X > u u t = + X . = u y l o.M.m.M.t.c.M.c.z.q.9.=.-.t . . o * > g Z ~ ` @.` C z z z N M h > o . . . = x K U C.}.1X$Xy.8.q.k.k.Z = . . X o = = # # # o . . . . . . . . . . . . . . . 0 P 8.y.e.!.].8.( c % o o = *                                                                                                                                                                                                                                                                                                                   ",
"                                                                                                                                                                                                                                                . . . . . X * g z z N N l u 3 = o + . . . . . . . . . . . . . . . . . . . . . . . . . . . . . . X X . X p 1.}.8X9X@X|.K.H.G.F.J.7XdXfXfXfXfXsXgXpX8XW.Y r r T 5XsXfXsXpX8X=X`.s % . . . . . . . . . . . . . . . . . . . . . . X X . . . + . . X X X X d ` ' Z t = + . t -.x.l.c.M.M.m.c.n.m.v.c.q.9.9.*.= . . & > 0 h Z ` ~ @.^ C x x N C C n u = + . . . % ; s 3.*X2X2X`.u.t.z.k.*.u . . X o = = # # o o . . . . . . . . . . . . . . . h O.8.e.Z.!.[.8.o.l % o > l                                                                                                                                                                                                                                                                                                                     ",
"                                                                                                                                                                                                                                              + . . . . X X y N E C j d y u 4 # . . X . . . . . . . . . . . . . . . . . . . . . . . . . . . X X X X . X p <.}.8X9X@X@X|.H.G.G.H.5XdXfXfXfXfXfXgXeX8X.XU a F L.9XgXfXsXeX8X XU.q X . . . . . . . . X . . . . @ o . X . . . . . . . . + X X o % - , , w / -.-.~ u 3 = . t k.N.m.m.n.n.m.n.n.m.v.c.0.6.6.$.& . . & g N C ! *.*.@.^ E N N C Z Z M M > + . X X . . r 1.~.*X2X2XY.8.z.l.h.M X . . + # = # o o o . . . . . . . . . . . . . . . d O.<.3.S.!.(.4.Q y X X & l                                                                                                                                                                                                                                                                                                                     ",
"                                                                                                                                                                                                                                              . . . . X > d C E ~ E d 0 t 3 : + . X X . . . . . . . . . . . . . . . . . . . . . . . . . . . X X . O . . & G C.5X9X5X6X|.H.G.A.H.|.uXdXfXfXfXfXgXeXhX.XY a F A.9XgXsXsXpX6XW.c.0 . . . . . . . . . . . . . . @ o + + . . . . . . + + o * 0 l R ^ ^ W ) %.$.*.N - > * X j 9.c.v.v.c.n.m.m.n.n.v.q.0.6.j.$.& . . & M ! ~ ~ *.=.*.~ E N V C Z Z A A 3 + . . . . . w  .C.F.-XiX`.8.t.k.h.C X . . . o o o o o o + . . . . . . . . . . . . . . w X.<.<.e.!.(.:.W y X X X w                                                                                                                                                                                                                                                                                                                     ",
"                                                                                                                                                                                                                                            # . . . . : A *.@.@.^ E l t 3 = # + . X . . . . . . . . . . . . . . . . . . . . . . . . . . . . . . . . . . . 8 T |.6X6X6X5XH.G.A.G.J.5XpXfXfXfXfXgXeX8X}.F 8 Y H.9XgXgXgX8X|.i.7.i . . . . . . . . . . . . . . . o o o o . + + + o o > i l E Q %.z.q.8.8.6.Q E z * & * * J 9.t.c.v.v.n.m.m.n.n.c.q.q.6.k.' o . . : Z ! E ~ @.-.*.^ E R ! ! ! Z C A > o . . X . . 8 8.!.F.*XyX&Xe.8.9.=.! & . . . + o o o o o @ . . . . . . . . . . . . . . w O.,.<.e._.'.4.W y X X % p                                                                                                                                                                                                                                                                                                                     ",
"                                                                                                                                                                                                                                            + . . . X 4 ~ @.~ E / c z g = + . . . . . . . . . . . . . . . . . . . . . . . . . . . . . . . . . . . . O O X ; K C.H.@X6X6X|.H.G.G.H.|.uXfXfXfXsXgX8X6X}.G a T |.9XpXgXpX|.W.} a % . . . . + . . . . . . . . . . o . $ o o o o o o t N E W _ ( X.8.8.,.8.8.W x j - & j J O.q.t.c.v.n.m.m.T.m.m.v.t.c.k.j.E % . X t ~ ~ ~ / @.*.-.*.E E ' ' ~ ~ M Z M t + . . . . , v.,X~.*XiX2XS.2.8.6.[ y X X . X + o o o o @ . . . . . . . . . . . . . - c q.U.e.p._.oX7.! g X . % p                                                                                                                                                                                                                                                                                                                     ",
"                                                                                                                                                                                                                                          + . . . X + 4 N C c c E z d h : . . . . . . . . . . . . . . . . . . . . . . . . . . . . . . . . . . . . . O O . + w G T .X6X6X|..XH.H.H.|.uXfXfXfXsXgX8X6X.XU G 1.|.5XhXgX8XA.u.K ; X . . O + @ $ $ . . . . . . . . o . . o o o o o & g *.=.%.X.X.X.,.8.,.8.8.E p y 9 8 ^ l.z.c.c.c.m.m.m.T.T.E.m.v.q.0.k.=.z & X > M ` ^ ~ / ^ @.$.$.W / *.*.! C l ~ *.Z 3 . . . . % o.T.1.F.yXyXW.2.t.l.=.' p & X . + o o o o + . . . . . . . . . . . . X d Q T.[.Y.Y.Q.(.o.E f . . %                                                                                                                                                                                                                                                                                                                       ",
"                                                                                                                                                                                                                                          . . . . + o t l z c x ~ ! d 4 = . . . . . . . . . . . . . . . . . . . . . . . . . . . . . . . . . . . . . O . O X % 8 Y ~.yX6X|.}.}.H.H.K.5X8X8X0XhXhX8X7X|.1.T C.K.5X9XyX=XT F w X . . O O @ @ @ @ . . . . . . . . o . $ $ o + X X % 0 $.k.6.o.X.:.,.8.5.4.%.l 9 - 9 c 6.N.m.m.v.v.m.T.T.T.T.E.m.n.q.6.k.@.y = = h ~ @.' ^ ^ ^ ^ @.^ E / *.' N l j @.-.h.A % . . . X w I U C.1X2X&XY.n.c.0.-.' A 3 . . . + o o o . . . . . . . . . . . . & N %.T.[.!.!._.^.%.Z 4 . . &                                                                                                                                                                                                                                                                                                                       ",
"                                                                                                                                                                                                                                        # . . . . + = > l l z N ` ' M = . . . . . . . . . . . . . . . . . . + + . . . . . . . . . . . . . . . . . . . . O . X ; G E. X X.X}.H.H.H.H.L.K.zX5X9X0X8X6X|.A.L.A.H.H.A.W.Z.F ; % X . O O O @ @ @ @ @ + . . . . . . o . . + o + + X * 0 ^ 6.4.O.X.:.5.8.4.6.$.y , % j 0.m.^.m.m.m.m.T.^.^.^.T.T.m.n.c.6.=.Z * o > A ` @.@.^ ^ ^ ^ ^ ^ W / ^ / z j x @.-.h.*.g o . . X X q :.e.F.*X-X<XR.n.t.&.-.*.n . . . + o o o . . . . . . . . . . . . & E 4.n.!.!.!.).N.$.M = . . &                                                                                                                                                                                                                                                                                                                       ",
"                                                                                                                                                                                                                                        + . . . + o = > h M l z N V f # . . . . . . . . . . . . . . . . . . . . . . . . . . . . . . . . . . . . . . . . . . . . ; r _ U.{.W.H.H.H.H.H.K.@X@X5X5X@X@X|..XF.G.F.C.Y G F * X + X O O O @ @ @ o o o o + . . . . . . . . . $ + + X - q ^ =.%.O.4.>.8.8.6.h.' > % % x v.N.m.m.m.m.E.T.^./.^.T.T.m.m.c.6.*.z . . > Z ' @.^ $.^ / ^ @.@.^ ^ ^ ! l j ~ $.-.h.h.` 3 X . . . 9 4.u.3.3.`.,X[.Y.t.O.*.@.g . . . o o o o . . . . . . . . . . . . - o.4.u.S.S.S.U.N.N = . . . %                                                                                                                                                                                                                                                                                                                       ",
"                                                                                                                                                                                                                                      . . . . . o = 3 t M M z h g t > # . . . . . . . . . . . . . . . . . . . . . . . . . . . . . . . . . . . . . . . . . . . . . X 8 U i.Z.A.A.H.H.K.|.|.K.K.|.K.K..X.X.XF.A.<.r 8 ; X X . + + + + o o o o o o o + . . . . . . . . . . + X X 9 j ^ &.O.O.4.4.8.8.=.*.g X X ; J l.m.m.n.n.E.T.T././././.T.m.v.l.=.' u . . > ! @.$.^ $.' ^ ^ @.-.*.[ ' ~ j j @.-.-.=.h.h.A = X . . & Q 2.3.3.~.2X$X!.y.:.o.^ y . . . . + o o . . . . . . . . . . . . , 7.8.w.3.1.,.t.v.y . . . . %                                                                                                                                                                                                                                                                                                                       ",
"                                                                                                                                                                                                                                      . . . . + > u n n M A B M f 4 = + . X . . . . . . . . . . . . + . + . + . . . . . . . . . . . . . . . . . . . . . . . . . . . X ; r _ 1.C.A.F.H..X.X.X.X.X.X.XF.A.A.Z.u._ 8 X X X . + + + + @ o o o o o o # # + . . . . . . . . o + X * z E o.&.:.O.:.4.8.6.$.~ > . X 9 ^ l.M.m.m.E.E.T./.(.(.(./.T.m.v.l.=.~ > . X > ~ *.$.^ $.*.$.[ @.-.*.' ^ E j y / =.=.k.k.j.h.n + . . X 0 U 2.e.W.-X&X!.p.,.+.( j % X . . . . + . . . . . . . . . . . . w 8.r.y.e.2.e.T.N.y . . . . X                                                                                                                                                                                                                                                                                                                       ",
"                                                                                                                                                                                                                                    . . . . . + 4 n M B B M n M u 3 # X . . . . . . . . . . . . . . . . . + + + . . . . . . . . . . . . . . . . . . . . . . . . . . . . % w H I U T 1.Z.Z.Z.i.i.<.T Y K G r p 9 . . X + . . @ + o o # # # # = = = 3 = X . . . . . . . o # X 9 ~ ^ o.4.>.:.>.>.4.&.W l * X X h *.k.v.m.T.T.R.R.(.(.(.(./.T.m.v.k.j.' t . X t ' @.[ ^ *.-.*.@.$.-.*.' ~ l 0 q ~ =.9.k.k.k.j.` & . . . - G  .e.D.W.W.Y.S.u.,.O.) j , X . + + + . . . . . . . . . . . . q q.y.S.U.S._.>X:X! + . . . %                                                                                                                                                                                                                                                                                                                       ",
"                                                                                                                                                                                                                                  . . . . . . X 3 f n h h h u f 3 # + . . X . . . . . . . . . . . . . + . + + + . . . . . . . . . . . . . . . . . . . . . . . . . . . . . X X X % ; 8 8 w w 8 8 8 ; ; % X X . . . . . + + + o o # = 3 4 3 > > > t t > o . . . . . + + + + o 0 ^ o.O.4.4.5.4.:.7.&.J - o X X z 6.l.m.^.(.)._._._.[.[.(./.E.v.q.&.-.' t . X y ' $.[ ) [ %.*.$.$.@.@.' ! l 8 q ^ =.k.k.k.k.k.h.u . . . X w X.y.S.e.3.S.S.S.u.>.8.) c > . + . . . O . . . . . . . . . X p y.u.,.<.3.'.:X:X` X . . . %                                                                                                                                                                                                                                                                                                                       ",
"                                                                                                                                                                                                                                  . . . . X X = g n n u f u 3 3 = + X . . . . . . . . . . . . . . . . . . + + + . . . . . . . . . . . . . . . . . . . . . . . . . . . . . . . . . . X X X o o X X . . . . . . . . . . . o o # # = > h M V z n p g i 0 > & = : # o + . . . X 9 ^ O.%.4.8.q.8.O.%.%.x % X X X E x.m.T.(.)._.'.].'.'.[.(./.n.c.5.O.%.' y X X d @.o.o.$.$.%.$.$.@.@.@.@.! l w c *.k.9.9.q.l.k.j.` : . . . * ( u.e.3.3.S.S.S.e.w.r.8.) d X X . . . . . . . . . . . . . X k n.u.<. .1.[.:X:X! . . . % -                                                                                                                                                                                                                                                                                                                       ",
"                                                                                                                                                                                                                                . . . . X > t A A B f : : = : = # . . . . . . . + + + . . . + . + + + + + + + . . . . . . . . . . . . . . . . . . . . . . . . . . . . . . . . . . . . . . . . . . . . . . . . . . . O @ o o # 3 > y N ^ ^ $.^ ! ! c x N N M z f > # o + + X * E %.4.4.0.r.8._ ) / 0 X X X , o.m.^./.(._.'.].].].oX(./.T.n.t.5.4.=.*.h . o l o.o.%.%.%.%.$.$.' @.@.~ N l E $.k.k.x.z.q.l.k.k.j.M + . . X e X.2.e.e.S.S.S.S.e.p.U.q.$.d o + . . X . . . . . . . . . X c E.U.e.3.Y.].;XoXM . . + t                                                                                                                                                                                                                                                                                                                         ",
"                                                                                                                                                                                                                                . . . . = A ! @.` M f = o # : = + . . . . . . + + + + + . + + + + + + + + . . . . . . . . . . . . . . . . . . . . . . . . . . . . . . . . . . . . . . . . . . . . . X . . . . . + @ @ o o o = > y x ) %.%.O.%.O.o.) ) %.*.' C d > o o + X X % v ) O.4.8.z.5.) E p & . . & x 0.T.(._._.[.'.$X;X;X'.(.T.T.v.r.0.6.=.*.h . o z o.%.%.&.%.%.) ) ^ ! z d q C $.=.x.x.z.z.c.z.z.x.B.*.3 . . X & s X.e.S.p.S.W.!.S.e.p.v.x.-.> . . X . . . . . . . . . . X j y.S.S.S.`.$X).N.h . . + y                                                                                                                                                                                                                                                                                                                         ",
"                                                                                                                                                                                                                              X . . . o g @.' ' Z M u # . # : # . . . . . . . . + + + + + + + . . . + + + + . . . . . . . . . . . . . . . . . . . . . . . . . . . . . . . . . . . . . . . . . . . . . . . O + @ @ @ o o o # = y V J %.6.4.4.:.+.4.7.6.9.6.%.^ d > & o o X X ; x o.O.4.8.0.7./ p & X . . y 6.m.(.[.[.].].].$X>X;X'.(.T.T.v.r.8.6.=.#.u . & N o.%.4.&.&.&.$.[ [ ! d 9 j *.k.k.x.M.M.M.M.v.c.x.x.j.f X X . . ; H 2.S.e.D.W.`.Y.e.p.m.v.k.u X . X . . . . . . . . . . X j t.e.3.Y.`.].t.o.u . . o t                                                                                                                                                                                                                                                                                                                         ",
"                                                                                                                                                                                                                            # + . . o u ~ @.*.*.Z h 4 # . # = o + . . . + . . . . . . @ + + + + + . + + + . . . . . . . . . . . . . . . . . . . . . . . . . . . . . . . . . . . . . . X . . . . . + . . . $ o o # # o o o : > g ! Q %.4.4.5.4.:.4.8.q.4.( ^ / d > o o + o * 9 ^ %.:.5.5.4.%.z & . . . X c m.(.]. X&X&X&X>X<X<X>X'./.T.T.v.r.8.6.-.' 4 . : E o.%.&.&.&.=.$.) W N j 8 c =.x.x.M.M.N.m.m.M.c.z.x.k.M = + . . X w X.e.p.S.D.W.D.Z.S.E.v.-.l X . . . . . . . . . . . . X e 8.u.e.F.~.`.8.w X . . o 0                                                                                                                                                                                                                                                                                                                         ",
"                                                                                                                                                                                                                            # . . o * y ~ $.-.j.` u u = . + . . . . . . + . + + + . . + + + + + + . + + + . . . . . . . . . . . . . . . . . . . . . . . . . . . . . . . . . . . . . . . . + . . . + + + @ @ o o o # o o # 4 t d / o.&.4.4.5.8.5.5.4.4.o.I c c 0 , X . X X - e ) 4.5.5.5.O.) y . . . X X Q T._.].&X<X,X,X1X2X,X>X[.R.T.E.c.0.0.6.h.` > . : ! $.%.&.&.&.&.) L w j E j E 6.x.M.N.N.N.^.^.m.c.l.x.x.! y > X . . ; I w.p.S.Z.D.D.S.S.E.m.6.x & X . . . . . . . . . . . . e 8.p.D.F.!.].9.* . . . %                                                                                                                                                                                                                                                                                                                           ",
"                                                                                                                                                                                                                          = + . + = - y E / $.*.] b 4 : . . . . . . . . . . + + + + + + + + + + + + + + + . . . . . . . . . . . . . . . . . . . . . . . . . . . . . . . . . . . . . . . . + + + + @ + @ @ @ @ # o o # o = 3 i l ) O.4.4.4.4.4.5.5.4.O.P L k j > o X . X * j W O.5.w.w.5._ / t . . X % w 4.R.`.&X&X,X1X1X1X2X,X&X[.(.T.m.t.0.q.=.h.` > . : ~ %.%.&.%.&.%./ c w q ^ -.=.x.M.N.N.N.N.N.^.N.l.0.c.B.h.! g X . . X s >.S.F.~.~.~.W.D.Y.E.v.) 0 X . . . . . . . . . . . . j n.Y.!.~.`.$X9., . . . %                                                                                                                                                                                                                                                                                                                           ",
"                                                                                                                                                                                                                        = + . . & i j x E / / C A b 6 # . . . . . . . . . . + + . . . + + + + + + + + + + + . . . . . . . . . . . . . . . . . . . . . . . . . . . . . . . . . . . . . . + + + @ @ @ @ # # # # # # # # # = > 0 c $.4.4.4.4.4.4.6.7.&.) H c d u # + X . X 9 ^ 6.5.w.u.u.5.Q E t . . X y ) v.(.&X<X,X2X2X2X2X2X<X[._.(.T.n.r.8.l.=.j.` : . : ~ *.=.%.) ) $.E x w q ^ k.x.M.M.N.^.N.m.m.N.M.z.l.z.x.x.h.Z & . . X w :.Q.~.*X-X*X*X~.W.Y.m.6.x * X X . . . . . . . . . X x T.`.&X$X&X>Xq.> # . . &                                                                                                                                                                                                                                                                                                                           ",
"                                                                                                                                                                                                                      o X . . X d C ! / / / N l u u 2 o . . . . . . . . $ $ . . . . . . + + + @ + + + + + . . . . . . . . . . . . . . . . . . . . . . . . . . . . . . . . . . . . . . + + . + @ @ o # # < < < # # # # # = > 0 R %.4.4.4.4.4.4.4.%.) E j 9 * o . . X o , c %.8.t.y.y.y.4.W z = . . % ^ c.T._.&X<X,X2X2X2X2X2X<X[._.(.T.n.t.8.9.-.*.Z o . > ^ $.$.) W E E E ^ l e ^ k.x.M.N.N.^.^.^.N.m.M.c.v.M.x.x.-.! - . . X * ( T.`.-X1X=X-X*X~.R.T.z.%.R & . . . . . . . . . . % k y.[.`.`.&X>X9.> : . X ,                                                                                                                                                                                                                                                                                                                           ",
"                                                                                                                                                                                                                    X . . . X & x ^ / / ~ N z u 4 2 o . . . . . . . . . . . . . . . . . + + + + + + + + + . . . . . . . . . . . . . . . . . . . . . . . . . + + . . . . . . + . + + . + . . @ @ @ @ # # 7 < < # # # o # - y v ^ &.O.:.:.:.7.%.[ / N l > o . . . . o 0 x o.4.0.y.S.S.u.O.! i o . . - &.m.R._.].*X,X2X3X2X2X2X>X[._.(.T.m.t.8.=.C y u o X > ! ' ^ E v p w j ^ ^ ! $.k.x.M.N.N.^.^.^.^.m.m.m.M.M.z.l.h.' z t o . % k 8.~.-X-X-X=X=X*X!.R.v.l.h.b X . . . . . . . . X 9 K ,.Y.~.~.&X>X&.X o . +                                                                                                                                                                                                                                                                                                                             ",
"                                                                                                                                                                                                                  o . X . . % 9 E $.^ R V g u t = o . . . . . . . . . . . . . . $ $ . @ + + + @ + + + + + . . . . . . . . . . . . . . . . . . . . . . . . + + + @ . . . . $ @ @ @ @ + + + . o @ @ @ < < < < 7 # # # # > t V E $.4.&.:.O.O.%.) E l y > o . . . . X * j o.4.8.r.p.U.U.r.6.' > . . . * 7.T.T.!.].*X,X2X2X2X2X1X&X[.!.R.T.U.c.9.-.i X X . o > M ` ! z y 9 9 j E @.-.=.k.z.c.M.N.^././././.^.^.m.M.c.l.k.*.~ Z = . X , X.Q.-X-X2X=X=X*X~._.T.x.k.] # . . . . . . . . X k X.,.!.`.~.&X>Xo.. . . +                                                                                                                                                                                                                                                                                                                             ",
"                                                                                                                                                                                                                o X . . X & y x $.*.' ! g i t 2 o . . . . . . . . + . . . . . @ @ @ @ o @ @ o o o # o + . . . . . . . . . . . . . . . . . . . . . + + @ @ # # o @ @ $ $ @ @ @ @ @ @ @ + + + @ # # 7 7 7 7 7 7 # # # = t l E ) %.&.O.O.O.O.) ^ V y > o . . . . X * q L O.8.8.u.y.Z.Z.5.%.~ & . X X 9 q.T.R.!.$X<X1X2X2X3X2X,X&X[.R.U.E.m.c.9.$.> . X X : t M ! l y 0 9 0 z ^ -.h.k.x.x.c.M.M.^.).)./.^.)./.m.m.c.z.l.=.*.` & . . X s r.*X-X2X2X*X XW.Y.T.c.k.] 1 . . . . . . . . % c X.2.!.$X*X&X;Xo.. . . +                                                                                                                                                                                                                                                                                                                             ",
"                                                                                                                                                                                                              + . . . . X d / [ $.$.! l t 3 3 # . . . . . . . . . + + . @ $ @ @ @ @ @ o o o # # # # # + . . . . . . . . . . . . . . . . . . . . . + + @ # # # @ @ . . @ @ @ . . @ @ @ @ + o @ # < 7 2 2 7 7 # # # = > h N ^ %.%.&.O.O.O.o.) ! g t = + . . . X , h L o.4.8.u.y.e.e.y._ j > . . X * e r.T.E.Q.].<X,X2X2X2X2X,X&X_.R.U.U.m.c.6.^ > . . = Z n h h t 9 9 9 0 x ' *.-.k.k.x.x.x.v.N.)./.^./.).^.v.q.c.z.x.k.-.' = . . . & L p.~.*X-X*X XW.S.m.v.x.#.t . . . . . . . . * L >.3.W.`.&X&X;X/ . . . o                                                                                                                                                                                                                                                                                                                             ",
"                                                                                                                                                                                                            # X . . X & 0 E ) ) ^ ! l t : = # . . . . . . . . + + + + + @ @ + @ @ @ @ # o # # # # # # + . . . . . . . . . . . . . . . . . . . . . + o # # @ @ @ . . @ @ $ $ . . @ o + @ @ o # < 7 7 7 7 7 # # # # : 9 N ^ o.O.%.4.O.o.o.^ E N u = + . . . . * d E o.&.4.r.u.y.e.u.t.J * X . . 9 W O.t.T.E.E.[.>X,X2X2X2X2X<X&X[.R.U.U.n.z.&.~ = . . : h.A u 4 4 i i u h N ~ ' $.-.j.k.l.l.c.N.^.N.N.^.).^.c.8.q.z.x.k.h.*.9 X . . X w :.e.D.`.*X X~.!.E.m.x.k.A = . . . . . . X w Q 2.1.D.~.~.[.^.x . . . =                                                                                                                                                                                                                                                                                                                             ",
"                                                                                                                                                                                                          . . . . X 9 E $.=.o.^ ! M g 4 = = X . . . . . . . . + + + + + @ @ @ @ @ @ # # # # # # < < # + . . . . . . . . . . . . . . . . . . . + @ + o # # @ @ @ . . . @ @ @ . . @ o @ o o # # 7 7 7 7 7 7 # # # : > d W &.4.O.:.:.O.o.o./ z g u : o . . . : 9 l / &.4.4.r.r.u.3.2.t.c X + . X x 9.l.c.U.n.E.!.&X&X&X1X2X1X<X&X'.Q.U.E.m.z.%.N & . . 2 h.B 3 3 t u g h l N ! ! ! ^ $.%.=.k.z.M.M.c.M.^.^.^.c.q.c.c.x.k.=.h.N & . . . ; J w.e.D.~.~.~.!.R.U.M.x.-.V = . . . . . X w ( 2.1.S.F.F.D.q.q . . . -                                                                                                                                                                                                                                                                                                                             ",
"                                                                                                                                                                                                        + . . X X % v =.6.&.$.^ ~ l u 4 > = . . . . . . . . . . . . . + @ @ @ @ # # # # # < < < < < @ . . . . . . . . . . . . . . . . . . . o o # # o o @ @ @ @ . . . @ @ @ @ o # # o o o # # 2 7 7 7 7 7 # = = > 0 c W O.4.4.:.:.O.o./ N l g h u = . . # h y j Q %.4.8.8.r.w.,.:.%.9 . + . & W 0.q.q.r.t.U.Q.].[.`.&X,X,X<X>X].Q.m.m.n.q.E i X . . o m 4 2 3 5 f M M M N C C E E / ' *.6.l.c.x.0.v.^./.^.m.v.c.c.z.k.=.h.-.M o . . X e 5.p.F.W.~.~.~.!.Q.T.c.h.*.u . . . . X X q +.2.3.D.W.F.e.+., . . . &                                                                                                                                                                                                                                                                                                                             ",
"                                                                                                                                                                                                      o . . . X * * ^ l.9.=.$.^ Z f 4 > : o . . . . . . . . . . . . . + @ @ @ @ o # # # < < < < < # + . . . . . . . . . . . . . . . . . . . # # # # o o @ @ @ + . . + @ o @ o o # # # # # # = 2 2 7 7 7 7 # : 4 u y c L O.4.5.>.4.O.) E z z h u 3 = . . 4 M x x Q o.+.4.5.,.>.<.o.*.t X . . 9 %.q.r.r.r.8.u.R._.Q.!.&X<X<X<X>X'.Q.m.n.c.9.C = . . . . # # 2 6 5 h B M N N Z Z C C ! ^ $.=.l.x.z.q.v.m.^.m.m.v.c.z.l.6.&.j.k.h.u . . X 8 +.R.!.~.~.~.`.`.[.(.v.l.-.M X . . . X % j &.w.3.D.W.W.Y.q.> . . . X                                                                                                                                                                                                                                                                                                                             ",
"                                                                                                                                                                                                    . . . . . > / Q 6.c.l.6.' ! M f 3 = # o . . . . . . . . . . . . . @ @ @ @ @ o # # < 7 2 2 2 # o . . . . . . . . . . . . . . . . . . . . 2 2 # o o o @ @ @ . + + @ @ o o o o # # # = = 1 2 : : # # # 7 : 4 h M l c W %.4.4.>.4.O.Q x z z g = = o . o h C E W Q ( _ :.:.X.( _ $.-.u + + . j l.r.r.8.8.<.2.U.U.U.Y.[.&X>X>X>X'.(.m.M.z.9.z o . . . @ @ o 2 6 5 b B A A Z ! ! Z C ! ! ' -.k.x.z.q.c.n.m.m.n.v.c.z.q.&.=.6.k.x.A . . . X H n._.`.`.~.`.`.`.[.n.0.-.~ 3 . X X X & s 4.p.e.S.W.!.[.N.d . . . X                                                                                                                                                                                                                                                                                                                             ",
"                                                                                                                                                                                                . . . . . . . y k.x.q.z.6.' N z h u : + . . . . . . . . . . . $ . $ $ @ o @ @ o o # < < 2 2 2 2 o . . . . . . . . . . . . . . . . . . @ # 2 # 2 # o @ + + @ + . + @ @ o o o o # # # 1 1 2 2 2 2 : 7 # = 2 3 g M N c W ) %.:.:.4.4.O.W x N N h t 4 : o > M C E W Q ( ( ( ( _ o.) ~ ` u o + X x z.t.r.8.,.,.w.m.n.n.T.E._.].>X>X'.(.m.n.z.=.f + . O + o @ # 7 6 5 b B Z Z ! ] ` ! Z E E ! $.=.k.l.9.t.c.n.n.n.v.v.M.x.9.k.6.k.x.Z . . . . * ( m._.Q.R.~.`. X`.U.X.) *.S > + X X % w :.p.3.3.Y.Y._.).z . . . X                                                                                                                                                                                                                                                                                                                             ",
"                                                                                                                                                                                              + . . . . . . X l j.l.9.=.*.~ M f u 2 # + . . . . . . . . . . . $ . $ $ @ @ @ @ o # < < 2 2 2 6 # . . . . . . . . . . . . . . . . . o o # 5 5 2 # o @ o + + @ + + + + o o o o # # # 1 2 2 : 2 2 2 2 : : : > u M C x E ) ) ) O.4.5.5.o.) ^ ! ! C M n > o > M C E W Q ( ( ( ( ) o.! y 4 = X % 9 $.v.v.c.y.v.r.r.E.E.T.T.T.T.(.;X]._.(.m.M.z.=.u . . O + o @ # 7 6 5 f M A A S ] ] ` ! Z N C ^ -.6.9.6.q.z.v.M.c.z.v.M.l.x.x.k.k.x.! o X . . % w %.m.t.y.!.`.~.!.U.,.O.$.` u X X X X & ( t.2.3.D.U.8.%.t . . . &                                                                                                                                                                                                                                                                                                                             ",
"                                                                                                                                                                                              . . . . . . . & x %.=.%.$.~ Z B m 3 # o . . . . . . . . . . . . $ $ $ @ o @ @ @ @ # < 7 2 2 2 2 o . . . . . . . . . . . . . . + . o # 2 6 5 6 # o @ @ + + + @ @ o o o o o o # # 2 2 2 2 2 2 2 2 : : 2 : > 4 h N E W Q ) ( _ 4.5.8.8.O.%.$.^ ~ ! Z M > % > M E W Q ( ( _ ( ( ) ^ l & X + X & c 6.M.m.n.n.U.t.8.n././.T.T.T.R.'._.(.(.N.M.x.*.4 . . + + o # # 7 6 5 f b B B Z S ] ` ` ! N N E @.*.-.=.9.q.c.c.z.z.z.x.9.l.x.k.6.=.' g # . . X % l %.o.<.U.!.!.Q.R.U.0.7.$.C > X . . X W t.e.p.!.(.Q 0 o . . +                                                                                                                                                                                                                                                                                                                               ",
"                                                                                                                                                                                            X . . . . . X , v L Q $.^ ! M n b 5 # . . . . . . . . . . . . . . . $ @ @ o @ @ @ # # 2 2 6 2 # o . . . . . . . . . . . o @ . . + o 2 6 6 2 # o o o o o + + @ + . o o o # 2 2 6 6 6 2 6 6 3 6 6 3 : : : 3 3 u z N E o.) ( _ O.5.w.r.r.0.l.&.$.' ~ N g > % 0 x E P ( ( ( ) ) ( ^ E 9 X . . X , W l.M.^.T.n.y.n.t.m.(.R.T.T.T.(.'./.T.(.T.M.x.` : . . + + @ # o 7 6 5 5 f m b B A S ` #.` Z C C ~ @.*.-.=.9.l.l.q.z.l.l.9.x.l.l.=.$.@.` 4 . . X X - p c P 2.Y.R.R.Q.R.U.c.6.-.z & X . X L t.y.e.Q.).J & . . . &                                                                                                                                                                                                                                                                                                                               ",
"                                                                                                                                                                                          X . . . . . , z o.9.^ Q E E M b u 6 2 o . . . . . . . @ @ $ @ . . $ $ @ @ o # # # # # 7 7 2 2 2 # . . . . . . . . . . o + o . o o # 6 6 5 2 # o o o @ @ @ + + . . . o # = 2 u 5 5 3 6 3 6 5 5 5 4 3 : : : 4 f M z C E ) o._ _ :.8.w.w.8.0.l.6.[ / C h t * % 0 x E Q ( ) ( ) ) ^ / E = . . . * c %.l.m.^.).).).(.(.(.)./.T.T.T.(./.E.T.T.N.M.x.Z o X X + + + @ o # 2 6 5 5 f m n B S S @.` S Z Z E ~ ' *.%.6.9.9.9.9.9.9.k.x.l.x.6.$.@.` b o . . . X % ; w a.y.Y.Y.Q.R.E.v.q.=.^ 0 X X X W c.2.2.E.).x X . . . &                                                                                                                                                                                                                                                                                                                               ",
"                                                                                                                                                                                        X . . . . . & ~ k.l.q.6.-.~ N h u 2 # o $ . . . . . . . . @ @ @ @ @ $ $ @ @ o # # # # # # < 2 2 # o . . . . . . . . o : 2 . + . # 6 6 6 6 2 # o o @ o @ @ @ $ . . o # 2 4 u u 5 6 6 6 : 6 5 u u u 4 > : : u h C ! C E Q o.o.O.+.:.,.,.>.>.:.7.%./ x l u > * * y L Q o.o.O.( Q Q / ~ C & . . . , / 9.c.m.T.(.'.;X].'.'.[.(.T.m.t.v.r.r.m.m.m.M.9.h + . . . + + @ o # 2 2 6 6 5 f b n A Z S ` S S ! ! ! ^ *.*.=.9.k.&.%.&.6.=.6.k.6.%.Q ! ! M 2 X . . . X X * I 2.S.Y.Q.!.Y.p.t.0.%.z - + % W c.8.u.E.).v X . . . &                                                                                                                                                                                                                                                                                                                               ",
"                                                                                                                                                                                      o . . . X . . 9 =.z.q.9.6.=.C h u 3 # . . . . . . . . . @ o @ @ @ @ o @ @ @ @ o # # # # # # # 2 # o . . . . . . . + o 2 b f o o o 2 m 5 6 7 # o o @ o o @ @ @ o o o # 2 u b n b 5 6 5 5 5 u f m u t 4 > : > h z C C E Q Q o.O.+.+.>.>.:.:.O.o.) W R z h u > , 0 x W ) o.&.%.Q L W ! C i X . . X q ) q.v.T.T.(.].;X;X;X].[./.^.n.4.:.4.8.n.m.M.z.;.0 . . . . + + @ o # 7 2 6 6 6 6 f b b B A A A Z ~ ' ' @.*.*.*.*.-.o.) $.o.W ^ %.o.o.Q [ *.#.b # . X . . . X v >.y.S.Y.Q.Y.U.y.t.6.^ z = X c :.,.e.].oXv X . . . %                                                                                                                                                                                                                                                                                                                               ",
"                                                                                                                                                                                    = + . . X X X & s k.x.9.o.^ ! z u 3 # + . . . . . . . . . @ . . + + @ o o o o o o # # # # # # o # @ . . . . . . . . # : 4 n m # o : 2 6 6 2 # # # o o o o o o o o # = 6 u m b n b u u f b b b m f f u 4 > > 4 h M N x E Q Q ) O.+.O.:.:.O.O.o.) W J x z h f > 0 N / ^ o.o.%.Q J J E ! M & . X X 9 / &.q.c.E.(.'.&X>X>X;X].'./.^.m.4.O.O.4.c.M.M.l.~ & . . . . + + @ @ # # 7 2 2 2 6 6 u m b n n B M ! ` ' ^ ! ~ / ^ ' / E W W J W $.6.9.6.k.k.h.] b # . . . . X q O.t.e.S.Q.!.Y.U.y.8.&.^ t X w k U u.].oXl X . . X                                                                                                                                                                                                                                                                                                                                 ",
"                                                                                                                                                                                  X X . . . X i j j ( 9.k.%.E z t t 3 # + . . . . . . . . . + + . + + + @ o o o o o # # # # # # # o + . . . . . . . . # 3 b m m 2 o # 6 6 2 2 2 # # 1 # # o o o o # = : 3 u f f u u b b b b n n b b f u t 3 3 t u M N C x W Q ) o.O.O.%.%.O.O._ ) ^ E N x z h f > h ^ $.) Q Q W J c E E N y X . X > N %.q.t.n.T.'.$X>X>X<X>X;X'.(.T.c.4.O.O.4.t.M.M.k.C X . . . . + + @ @ # # < 7 2 2 6 6 6 5 f h h n M M M M z x C C E E E E E L J W %.l.z.c.x.k.j.h.] 6 . . . . . o E 9.8.3.U.W.!.U.y.8.4.%.z & & * k ,.).).d . . . =                                                                                                                                                                                                                                                                                                                                 ",
"                                                                                                                                                                                X . . . . . % E 9.6.9.%.%./ x y > = # + + . . . . . . . . . . . . . + + @ @ o o o o o # # # # # o o + . . . . . . . + > f B n m o . # 5 5 # # # # # 1 # # # # = : 6 5 f g f h b u t u n n n n n n n f u 4 3 t i g M N C E / ) o.O.%.%.%.O.o.%.) ^ / E C M M h u > d ~ ) Q Q J c c c C C z > . . = M ^ %.8.c.n.T.'.$X>X>X>X>X;X'.(.T.q.4.4.O.4.q.z.x.-.t . . . . . . + + @ # # # 7 2 2 6 6 6 6 5 f f h h h g u t d z z x x x x L W P W 4.z.M.M.B.k.-.#.#.M o . . . . . t ^ O.,.e.Y.!.S.e.8.4.&.Q , X X * s q.x.> . . . 3                                                                                                                                                                                                                                                                                                                                 ",
"                                                                                                                                                                              + . . . . . X * Q q.z.6.o.^ C h u 3 = + . . . . . . . . . + . . + . . + + @ @ o o o o # # # # # # o + + . . . . . # # = f A Z A u . . o 3 2 # # # = = 1 2 2 : 3 5 u u f h n M M n f u f n n n n h h f f 4 3 > t y M C E ! / o.o.o.o.%.%.%.%.%.$.^ / E N N M M f > > z ~ ^ ^ W J c x x C z > o . . > ` *.&.8.t.n.T.'.].].].].].'.'.(.T.q.6.6.O.O.8.z.x.^ : . . . . . . . + @ # # # 2 6 6 6 6 6 6 5 5 f f f 4 u 4 > 0 h z l l v x x W o.&.z.M.M.M.M.=.$.~ ' ] 6 . . . . . X 0 x Q w.S.Y.S.S.w.4.4.%.v & . . o 0 d & . . X                                                                                                                                                                                                                                                                                                                                   ",
"                                                                                                                                                                            + . . . . o = 0 k J 6.4.o.N z g 4 6 2 o + . . . . . . . . + + . . . . . @ @ @ @ @ o o o # # # # # # o . . . . . . = u 4 u M ` Z B = . . o = : # # # = 2 2 6 4 u u f b n M M M M M M n n h n n n n f f u t > > > y g N Z ! ^ o.o.o.%.%.%.%.%.%.%.) ^ / N N M M h u > y E ^ ^ W W L x x x C t X . . . 3 ` -.4.q.t.n.Q.'.].[.[.[._.[.'./.m.c.0.9.+.+.9.z.x.~ & . . . . . . . . + o o # < 6 6 6 6 6 6 6 6 6 2 : : 4 3 > 0 h z z v x E Q Q 6.z.c.M.M.M.x.-.*.^ ' ] b . . . . . . o * j >.U.S.Y.Q.n.8.4.9.@.> . . o % X o . . X                                                                                                                                                                                                                                                                                                                                   ",
"                                                                                                                                                                          . . . . . X l ! $.&.o.%.$.~ l i > = # o o . . . . . . . . . + + . . . $ . @ @ @ o @ o o # # # # # < < + . . . . . . = M g g C ! C h o . o o # # # # = : : 3 4 u f h n M M A M M M M n h g f g n n f u t 3 > > > t d z ` ` / ^ $.o.o.o.O.%.%.%.o.o.^ / ! N M M M h i 9 j ~ ^ ^ W W W W E N M 3 . . . . 5 @.-.4.q.t.n.Q.'.'.'.[._.).).(./.m.c.9.9.&.&.q.x.x.~ & . . . . . . . . . o o # < 2 2 2 6 6 2 2 = # # # = : > 4 d z c x W ^ *.=.9.x.c.c.c.c.z.=./ ^ ~ ` ] B o . . . . . . . * ( p.Y.`.&X[.n.t.c.=.d X . X o o o . . &                                                                                                                                                                                                                                                                                                                                   ",
"                                                                                                                                                                        # X . . X X - ^ %.9.0.6.%./ z h t = o + @ . . . . . X . . . . + + . . + @ o o o @ o o o # # # # # # < 1 + . . . . . . = M M M C ! Z f o . o o # # # # : > 3 f f h h M M N Z Z M M M M h h g n n f f t > > > > > t f z C ^ *.$.o.%.%.o.o.O.%.%.%.$.) W E E C M h h d 0 0 x ^ ) ) ( ( Q ^ ' C h = . . X = h @.-.4.8.t.m.(.'.'.'.'.).(.(.).^.m.l.%.6.q.9.z.x.x.~ o . . . . . . . . o o # 1 1 2 2 2 2 2 2 = o o o = > > t h ! ' ^ ) -.6.k.l.x.z.x.x.l.k.=./ x ! N M Z n # . . . . . . . X c q.R.$X&X&X_.U.t.4.L - X . + + . . . =                                                                                                                                                                                                                                                                                                                                   ",
"                                                                                                                                                                      + . . . X > 9 c %.9.9.4.o.^ ! 9 = = o . . . . . . . . X . + . . + + . . + @ o # o o o o o # # # # # # < < + . . . . . X 4 h N Z ! ! A t + . o # o o # : > t g M M z M z M C A Z A M n h h g f b n 4 > = = = > > t u l Z ! ^ *.%.%.%.o.o.) ) %.%.%.$.) W E E C M h g y j E ^ ) ) ) o.o.) ) [ N > X . . o 4 M *.%.4.8.t.U.(.'.'.).).(.(.(.).^.m.q.) &.z.9.z.x.k.Z o . . . . . . . $ o = 2 2 2 2 6 5 6 2 = = : : > f h M ~ *.h.j.6.k.k.l.l.k.k.9.=.=.-.=.*.! V A n f t 4 o . . . . . . . . , Q E.`.&X&X`.Y.8.O.Q d o o + . . . . &                                                                                                                                                                                                                                                                                                                                   ",
"                                                                                                                                                                      + . . X 0 ! ^ o.6.7.%.O.^ E l t = + . . . . . . . . + + . . + + + + . . + o o # # # o o o o # # # # # # o . . . . . o > h M N C ! ! M > . . @ o o o 7 : t h M N z M M z l h h M h h g g g h n n u = o o = > > > y h N ~ ~ ' %.6.&.%.%.o.^ ^ %.%.*./ / E R C M M h g y x [ %.O.o.o.+.O.O.) ^ z o . . . = g C @.%.4.8.v.T.)._.).(.(.(.(././.^.m.9.P ( q.9.9.k.-.C o . . . . . . . o # 2 3 6 2 6 f b b f 4 4 u g h A Z ~ @.-.k.k.l.l.x.k.k.6.=.%.%.*.$.@.~ M l g 3 > + + . . . . . . . . . . j 8.Y.!.!.!.Y.e.,.+.z & o . . . . . =                                                                                                                                                                                                                                                                                                                                   ",
"                                                                                                                                                                    : X X & 8 x $.%.O.9.4.) E N V t 3 # . . . . . . . . . + + . . + + + + + + @ o # # # # o o o o # # # # # o X . . . . o > h M N C C E C N t + . $ # # : 5 u h l M M l z N N l d f g g f f u f g h u : o + + = > t t g l Z ' ^ $.%.&.%.O.o.Q ^ $.*.*./ E E N x z z M h u 0 x %.7.:.+.O.O.4.%.) ^ l X . . = u M ! ^ o.4.q.n.T.)._.(.(.(././.^.^.^.m.7.H Q k.6.o./ N u . . . . . . . . o 2 2 6 5 6 5 f b B B h h h M ! ~ ~ ^ -.=.=.k.9.q.l.k.=.&.%.$.$.@.' Z M u 4 = + . . . . . . . . . . . . . % s X.2.e.Y.Y.S.e.8.@.h : . . . . . >                                                                                                                                                                                                                                                                                                                                   ",
"                                                                                                                                                                  = o X & j c Q O.( _ 6.7./ l y t = # . . . . . . . . . . + . . . . . @ + + o o o # # # # # # o o # # # # o o . . . . . # 4 M M C C C N N N t + . o 2 6 5 u f f l l z g l M z l g h h h h f f u 4 4 : + + + o = > t g M N ! ~ / ^ -.=.) Q P J W *.$.$./ E E x z z h g y i y E 4.4.:.+.O.4.7.%.^ ! u . X = u M C ! ^ o.4.q.m./.(.).(.(.(././././.T.m.7.H Q 9.9./ 0 > = . . . . . . . $ o # : 2 6 5 4 3 u f h h M M C ~ ~ ! / o.-.%.&.=.6.k.9.%.$.$.*.[ E M u > = o . . . . . . . . . . . . . . . . & r I <.3.S.Y.U.t.9.@.B # . . . . -                                                                                                                                                                                                                                                                                                                                   ",
"                                                                                                                                                                # X . X y / Q ( o.( ) %.o.x y t = # o . . . . . . . . . . + . + . . . @ + o o o o # # # # o o o o o o # o o . . . . . . : u h l z x x x N M 3 + + o 6 f m u f b n l g g u y p g g h h h f f f u 3 = o X + o # = 3 u h N ! ^ ~ / ^ ) &.O.( ( ( o.$.^ ^ W E C N z h t t i y W %.7.4.:.:.:.4.6.*.E d & . o u B Z ! ! ^ o.4.t.E.R.(.(.(.(.R././././.T.v.&.H o.9.x.C o X . . . . . . . . . @ # # 2 6 6 5 3 4 u u g M Z ~ ' ^ E E ^ o.) $.*.*.=.=.$.E N V d , & o . X . . . . . . . . . . . . . . . . . X & q P >.p.Y.Y.m.9.-.C & . . . . &                                                                                                                                                                                                                                                                                                                                   ",
"                                                                                                                                                              3 o . X & N *.) ( _ Q Q / E z u 3 # o . . . . . . . . . . . . + + + + + o @ @ o o o # # # # o o o o o o o . . . . . . . + 3 f h l l l z x x M t o + # 6 m m f b n f u y y y t u y g g g f f f f u 3 o X + o # = > 4 d M C ! ^ ^ ^ ^ ^ ) o.) o.%.%.o.W W E E C z l d t t y l $.&.4.4.:.:.:.7.%.' M > . . : h A C ! ! Q o.4.v.T.R.R.R.T././.T.^.^./.T.v.O.L %.l.x.N X . . . . . . . . . . @ # # : 2 6 4 6 4 u u h M Z ' @.^ ~ E / / / ^ $.^ ' $.~ y - * % X . . . . . . . . . . . . . . . . . . . . . . X & q ( c.E.R.E.q.%.z & o + . . &                                                                                                                                                                                                                                                                                                                                   ",
"                                                                                                                                                            : # . . X 9 x Q W ( ( Q ^ N d h u 6 # o . . . . . . . . . . . . . . + + . o o # # @ # # # # # o o # o o o . X . . . + + + & i g l z l l c c x N u # o # 6 m m u m b f t i t t t u u u g f f f f f 5 : # o # : = > 3 u l N C ! ~ ^ $.-.%.o.o.o.o.&.%.$.W L R C C z h y 0 y l W %.7.4.4.<.<.:.6.$.V g : . . 3 M M N C / Q O.0.U.T.R.R.T.T.T.T.T.T.T.^.^.m._ Q =.l.x.! + . . . . . . . . . . o # # 7 2 6 6 4 u f f M M ! ' @.^ / E E ~ ~ ^ ' ! z M i & o X X X . . . . . . o = o o & - & & * o & & o . . . . X ; j %.8.p.n.8.o.x * o + . . &                                                                                                                                                                                                                                                                                                                                   ",
"                                                                                                                                                          = o . . X - y x L L W W W ~ C u 4 6 2 o . . . . . . . . . . . . . . . . . @ o o # # # # o o o o o o o o o @ . . . . . o = - i l z z z c z c c x C u o o # 5 m m u 5 6 3 3 > > 3 t t u g f f f f f u > = # o : 5 4 4 t g M N C E E E ) =.%.o.o.o.o.&.%.$.W R N E C z d 0 > y E o.&.4.8.8.<.:.O.=.' t & o X . u N M N C ^ ) O.t.T.Q.T.U.E.T.T.T.T.T.T.T.T.M.P L %.l.B.] + . . . . . . . . . . o # 7 : 2 6 4 f n n h M N C ^ ^ E x z l C Z ~ ! l > = o + + o o o = t g g V Z ! ! M l V E N E x j M z d > # . . . . & 9 k >.y.8.X.J q d = . . o                                                                                                                                                                                                                                                                                                                                   ",
"                                                                                                                                                        : o . . o 3 l N E J L W E x N B u 2 # # . . . . . . . . . . . . . . . + . + @ o o # # # # o o o o o o o o @ . . . . . X = u g z x x x x L x c x x Z 4 + o 2 5 m f 6 2 = = 3 3 t t t u u f n n f f f 4 : # o # : 4 t u h z N N C E L k J ) o.o.%.%.+.&.o.Q J J N C M h 0 9 y N ) &.4.5.8.5.>.4.O.$.! = + . . o f M N N E ^ ) 4.n.R.R.T.n.n.n.E.T.T.T.T.T.T.t.I L %.x.B.A X . . . . . . . . . . o # 7 2 2 6 4 h B A A A Z ! ~ E C C z d d h f u = + X X o = , t l E *.6.6.9.l.x.k.%.o.%.7.7.&.$.Q / L d d > o . . . X X & K t.n.r.+.&.h.n X . o                                                                                                                                                                                                                                                                                                                                   ",
"                                                                                                                                                        = . . . t M N N N x E E E M M f u 2 o o o . . . . . . . . . . . . . . . + + + o o o # # # o # # o # o o o o + . . . . . = h N E J L L W W W L x E ~ : X # 2 6 6 6 2 = : : 3 3 t u u f g n n n f f 4 3 : o = : > 3 u n h M z z x ~ Q E W ) o.%.%.&.&.%.) x x E x x l y 9 0 E ) %.4.4.,.8.8.4.4.%.' z o X X & t z C N C E ^ ) 4.n.R.R.U.n.y.n.m.T.T.T.T.T.T.9.L J ^ j.h.u . . . . . . . . . . . o # 7 2 2 6 f n A Z Z S ` ! ! C Z ~ A u = = & + X + X & > q c W %.6.v.m.^.^.^.^.m.v.t.r.r.0.8.4.%.o.L k z d > X . . . . X s p.R.T.U.m.x.! o . X                                                                                                                                                                                                                                                                                                                                   ",
"                                                                                                                                                      : o . . # u n V N ! E E N M M n 5 2 # o @ . . . . . . . . . . . . . + + + + @ @ # o o o o o # o o o o o o o o o + . . . . X i E Q Q ( ( ) o.) Q E ~ M o . . # 2 : : 2 = 2 3 4 4 u u f n b n n n n u : : > : 3 u u f f M M M C C x ! $.*.%.%.%.%.&.=.=.%.^ J c z l j h w w H ) O.O.>.,.,.2.8.6.7.[ ' t X X o y C E E C C E ^ o.4.T._.!.E.U.p.n.m.E.T.T.T.T.T.&.c j l ! p o . . . . . . . . . . . o : 2 2 2 5 f M A S ` ` ` ~ Z M M A n : + X X X X % - q c L ( 4.c.E.R.R.].;X;X'.'._.E.U.y.r.8.5.>.+.P L x z u # . . . . . * >.Y.Q.Q.U.4.R 9 X X &                                                                                                                                                                                                                                                                                                                                 ",
"                                                                                                                                                    . . . . o 4 f l z V N N z l g h f 2 # # @ . . . . . . . . . . . . . . + . . + @ @ o o o @ @ @ @ o o o o o o o o o o o . . . . 0 / ) ) o._ o.O.$.^ E ~ g X . . o 2 : : 2 = = > > 3 t u f n h h n h h 4 = = 3 3 t f h n n n M N ! ! E E [ %.%.%.%.&.&.%.) W W E c j j j j j x Q O.4.>.,.,.2.8.8.9.%.E ! u X X 0 E Q ^ W E E E ^ o.q.(.[._.Q.E.U.n.m.E.T.T.T.T.m.%.y y y h : . . . . . . . . . . . . o : 2 2 6 u u n Z S S S S ` Z h u f 4 # + X X X - 9 y c L o.8.n.T._.[.].<X<X,X,X<X&X`.!.T.p.y.r.8.>.+.o.~ l g = . . . . . . v n.Q.Q.E.r.&.W * . X *                                                                                                                                                                                                                                                                                                                               ",
"                                                                                                                                                # . . . . o > u f g l M M l d u 3 3 : # o o @ . $ $ . . . . . . . . . . . @ . . @ @ @ o o o @ @ @ @ @ @ @ o o o o o # 2 = o . . . i ^ o.O.O.O.4.&.%.^ E N > . . . o 2 : : 2 : : 3 3 3 t u f n n h n h g u : > 4 u u f n M M M M N ! ~ ! E ^ o.$.$.%.%.%.$.E x N E l d y j c x Q O.4.4.5.2.8.8.8.9.%.x 9 g 4 o 9 ^ 9.4.4.o.W W Q ^ o.q.(.].[.[.Q.T.E.U.U.U.T.T.^.N.$.9 & X & X . . . . . . . . . . . o o 2 6 6 6 u f n B Z Z A A A n 4 : o o . . X X & 0 k x P X.8.v.T._.].&X>X,X1X1X,X<X&X&X[._.R.U.y.t.8.8.9.$.l t = . . . . . . & o.E.Y.Y.E.T.c.l . % 9 *                                                                                                                                                                                                                                                                                                                             ",
"                                                                                                                                                o . . . + = 3 u g M h h h y i > = # # o o . . . @ . . . . . . . . . . . . + . @ @ @ @ @ o o o @ o o @ @ @ @ @ o o o 2 6 6 = + . . 0 ! ) o.:.5.5.6.%.^ C i X . . o # # 2 2 2 6 6 4 4 4 t u n n n M M h g d u u u u f h V V M M N C ! ! ~ E / ^ W W ^ ^ ^ / E l p N z y y c E Q o.&.5.8.8.8.8.8.4.&./ , X : & t ! 9.t.c.M.q.o.Q o.o.+.q.Q.].`.].'.Q.T.U.U.U.U.T.^.N./ X . . . . . . . . . . . . . . @ o # 6 6 6 4 u u g M B B n b m 6 o . . . . . o - 9 j J Q X.>.t.U.R.!.$X>X<X1X2X,X,X<X&X&X&X[._.R.U.y.t.q.l.*.l , = + . . . . . . * X.p.U.Y.R./.%.* : & X                                                                                                                                                                                                                                                                                                                             ",
"                                                                                                                                              # . . . + : > t g M M t u u t 3 > # # o + + . . . @ . . . . . . . . $ . . + + + @ @ @ @ @ o o o @ o o o o @ @ @ o o # 6 6 5 6 = . . % y ^ o.:.4.5.6.o.x y * . . . o # 2 2 2 2 6 6 4 4 4 u g f n n n M h g d h h g f n n V N M N N C Z E E ~ ^ ^ E E E ! E E E v q l x v x E Q ) O.4.8.8.r.r.r.8.&.*.Z : . o > ! *.4.q.n.^.m.q.:.O.+.X.,.p._.`.].$X[.Q.T.E.U.U.E.^.N.C X . . . . . . . . . . . . . . o # 2 6 6 6 4 u u u f n b m 5 2 o . . . . . X > d v c Q +.>.r.y.Y.!.[.&X<X<X,X2X,X&X&X&X&X&X].[._.E.n.r.:.) E j y t # . . . . . . . w X.U.!.R.E.0.A t X .                                                                                                                                                                                                                                                                                                                             ",
"                                                                                                                                            o . . . . o f f 0 h M h t t t 3 : : # o @ . + . . . . . . . . . . . . . . o + + @ @ @ @ @ @ o o o o o o @ @ o o o # 1 2 6 5 5 5 6 2 # X * x ( 4.4.4.&.W d , & . . # : 6 5 5 3 6 5 5 5 u u u g f h M M z y d g h h h b n n M A A Z Z Z ! ! ! ~ ^ ~ ! C x C N x V p y x ^ [ ) ) _ O.4.8.r.r.t.t.4.O.$.` A : . X d $.6.9.q.n.T.T.m.r.>.:.:.,.y.Q.[.].$X'.(.T.T.T.E.E.^.N.x X . . . . . . . . . . . . . @ o # # 2 6 6 5 u u u u u 5 2 # $ . . . . X & , d E Q W o.4.8.u.p.Y.!.`.&X<X<X,X,X<X&X&X&X&X&X&X`.`.!.E.v.5._ W E V t = + . . . . . . X k t.Q.R.Y.c.-.Z & . *                                                                                                                                                                                                                                                                                                                           ",
"                                                                                                                                          . . . . . X > M N h M h t > t 4 3 : # @ @ + . + + . . . . . . . . . . . o o o o o @ + + + @ o o o # o o o o o o o o = 2 6 5 u u 5 5 u 3 & % 9 L O.4.7.o.c 9 - o . . o 3 u m m u 4 u u u u f f g g h l M M d g h h h h n n M N Z Z Z ! ! ! ! ~ ! ! ! C N z N N l y 9 y R [ -.&._ O.:.8.r.t.t.v.v.o.W ~ B f o . X g ^ %.8.r.t.n.n.n.v.t.8.2.,.y.R.!.[.].'._./.T.T.E.E.N.9.0 . . . . . . . . . . . . . . o # # # # 2 6 5 u u u 4 : # . . . . o + . > g x C E Q o.O.4.8.u.y.Y.!.`.&X*X<X,X<X&X$X&X&X&X&X&X&X`.!.R.T.n.t.&.) E t > = . . . . . . . - ( y.Y.Y.v.h.*.3 . &                                                                                                                                                                                                                                                                                                                           ",
"                                                                                                                                        = . . . + 3 u g M M M M t > 3 4 3 = o o + + + + + + + . + . . . . . . . . $ o o o o @ @ o o o o o o # o o o o o o o # = 3 4 4 u u u u f 3 = & 9 x o.7.O.W w 9 = + . o o : f b h f u f g g g g h h l M M z g d h h h h n n n M A A Z ! ! ` ~ ! ~ ~ ~ ! N C C N M y , 9 0 j W ) o.:.:.,.8.r.t.8.v.M.%.x g 6 2 . . X z $.&.4.8.8.r.y.v.n.U.U.p.2.e.Y.Y.R.'.]._._.R.T.E.T.M.%., . . . . . . . . . . . . . . o o o o # # 2 2 2 2 = # o . . . . : 3 3 4 N E ! / Q ) O.:.4.5.u.y.Y._.`.`.&X&X<X&X*X&X&X&X&X&X&X&X].!.R.R.m.c.9.%.^ z y = . . . . . . . X q _ y.R.E.k.-.3 . X &                                                                                                                                                                                                                                                                                                                         ",
"                                                                                                                                      + X . . . o f M N N M z n 3 = > : # + . . + + + + + + + . o @ . . . . . . . $ o $ $ o @ o o o # # o # o o + + o o o o # = 3 4 u u u u u u = # o * j ^ -.^ v 9 9 - o + = > 3 g h g g n l z l z M N N N N N z h h z h n n n b M V A A Z ` ` ` ' ` ! C N C Z ! Z M M t > 3 g v L _ >.5.5.5.w.t.r.5.c.l.$.d o . X . X & C -.&.4.5.5.w.u.y.E.Q.R.R.y.e.e.y.U._.].].'._./.^.^.z.c X . . . . . . . . . . . . . . $ $ . . o o o o o o + + . . . . + : u u l E W ^ ) ) o.:.4.5.5.w.y.R.[.`.`. X X&X*X&X&X&X&X&X&X&X&X&X`.!.R.n.n.z.4.) C l 4 # . . . . . . . % w ,.R.E.l.$.> . . o                                                                                                                                                                                                                                                                                                                         ",
"                                                                                                                                      . . . . . = f M M l g g n u = # o + . . . . + + + o o + + + o . . . . . + . $ @ $ . o o # 2 2 < # o o + + + + o o o o # = 3 4 u u 4 u u 2 # + + . > Z #.` x y 9 9 > o & z z z N z l N E E N N E ! ~ ~ ! N z N N M h n M n M B M M Z ! ` ' ' ! ~ ! ! N ~ ` ! A M g u > , C ) _ 4.w.w.5.5.r.t.r.4.%.$.~ 4 . . . . & > ~ =.O.4.5.,.8.u.p.R._.Q.R.U.U.e.e.R.[.].;X].'.(./.^.9.0 X . . . . . . . . . . . . . . . . . . . $ $ $ . . . . X . . + = > g M N W Q o.O.o.O.>.5.5.5.w.y.Y.!.`.~.W.`.&X&X&X&X X&X&X&X&X&X&X`.!.Y.n.c.t.6.$.E C M t + . . . . . . . % ( U.E.c.) , . . . %                                                                                                                                                                                                                                                                                                                       ",
"                                                                                                                                    # . . . . # > u g d i i u u 3 # . . . . . . + + + o + o @ @ o o . @ @ @ @ . + @ + @ . o # 2 6 6 # o o + + + + + o o o # = = 3 5 u u m u 3 = + + . . X : u A M q 8 * y y j ! / W L J J W ^ ^ ^ ^ / / / ~ ~ ! C C C M M n M M M M M N C Z ~ ' ' ~ Z C C N ! ! A M f t t t d ! $.o.:.5.w.8.w.t.t.c.&.E N M : . . . . o > E ) O.:.>.,.w.e.S.!.`.&X!.Y.Y.S.u.Y.].].>X].[.(./.^.9.d X . . . . . . . . . . . . . . . . . . . . . . . . . X X . + = u g M C E ) ) O.O.O.+.>.,.5.w.w.u.Z.Y.Q.~.~.~.`.&X&X&X&X&X`.`.~.`._.!.R.E.n.t.q.6.*.' ! M t # X . . . . . . % H r.U.E.q.N X . . X                                                                                                                                                                                                                                                                                                                       ",
"                                                                                                                                    o . . . . = 4 u u i t t 3 3 # + + + + + . . . o o o o o $ . . @ . @ . . . . + + @ @ o # # 2 7 7 # o o + + + + + o o o # 1 3 6 u u f b 4 : = + + X . . . X 3 g e w e x ^ ) ) ( ( Q ( o.O.%.%.$.) ^ ^ ^ / / ! ! E N M z l n M M M M A Z ! ~ ! ! ! Z N N Z Z A M n u > , 0 z / o.X.:.,.w.r.t.y.c.c.%.C M f o . . . . o > N W o.+.>.8.u.e.S.!.$X&X&X`.!.Y.e.Y.[.&X;X].[.(./.^.9.t X . . . . . . . . . . . . . . . . . . . . . . . . . . . . = t M Z E E ^ o.o.O.O.O.:.>.>.5.5.5.w.y.U.Y.[.`.`.`.`.`.[.[.!.Y.Y.Y.Y.Y.Y.U.U.v.t.0.6.*.! z h u 3 o . . . . . . X w O.v.y.v.=.> X . X *                                                                                                                                                                                                                                                                                                                     ",
"                                                                                                                                  = + . . . + : 4 u u t 4 3 : = + . . . . + + . . o + + o @ . . . @ @ @ . . . $ @ @ o o # # # # o o o o + + + + + + o # # = 2 6 4 u m f u 3 = # + . . . . . . o y R Q O.4.5.4.:.:.O.:.4.4.6.6.&.%.o.) Q Q W E ! E E N M M M M M M M N A Z ! ! ! Z C N Z A Z A M f u > > > 0 E o.o.X.,.w.u.u.y.v.v.z.*.C M 5 + . . . . o > l E Q o.:.8.e.Z.S.W.`.,X1X2X&X~.Y.W.`.&X].[._.R.T.N.%.> . . . . . . . . . . . . . . . . . . . . . . . . . . . . + : g M ~ / Q ) o.O.O.O.O.:.:.4.5.5.5.5.u.S.!.[.[.!.Y.S.p.e.p.p.y.e.S.y.y.y.y.y.t.t.4.o.L 0 , > t u = . . . . . . . * L q.t.c.x.V % o X &                                                                                                                                                                                                                                                                                                                     ",
"                                                                                                                                o + . . . . o : 6 u u 4 3 : # o . . . . . + + . @ + @ @ + @ . . @ . @ $ . @ . . @ @ o o # # o o + . + + . . . . + + o # = 2 6 5 u f b f u = # + . . . . . . . . 9 W %.q.t.w.w.u.y.t.8.8.0.5.6.7.%.O.) Q W W E E E C N N M M M M N N N A Z Z C C N z M ! ! Z A h t : > t 0 j ^ %.:.,.w.u.e.y.y.t.t.9.$.z g : . . + + # = = & 9 k Q +.,.e.S.W.!.~.,X3X3X1X&X`. X&X&X[.!.R.E.n.m.o., . . . . . . . . . . . . . . . . . . . . . . . . . . . . # > g C ~ Q Q ) ) O.O.O.O.O.:.:.4.5.8.w.u.y.U.Y.Q.Y.S.2.,.,.2.2.u.u.y.y.y.u.r.w.8.4.) c 8 ; & & = > = o + . . . . . % e +.8.q.c.@., & o o                                                                                                                                                                                                                                                                                                                     ",
"                                                                                                                                . . . . . . + : 6 4 3 : = # + . + . + . . + . . + + @ @ @ o o . @ . + . . @ . + @ @ @ o o o o o + . + . . . . . . o # = 1 6 5 u u b b u 3 # + + . . . . . . . . % c %.4.<.1.3.y.p.y.8.8.q.8.4.7.O.o._ Q W L E E E C N N N N N M N N N A Z C C C N M M Z Z C M u > : t h d c ) 4.8.w.e.e.y.y.y.r.8.&.^ d * X . X t f 3 # + X % 8 J _ <.e.Y.!.`.~.,X3X3X3X2X*X&X&X X_.!.Y.S.y.c.Q * . . . . . . . . . . . . . . . . . . . . . . . . . . . + = t z ! / Q Q ( ) _ o.O.O.X.+.:.4.5.8.r.u.u.e.y.p.y.y.u. . .<.2.2.r.u.u.u.w.,.,.>._ P c 8 & & & - > > & o X X . . X X ; e U :.z.-.9 . . &                                                                                                                                                                                                                                                                                                                     ",
"                                                                                                                                + . . . . . . # = 2 = # o o . . . + + . . . . . + + @ @ @ @ $ . $ . . @ + + @ @ @ @ o o o o o . + + $ . . . . . + # = 2 2 6 5 u m f u u = + + + . . . . . . . . X 9 ^ %.<.1.e.y.u.5.,.8.r.5.4.4.O.o.( ( Q L E E E E C C N N N M M N N C C Z C N N C A C M M y > > t l N c c _ 4.8.u.e.e.y.y.y.8.%.*.^ 9 X X . - V M > + X . X % v ( U u.D.W.`.&X2X4XyXyXyX2X>X>X&X[.!.Y.U.y.t.L > . . . . . . . . . . . . . . . . . . . . . . . . . . . + : f M ~ ^ ^ ( ( _ ) _ X.X.X.X.+.>.5.8.8.w.u.u.e.u.w.u.w.<. .<.2.8.r.r.r.w.,.,.:._ P J x j 9 , - , t > = & o X X X X . X * G ( 9.$.t . . &                                                                                                                                                                                                                                                                                                                     ",
"                                                                                                                                + . . . . . . + o o o o + . . . . + + . . . . + . . $ $ . + . . . . @ o + + @ @ o o o o o o . . . . . . . . + + # = 2 2 2 6 5 u b u u 4 # + + . . . . . . . . . . . > j U ,.1.u.w.<.:.5.0.4.%.O.o._ ( ( Q W E ! E E C C C M M M M N N C C C N N N C C C N l i 9 y M ! W L L +.8.u.e.e.e.e.y.r.:.) ! l % . . X y E ! 9 X X . . . 9 c U ,.Z.~. X*X3X3X3XyX3X2X,X<X&X`.!.R.U.n.q.x > . . . . . . . . . . . . . . . . . . . . . . . . . . . # > h N ~ ^ Q Q _ _ _ _ _ _ X.X.O.O.:.5.5.8.8.8.8.8.,.2.2.,.X.X.>.8.8.4.<.:.<.<._ U ( ) ) L j y y y y y i 9 = & X X X . X ; r U O.E - . . =                                                                                                                                                                                                                                                                                                                     ",
"                                                                                                                                + . . . . . . . . . + . . . . . . . + . . @ + + . . . . . . . . . o o o + @ @ o o o o o o . . . . . . . . . . o # = 2 2 6 6 5 m b m 5 = + . . . . . . . . . . . . . . . * r Y w.Z.w.,.5.>.:.+.O.o._ ( ) ( ^ ^ / ! E C C C z M M M M M N N M M N N C Z C N z y y l E ^ Q I ( >.8.u.e.e.3.u.y.8._ L c 9 X X X 9 ! @.` i X . . . . % w I ,.Z.[. X,X2X2X2X3X2X1X,X<X&X`.~.Q.Y.v.4.c > X . . . . . . . . . . . . . . . . . . . . . . . . . o : u z N E W Q Q ( _ ( ( _ _ ( _ _ _ o.o.O.4.:.:.X._ ( U U U U U U X.U U U U X.X.X.X.4.9.6.$.! E E ! ! z y l y 9 > = X . . % r P ^ l % . . =                                                                                                                                                                                                                                                                                                                     ",
"                                                                                                                                # . . . . . . . . . . . . . . . . . @ $ . @ + + . . . . . . . . . . o o + @ o o o o o o o + . . . . . . . . + o # 1 6 6 6 6 5 f 5 5 2 o . . . . . . . . . . . . . . . . X % K y.E.E.y.8.,.>.>.:.o.( ( o.o.o.^ ^ ^ C C C C N M M M M N N N M N C C C Z M l l l x E W ) o.X.<.2.w.u.y.y.u.u.y.5.o.k 0 % % % 8 c *.-.*.g X . . . . X % p :.v.'.<X1X2X2X1X1X2X1X1X&X&X~.~.Q.Y.c.O.x > . . . . . . . . . . . . . . . . . . . . . . . . . . o > g M N E W W W W ( Q P P Q Q U ( Q W W Q Q Q Q H k H H H K K K I P U U _ <.>.>.5.4.8.q.6.o.^ ^ ^ ' [ ' N N N z l i & X . X e W ^ C , X X &                                                                                                                                                                                                                                                                                                                     ",
"                                                                                                                                & + . . . . . . . . . . . . . . . . . . + . . @ . . . $ + . + + . . @ + o o o o o o o @ @ . . . . . . . . . + o = 2 6 6 6 6 5 5 6 # o o . . . . . . . . . . . . . . . . . X c t.(.R.T.y.w.5.>.:.X._ ( ) o./ E E ! N N Z Z N N N M N N N N C C Z A A C g y d C W ) ) ( :.5.w.u.e.e.S.y.8.8.v.6.%.j X % * 8 k W &.&.%.l X . . . . . X 8 ( 5.U.>X2X2X2X*X*X2X2X1X,X&X!.W.W.Y.v.&.! > . . . . . . . . . . + @ o + . . . . . . . . . . . . o = d N C L W W L L W W L L L L J L L J x x c c k e e k k k H G I U X.+.4.8.y.T.T./.T.T.T.q.P H J L ^ $.*.^ E ! E N l = . . X d E / ^ z & X X i                                                                                                                                                                                                                                                                                                                   ",
"                                                                                                                                = + . . . . . . . . . . . . . . . . @ @ o . . @ @ . . @ . @ + . . . . + o o o o o o @ @ @ . . . . . . + . . o # 2 2 2 6 6 6 6 2 2 o + . . . . . . . . . . . . . . . . . . . 8 4./._._.E.r.,.>.>.:.o.( Q W L J L E N N N C C C C C N N N N N C Z C C Z z l l / ) O.4.5.r.y.y.U.U.y.y.y.8.5.l.%.^ d X * , q x Q 4.4.) p X . . . . . . % q W r.].1X2X2X*X*X2X2X1X,X&X!.W.!.R.m.=.N = . . . . . . . . . o o o o @ + . . . . . . . . . . . o - d N E L W W L L L J J J x x c c c c j y e e s s e s I U U X.5.t.n.E.Q.!.].>X$X$X$X$X].T.5.U I P _ ( %.$.^ ^ E E V > . . X d W ^ @.' y X o ,                                                                                                                                                                                                                                                                                                                   ",
"                                                                                                                                  + . . . . . . . . . . . . . X . . + @ o o o @ o . . @ . . . + . . . . + o o o o o o o . . . . . . . . . o # 2 6 6 6 6 6 6 2 = o o . . . . . . . . . . . . . . . . . . . . X p 6.v.n.t.2.,.r.t.8.O.) P W Q Q W x x ! ! ! ! ! ! ! ! Z C C N N N M M C N E W ) O.4.c.E.E.E.Y.E.U.y.y.t.q.4.%.C y = o , w j W Q o.4.O.c X . . . . . . X % q ) T.&X1X1X*X&X&X1X,X<X&X~.~.Q.E.M.*.d X . . . . . . . . @ o o o o @ @ + . . . . . . . . . . # > g V N C E E R x x x c c c c k e e e w w w r G U U <.y.n.S.Y.Q.[.`.&X&X&X-X&X&X&X<X<X>X]._.U.t.t.8.:.+.O.Q L E J z i o . X i E ^ $.*.! t o X                                                                                                                                                                                                                                                                                                                   ",
"                                                                                                                                    X . X X . . . . . . . . . . . . + o o o @ @ o o . . . . . . . . . . + o o @ o . . . . . . . . . . . + o 1 6 6 6 6 6 6 2 = # o . . . . . . . . . . . . . . . . . . . . . . X * e P :.8.y.U.n.t.>.o.( ) $.) Q W ^ ^ ^ ^ ~ ~ ! ! ! ! E C C C M M l x ^ $.o.o.O.q.T.(.R.E.E.E.U.y.r.r.z.%.E y > : > l c J ( _ o.4.%.N o . . . . . . . X & c t.].&X&X`.`.`.&X<X&X&X~.W.Y.E.N.j.g . . . . . . . . . @ o o o o o @ + . . . . . . . . . . o = t g l z N C x z x z j j j j j q w q w r G Y <.p.W.`.*X*X*X*X*X*X-X1X-X-X-X1X-X&X&X&X&X&X$X[.!.R.U.t.>.4._ H L J x g % . X 9 C ^ @.*.' g X .                                                                                                                                                                                                                                                                                                                   ",
"                                                                                                                                      o # # . . . . . . . . . . . . . . . . . o o o o o . . . . @ @ @ @ @ + . . . . . . . . . . . . o o o 2 6 6 6 6 6 2 2 = # o + . . . . . . . . . . . . . . . . . . . . . . . . - k o.n.(.[.(.T.>.U _ ) &.) ( Q ) $.@.^ ' ^ ~ ~ ~ ' ! C C N M M z C ) %.O.o.:.t.T._.Q.R.R.E.n.t.0.l.l.! 9 % o : h C / Q _ ( o.4.O.N o . . . . . . . . . 9 &.[.!.!.!.`.~.`. X X&X`.!.!.T.M.=.t . . . . . . . . . @ @ @ o o o o o @ . . . . . . . . . + # = t y h l z l g l d w 0 w q e e s s H U w.R.`.*X*X-X-X-X-X-X-X-X-X-X-X-X-X-X2X-X*X*X&X&X&X X`.!.Q.Y.y.t.4.( Q W ! M = . . > C / $.$.' l X . %                                                                                                                                                                                                                                                                                                                 ",
"                                                                                                                                              . X + o + . . . . . . . . . . . . . . . . . . . . @ @ @ o + . . . . . . . . . . . . . + o # 2 5 5 6 6 2 1 # # o . . . . . . . . . . . . . . . . . . . . . . . . . . X i ^ 9.m.(.(.E.,.U 5.4.4.O._ ) ) $.*.$.^ ^ ^ ~ ~ ' ~ ! N z z N E ^ %.%.o.X.>.y.Q._._.R.E.y.v.c.4.&.-.l o X X > M ~ o.O._ ( O.:.) x X . . . . . . . . . % q +.:.p.Y.!.~.~.!.[.[.[.!.R.E.z.*.9 . . . . . . . . . + @ + @ o o o o @ . . . . . . . . . . + + = > t g y i 9 i 9 9 w w e k P _ :.r.U.!.&X,X-X*X-X-X-X-X2X2X2X1X-X*X*X-X1X2X-X*X X`.`.`.`.`.!.!.Y.p.p.t.>.4.O.^ N > . . & l ~ $.*.$.C o . %                                                                                                                                                                                                                                                                                                                 ",
"                                                                                                                                                        . . . . . . . . . . . . X . . . . . + o o @ . . . . . . . . . . . . . . . . o # 2 6 6 6 6 2 1 # o + . . . . . . . . . . . . . . . . . . . . . . . . . . . . + , w H r.p.p.w.<.U.T.E.t.,.4.&.%.%.$.^ ^ ^ ' ^ ^ ^ E x c x E ^ $.&.4.:.:.<.t.(.[._.U.y.w.r.q.%.E N 3 X X * d ~ %.%.4.O._ O.O.L y X . . . . . . . . . . X w H r.U.R.W.W.W.!.~.W.R.R.m.z.%.y . . . . . . . . . . + + @ o o o o @ . . . . . . . . . X . . + o = > > * & - 8 w q s H U 8.y.E.R.!.~. X1X2X-X-X-X-X2X2X2X2X1X-X*X*X-X1X2X1X&X~.!.~.`.!.!.Y.R.Y.p.p.u.8.8.4.) x > . . X 9 E $.*.$.~ & . o                                                                                                                                                                                                                                                                                                                 ",
"                                                                                                                                                        o . . . . X . . . . . . . . . . . . . @ @ @ . . . . . . . . . . . . . . . o 2 2 2 6 6 6 2 # o + . . . . . . . . . . . . . . . . . . . . . . . . . . . . . . . X X 0 5.t.,.<.u.Y.!.[.!.E.n.t.4.%.o.) ^ ^ $.' ^ ^ E x c J ^ %.&.4.4.8.5.<.,.U.R.E.u.,.w.0.6.W z 9 o . X 9 c ^ %.4.>.4.:._ ( k 9 X . . . . . . . . . . X % w ( 8.y.Z.Q.Q.!.!.R.T.T.m.M.k.g X . . . . . . . . . + + @ o o @ o @ . . . . . . . . . X . . . X X o o X % * 8 w c P X.r.p.Y.Y.Y.Y.W.W.*X1X*X*X-X-X-X2X2X2X1X-X*X*X*X-X1X*X XY.Y._.'./.y.t.t.c.t.y.8.4.4.O.o.C > . . X > z ^ $.*.' = . o                                                                                                                                                                                                                                                                                                                 ",
"                                                                                                                                                        o . . . . . . . X X . . . . . . X . . . . . . . . . . . . . . . . . . . . # 2 6 6 6 2 1 # o . . . X . . . . . . . . . . . . . . . . . . . . . . . . . . . . . . X , k ( a. .u.S.Y.!.!.!.T.n.8.O.O.o.) ) $.^ ^ [ / W L ) %.%.7.4.4.0.5.:.,.8.r.r.,.>.4.4.^ j i + . . % c L P O.4.>.4.:.O.O.x * . . . . . . . . . . . . . X w H :.u.T.T.R.T.T.U.E.m.m.k.d X . . . . . . . . . . . @ o o o . . . . . . . . . . . . . . . X X X X X * w j J O.4.8.u.e.S.Y.S.S.D.D.F.`.*X*X*X-X-X1X1X1X-X*X&X*X&X&X<X>X'.r.U P E c q q j k H L Q ) &.o.@.! = . . . f l E ' *.@.> X &                                                                                                                                                                                                                                                                                                                 ",
"                                                                                                                                                        + . . . . . . . . X . . . X . . . . . . . . . . . . . . . . . . . . . . . 2 2 2 2 2 2 = # + . . X . . . . . . . . . . . . . . . . . . . . . . . . . . . . . . . . . & p ( 4.u.U.!.!.`.[.Q.U.q.4.%.%.o.o.) ) o.o.o.o.o.&.&.4.4.4.4.q.5.:.,.,.:.,.>.5.4.Q j - & X . & y E ) ) :.>.>.>.4.%.=.x X . . . . . . . . . . . . . . . * k O.q.m.n.E.n.n.v.n.v.=.y X . . . . . . . . . $ $ . $ $ $ $ . . . . . . . . . . . . . X X X X % 9 v W ( O.4.5.w.u.e.S.Y.S.D.D.D.D.F.~.~.*X-X-X-X-X-X-X*X`.!.(.N.x.*.C 0 & % X X X X X X % & , 9 q j N M o . . . t l C ^ *.@.t X *                                                                                                                                                                                                                                                                                                                 ",
"                                                                                                                                                        . . . . . . . . . . . . . . . . . . . . . X . . . . . . . . . . . . . . o 2 2 2 1 = # o + . . . . . . . . . . . . . . . . . . . . . . . . . . . . . . . . . . . . . . X l %.8.U.R.Q.!.!.Q.U.t.0.4.4.O.o.o.o.o.O.O.O.&.6.4.4.4.4.8.r.8.>.<.<.:.>.8.q.0.Q 8 X X . & l [ $.%.4.4.>.,.8.6.%.*.g . . . . . . . . . . . . . . . . . % 9 j Q O.4.5.r.v.v.l.%.y X . . . . . . . . . $ o $ $ o o $ . . . . . . . . . . . . X X X & , y E %.6.5.5.8.8.u.3.3.S.S.D.D.S.S.S.D.D.W. X-X*X*X*X*X&X&XT._ v y & . . . . . . . . . . . . . . . . X & : . . . . t h z ~ *.@.d X -                                                                                                                                                                                                                                                                                                                 ",
"                                                                                                                                                        . . . . . . . . . . . . . . . . . X . . . + o   . . . . . . . . . . . + # 2 2 = # o + . . . . . . . . . . . . . . . . . . . . . . . . . . . . . . . . . . . . . . . . . = c O.q.t.U.Q.Y.Y.S.y.y.q.8.8.8.8.4.:.:.4.4.8.q.8.5.9.8.8.t.t.5.<.<.>.8.t.t.l.$.l & X . 9 E $.=.7.4.8.8.8.t.l.$.C > . . . . . . . . . . . . . . . . . . . X ; w k W %.z.z.-.' y X . X . . . . . . . + o . . $ o . . . . . . . . . . . . . X % & 9 c W %.5.r.r.w.w.u.u.3.3.e.Z.Z.S.S.S.S.D.D.W.}.*X*X*X&X>X;X(.Q * o X . . . . . . . . . . . . . . . . . . . . . . . . > u d N @.@.d X -                                                                                                                                                                                                                                                                                                                 ",
"                                                                                                                                                        . . . . . . . . . . . . . o o                       X . . . . X . . # # = 6 2 + . . . . . X . . . . . . . . . . . . . . . . . . . . . . . . . . . . . . . . . . . . . . . % w k +.t.E.S.S.S.S.p.y.t.t.t.y.v.n.n.n.n.n.c.q.8.8.8.q.t.t.8.8.8.w.t.c.q.&.^ N y - * R ) &.6.6.8.c.t.r.c.M.=.V o . . . . . . . . . . . . . . . . . . . . . X & y l ! ~ N l - . . X . . . . . . . o . . . o o . . . . . . . . . . . . . * 9 q x Q %.4.r.r.r.w.w.w.u.3.3.e.e.Z.S.S.S.S.S.D.W.~.`.`.`.(.c.9.E * . . . . . . . . . . . . . . . . . . . . . . . . . . . o * 9 l ! @.y X &                                                                                                                                                                                                                                                                                                                 ",
"                                                                                                                                                          . . . . . + o X X X                               . . . . . . . + 2 2 # = # . . . . . . . . . . . . . . . . . . . . . . . . . . . . . . . . . . . . . . . . . . . . . . . X w o.z.t.t.y.p.S.S.y.y.r.u.y.y.U.E.R.(.(.n.t.q.q.q.r.t.t.t.t.y.y.y.t.4.L L C l 0 j ) $.&.4.5.0.t.r.r.c.c.-.M . . . . . . . . . . . . . . . . . . . . . . . . + o = 3 : & X . . . . . . . . . . . . . . o o . . . . . . . . . . . . X 0 l J W ) %.4.r.t.r.u.u.u.u.3.3.3.e.e.e.Z.S.S.S.S.Y.Y.U.t.+.L w - X . . . . . . . . . . . . . + . . . . . . . . . . . . . . . X - g Z ! t X %                                                                                                                                                                                                                                                                                                                 ",
"                                                                                                                                                            . . . . =                                       X . . . . . . + # # + + . . . . . . . . . . . . . . . +     o . . . . . . . . . . . . . . . . . . . . . . . . . . . . . . & x o.O.q.r.y.n.y.y.n.y.e.y.u.S.Y.!.[.(.E.t.q.r.r.t.t.t.t.n.U.U.U.t.+.c x ! g 0 x ^ ) O.O.4.0.q.8.8.c.9.@.t . . . . . . . . . . . . . . . . . . . . . . . . . . . . . . . . . . . . . . . . . . . . . o o . . . . . . . . . . . X - l E Q ) ( o.:.,.w.u.u.u.u.e.3.e.e.e.e.e.S.S.S.p.y.r.r.>.k * X X X . . . . . . X o o o # # # = = # o . . . . . . . . . . . . . . = t h f > X X                                                                                                                                                                                                                                                                                                                 ",
"                                                                                                                                                                                                            + X . . . . . + . X . . . . . . . . . . . . + o                   . . . . . . . . . . . . . . . . . . . . . . . . . . . . X & - c _ :.t.t.y.n.U.U.S.R.R.Q._._._.R.E.t.r.t.r.t.t.t.y.U.U.U.T.n.4.W ~ ! z l E Q ) _ O.4.0.q.8.q.t.9.@.3 . . . . . . . . . . . . . . . . . . . . . . . . . . . . . . . . . . . . . . . . . . . . . o o . . . . . . . . . . . X 9 z E Q ( P ( _ ( :.,.w.u.u.u.u.e.e.e.e.p.p.y.t.8.4.o.E c * X X . . . . . . . # = - > 3 t u 4 4 u 4 3 : . . . . . . . . . . . . . o = : = o X X                                                                                                                                                                                                                                                                                                                 ",
"                                                                                                                                                                                                              + . . . . . . . . . . . . . . . . + o                           . . . . . . . . . . . . . . . + . o o . . . . . . . . . . . . - k P >.8.r.u.y.U.R.&X<X<X<X`.!.Y.y.r.r.r.q.r.r.r.y.U.U.U.r.t.8.o.E C C E W ( _ _ O.4.8.q.8.8.%.^ M # . . . . . . . . . . . . . . . . . . . . . . . . . . . . . . . . . . . . . . . . . . . . . $ . . . . . . . . . . . . o 0 x J L P U _ ( P X.<.8.w.r.u.u.u.y.y.u.u.2.X.+.( k w * % o . X X + X . + + = 3 i g g g z A h u f h f 4 : X . . . . . . . . . . . . X X + X X X                                                                                                                                                                                                                                                                                                                 ",
"                                                                                                                                                                                                              + . . . . . . . . . . . . . . . +                             # . . . . . . . . . . . X . . + + + o $ $ . . . . . . . . . . . . & w P 4.5.u.e.U.!.<X,X,X<X`.!.Y.t.w.r.r.0.0.8.r.y.U.E.n.>.:.&.^ j j N E Q ) _ _ X.O.4.8.0.9.^ z = . . . . . . . . . . . . . . . . . . . . . . . . . . . . . . . . . . . . . . . . . . . . . . . . . . . . . . . . . . . & y x J J P U ( U U X.:.8.r.u.w.r.t.y.y.r.8.X.P L j & X . . . . . + & & & > t y d x E E N N ~ C l M h g t 3 o + . . . . . . . . . . . . . . X X X                                                                                                                                                                                                                                                                                                                 ",
"                                                                                                                                                                                                              # . . . . . . . . . . . o X                                   . . . . . . . . . . . . X . + + + + o o . . . . . . . . . . . . . . X w L +.r.e.p.Y.&X*X X!.!.!.E.y.r.r.r.0.8.8.r.t.t.y.t.4.( J q 9 d E ^ ) O.O.o.o.o.O.%.O.o.C > . . . . . . . . . . . . . . . . . . . . . . . . . . . . . . . . . . . . . . . . . . . . . . . . . . . . . . . . . . . X 9 l x x H I P P U U _ :.r.t.r.w.r.t.t.t.5.o.Q x y * . . . . . . o & * 8 0 j x c x W ^ ) ^ / ^ / E l d d 0 > : o o . . . . . . . . . . . . . X X X                                                                                                                                                                                                                                                                                                                 ",
"                                                                                                                                                                                                              + . . . . . . . . + +                                       o . . . . . . . . . . . . + o o o o o o o . . . . . . . . . . . . . . . X 9 W 9.t.u.S. X,X XW.].[.U.U.u.r.r.0.5.5.5.r.t.8.8.4.c w 8 q c E ^ o.%.O.o.o.o.( Q W c i o . . . . . . . . . . . . . . . . . . . . . . . . . . . . . . . . . . . . . . . . . . . . . . . . . . . . . . . . . . X & d l x J K I I P U U U :.,.r.r.8.q.9.4.&.( k q > & X . . . X . . = i 9 j x J E J W ( ) $.o.$.%.^ W x z z 0 9 > & = + . . . . . . . . . . . . X X %                                                                                                                                                                                                                                                                                                                 ",
"                                                                                                                                                                                                              + . . . . . X . o                                           + . . . . . . . . . . . o o o o o o o o $ . . . . . . . . . . . . . . . . X h @.O.<.e.`.*X`.[. X].E.E.v.r.w.8.5.4.>.:.,.4.&.) q - 9 q c E ) $.$.o.o.) o.) E N 9 X . . . . . . . . . . . . . . . . . . . . . . . . . . . . . . . . . . . . . . . X . . . . . . . . . . . . . . . . . . . X > M x x J J I I I P U _ X.,.8.8.q.9.o.Q c 9 * X X . . . . . . . . > M l v R ^ Q Q ( ) o.o.O.O.%.o.) E c c q y t > > # . . . . . . . . . . . . X &                                                                                                                                                                                                                                                                                                                   ",
"                                                                                                                                                                                                                . . . X . .                                             + . . . . . . . . . . . o # # # # o o o o $ . o . . . . . . . . . . . . . . . = 0 x a.u.~. X X&X`._.E.T.T.r.>.5.>.:.>.>.8.4.%.x * * 0 d c W $.$.$.o.^ W L E x 9 X . . . . . . . . . . . . . . . . . . . . . . . . . . . . . . . . . . . . . . X . . . . . . . . . . . . . . . . . . . . . & l ! E x k H K I I I U X.X.>.4.o.%.*.E 0 & X . . . . . . . . . . X i V C J J O._ o.O.O.+.+.O.O.+.o.o.Q E c j y y u 4 : o . . . . . . . . . . X &                                                                                                                                                                                                                                                                                                                     ",
"                                                                                                                                                                                                                                                                      o . . . . . . . . . . . o # = : # # o o $ . . . $ $ . . . . . . . . . . . . . . . X , I t.Q.`. X&X!.Z.Z.T.T.w.<.<.:.>.5.5.q.4.) j * : > j x W $.$.^ / E v 9 9 , X . . . . . . . . . . . . . . . . . . . . . . . . . . . . . . . . . . . . . . . . . . . . . . . . . . . . . . . . . . . . . > N E E J c k H I L P ( _ ) O.%.Q z 0 * X . . . . . . . . . . . . o y N / Q Q O.:.:.+.O.O.+.O.+.+.o.%.) E L j y y g f 4 # . . . . . . . . . . &                                                                                                                                                                                                                                                                                                                       ",
"                                                                                                                                                                                                                                                                      + . . . . . . . . . + # # : : : = # # o o . . . $ $ . . . . . . . . . . . . . . . . X j 9.m.E._.].R.S.y.y.u.w.,.<.<.8.0.8.l.6.R - - > 9 l N E ^ ^ E x c y > o X . . . . . . . . . . . . . . . . . . . . . . . . . . . . . . . . . . . . . . . . . . . . . . . . . . . . . . . . . . . . . . = l E E J J H J L W Q ) Q Q E E d & . . . . . . . . . . . . . X + > y E ^ Q _ O.O.>.:.:.>.>.:.+.O.O.O.) W x j l M g g 4 # . . . . . . . . . .                                                                                                                                                                                                                                                                                                                         ",
"                                                                                                                                                                                                                                                                    o . . . . . . . . + o o : 2 : : : = # o o o o $ . o . . . . . . . . . . . . . . . . . . % c L o.m.(.T.U.e.3.1.,.<.,.w.r.c.c.l.$.z 9 - t y c c N ~ E z d 0 > * X . . . . . . . . . . . . . . . . . . . . . . . . . . . . . . . . . . . . . . . . . . . . . . . . . . . . . . . . . . . . . . . o d E L L L W W W E / E x l 0 * X . . . . . . . . . . . X X . + = > 0 ! ) ( ( O.:.>.:.4.>.4.>.:.:.+.&.o.W L j j M M h 4 = . . . . . . . . . o                                                                                                                                                                                                                                                                                                                         ",
"                                                                                                                                                                                                                                                                    o . . . . . . . . o # # 2 2 : : = # # o o o $ $ $ $ . . . . . . . . . . . . . . . . . . + % ; w J 4.t.n.3.3.3.3.3.u.v.t.v.z.&.x w - 9 d d x c j z j y 0 > * o . . . . . . . . . . . . . . . . . . . . . . . . . . . . . . . . . . . . . . . . . . . . . . . . . . . . . . . . . . . . . . . . + , j x W W W Q W J x 0 * & X . . . . . . . . . . . . . . + o = > t g / ) _ o.:.4.4.4.8.8.8.4.:.4.:.O.o.) Q x x z z h f : . . . . . . . . . =                                                                                                                                                                                                                                                                                                                         ",
"                                                                                                                                                                                                                                                                  o . . . . . . . . + # 2 2 2 : : : = # # o o o $ $ $ . . . . . . . . . . . . . . . . . . . X X + X X w P <.u.e.Z.S.S.S.U.t.c.l.Q w ; , y l c x c 0 0 d g t > = = o . . . . . . . . . . . . . . . . . . . . . . . . . . . . . . . . . . . . . . . . . . . . . . . . . . . . . . . . . X . . . . . . & - y E E R / E x 0 X . . . . . . . . . . . . . . . o o = > > t y z E ) o.4.4.8.q.q.t.8.8.>.>.4.4.4.O.O.o.W E C z l g : o . . . . . . . .                                                                                                                                                                                                                                                                                                                           ",
"                                                                                                                                                                                                                                                                  . . . . . . . . . + # 2 2 2 2 : : = # # o o o $ $ $ . . . . . . . . . . . . . . . . . . . . X . X X ; 8 K ,.S.D.Y.Y.E.U.c.6.^ p 8 % * y x E E x d 9 > > t : o = # . . . . . . . . . . . . . . . . . . . . . . . . . . . . . . . . . . . . . . . . . . . . . . . . . . . . . . . . . . . . . . . . . X - q z l C N y * . . . . . . . . . . . + o o o o : > > t i t y V E ) &.8.q.t.t.t.q.8.4.>.>.4.5.4.4.&.o.Q W C x z d : o . . . . . . . X                                                                                                                                                                                                                                                                                                                           ",
"                                                                                                                                                                                                                                                                . . . . . . . . . + o = 2 3 2 = : : # o o $ o o $ o o $ o . . . . . . . . . . . . . . . . . . . . . . X w Q <.y.Y.Y.U.U.c.9.W y & % * w c x E E E N i % & & + o # o . . . . . . . . . . . . . . . . . . . . . . . . . . . . . . . . . . . . . . . . . . . . . . . . . . . . . . . . . . . . . . . . . X o & > = g f = o . . . . . . . . . . . & > > > > 3 t i u y y y p x ) 4.8.q.t.t.t.t.8.8.>.>.4.5.8.4.4.O.) ^ E x l t > o . . . . . . .                                                                                                                                                                                                                                                                                                                             ",
"                                                                                                                                                                                                                                                                . . . . . . . . . + o = 2 2 : 3 : : # o o $ o o o o o o o o o o . . . . . . . . . . . . . . . . . X . X y [ 4.y.p.y.U.t.4.=.j 9 - , j j R E N x N N t = o X . X . . . . . . . . . . . . . . . . . . . . . . . . . . . . . . . . . . . . . . . . . . . . . X . X . . . . . . . . . . . . . . . . . . . . . + . . o o . . . . . . . . . . . . . * i d t y d l g l g y y w j ) 4.r.r.r.r.t.t.r.q.5.8.5.8.5.4.4.O.O.) Q E c t : o . . . . . . +                                                                                                                                                                                                                                                                                                                             ",
"                                                                                                                                                                                                                                                                . . . . . . . . . + o # = : : 3 : : # o $ $ o o o o o o o o o o o $ . . . . . . . . . . . . . . . . . . = l $.0.:.O.q.6.$.' y - & i N N ~ ! N z l y > # + . . . . . . . . . . . . . . . . . . . . . . . . . . . . . . . . . . . . . o o o . + + o . . . . . . . . . . . . . . . . . . . . . . . . . . . . . . . . . . . . . . . . . . . . . . > y l j z p z l l l l y q e ) 8.r.r.r.r.t.t.t.t.8.8.8.8.8.>.>.:.+.o.) E N d : + . . . . . .                                                                                                                                                                                                                                                                                                                               ",
"                                                                                                                                                                                                                                                              o . . . . . . . . . + o o o = = = = = # o $ $ . + o o o o # # o o o o o o + . . X X X . . . . . . . . . . . X l ^ R W $.E E j - * : g Z ! ! Z M g > = o . . . . . . . . . . . . . . . . . . . . . . . . . . . . . . . . . . . . . o #                           o . $ o o $ o o o + . . . . . . . . . . . . . . . . . . . . . . . . . . . . . X y y z j j p l z v l p y y q / 6.r.t.r.r.t.t.t.t.r.8.2.2.>.<.>.>.O.&.&.) E x t o . . . . . X                                                                                                                                                                                                                                                                                                                               ",
"                                                                                                                                                                                                                                                              + . . . . . . . . + o # o o & & = = = # o + + + o o o o # # # o o o o o + o + . . X X . . . . . . . . . . . . o u l l l i > & . X : f N ! Z h > = o X . . . . . . . . . . . . . . . . . . . . . . . . . . . . . . . . . . . . .                                                     X o . . . . . . . . . . . . . . . . . . . . . . . . . . . % C N E x p j p v v l l y y y E 4.r.y.y.u.u.u.y.y.y.t.2.2.2.,.<.<.:.4.7.%.) / N t o . . . X >                                                                                                                                                                                                                                                                                                                               ",
"                                                                                                                                                                                                                                                            = + . . . . . . . . o # # # o & * - = = o o + o + o o o o # = = # o o o o o o o o + . . . . . . . . . . . . . . . o = = = # X . . . # 5 n Z Z t = X . . . . . . . . . . . . . . . . . . . . . . . . . . . . . o o o o o                                                                       + . . . . . . . . . . . . . . . . . . . . . . . . X C ^ $.E x j p v x l z l y p J O.r.v.n.y.u.t.e.y.y.t.w.2.8.8.8.8.8.8.5.4.%.) ! N > X . . o t                                                                                                                                                                                                                                                                                                                               ",
"                                                                                                                                                                                                                                                            # + . . . . . . . o o # # # & & = = = & o o o o o o # # # = = = = o o o o o o o # o o . . . . . . . . . . . . . . X X . . X . . . . . # 3 u u o . . . . . . . . . . . . . . . . . . . . o                                                                                                         o X . . . . . . . . . . . . . . . . . . . . . . z @.[ ^ E x v v x x l x p p J ) 8.t.y.n.y.t.t.p.e.u.r.w.w.u.e.w.u.r.8.>.4.O.^ ! l > o . % >                                                                                                                                                                                                                                                                                                                               ",
"                                                                                                                                                                                                                                                          = # . . . . . . . o o # # = = = = = = & & o o + + o o # # # = = = = # # o o o o # # # # # o o . X . . . . . . . . . . . . . . . . . . . . . + . . . . . . . . . . . . . . o                                                                                                                           o . . . . . . . . . . . . . . . . . . . . . X h / ^ -.^ x x x c x N x v k p W 4.r.v.U.y.w.w.y.e.y.p.p.y.e.u.e.e.r.r.8.8.4.%.@.! z y & & -                                                                                                                                                                                                                                                                                                                               ",
"                                                                                                                                                                                                                                                          . . . . . . . . . . o # # = = = = = = = & o o o o o o # = = = = = = # # o o o # # # # # o o o + . . . . . . . . . . . . . . . . . . . . . . . . . . . . . . . . . . o                                                                                                                                   X X . . . . . . . . . . . . . . . . . . . . 0 z ^ -.[ W W R x x E x c j e H o.0.v.n.y.t.u.y.e.S.U.U.S.S.U.U.Y.Y.E.p.t.8.4.&.$.E l 9 * 8                                                                                                                                                                                                                                                                                                                               ",
"                                                                                                                                                                                                                                                        o . . . . . . . . . . . # # = = - - > = : = = o + o . o # = = = = = = = # o o o # # # # # # # # o . . . . . . . . . . . . . . . . . . . . . . . . . . . . . . . . o                                                                                                                                         # + . . . . . . . . . . . . . . . . . . . & 0 ! ^ [ ^ ^ W L c J c k e w e J %.c.m.t.y.y.y.e.S.Y.U.Y.Y.!.`. X[.!.!.Y.U.t.5.7.Q J c w 8                                                                                                                                                                                                                                                                                                                               ",
"                                                                                                                                                                                                                                                      o . . . . . . . . . . . . + o # = = : : = = o = o o . . o # = = = = - = = # o o o o # # # # # # = # o . . . . . . . . . . . . . . . . . . . . . . . . . . . . . .                                                                                                                                               o . . . . . . . . . . . . . . . . . . . & i N R ^ ) ) W J J J x c s w q x Q 6.q.8.y.y.S.S.S.Y.Y.Y.Y.~. X&X*X`. X`.[.T.v.c.6.%.) p * y                                                                                                                                                                                                                                                                                                                             ",
"                                                                                                                                                                                                                                                    . . . . . . . . . . + + + . + + + o = = = = o o o o o o + o # = = = = - = = # o o o o # # # # # # = # o . . . . . . . . . . . . . . . . . . . . . . . . . . . . .                                                                                                                                                   + + o o o o . . . . . . . . . . . . . & f h l / ^ ) Q E L L J x j q q q c Q 7.0.t.y.y.y.S.Y.~.`.!.~.`.*X*X*X*X*X&X].E.v.r.0.%.H w 0                                                                                                                                                                                                                                                                                                                             ",
"                                                                                                                                                                                                                                                  = . . . . . . . . o o o o o o + . X + o & & o o o o o o o o # = = = - - = = = # # o o = = # # # # # # # o $ . . . . . . . . . . . . . . . . . . . . . . . . . . .                                                                                                                                                               # o o . . . . . . . . . . . X : 0 0 E ^ ) ) ^ W E L J k e w 8 q s H O.8.r.y.S.Y.W.~. X`.~.`.`.*X*X*X*X*X`.!.T.U.v.5.O.c 9 0                                                                                                                                                                                                                                                                                                                           ",
"                                                                                                                                                                                                                                              # . . . . . . . X X + o = & * o o X X X X X + o o o o o o o o # = = : = : : = = = : o & * * = = # # # o o o o @ + . . . . . . . . . . . . . . . . . . . . . . . . . +                                                                                                                                                                   # o . . . . . . . . . . . o > 0 N ' ^ o.) ) Q Q W L c q * * w w r ( 5.y.Y.~.W.~. X X~.~.~.*X*X X*X*X`.`.Q.E.T.v.6.W 8 , 3                                                                                                                                                                                                                                                                                                                         ",
"                                                                                                                                                                                                                                            o + . . . . . . X o o o & > > > > & X X X X X . X X . . . o o o o # = : = = : = = & & & * = = : = # # # o o o o o + . . . . . . . . . . . . . . . . . . . . . . . .                                                                                                                                                                         # + . . . . . . . . . . . * 9 y E E ^ %.o.) ) ( W x q * & * ; * w P t.Y.W.W.~. X*X X~.~.`.`.}. X*X X`.!.R.T.T.0.L 0 % % >                                                                                                                                                                                                                                                                                                                       ",
"                                                                                                                                                                                                                                        # o . . . . . . . . X o = : : 3 3 > > : & X X X X . X . . . . . + o o o o : = = : = = o & : = = = : = # # o o $ . . + . . . . . . . . . . . . . . . . . . . . . o o                                                                                                                                                                             # . . . . . . . . . . X . X X & l E E =.%.O.o._ Q L z 0 , * & % ; e :.U.Y.~.~.}.*X X~.D.F.~.~.~.`.Q.Y.E.w.>.c.o.k d * X X &                                                                                                                                                                                                                                                                                                                     ",
"                                                                                                                                                                                                                                      # o . . . . . . . . . o = : > 4 4 3 t u 3 = & o X . . . . . . . . . o o o # = = = = = = o & & : = = : : # # o o . . . . . . . . . . . . . . . . . . . . . o o o                                                                                                                                                                                     + . . . . . . . . . . . . . % d x x %.7.&.%.O.) Q E V d 0 * 8 ; e U w.S.W.~.}. X*X XD.D.D.!.Y.T.w._ I I G L ^ ^ C h , X X 3 h                                     p t t 9 - : - & % X X X >                                                                                                                                                                                                                                                   ",
"                                                                                                                                                                                                                                    # o . . . . . . . . . + o = : 3 t 0 0 d d 0 9 > = o X . . . . . . . . . . . o # = = = = = & & : : > > : : # # o . . . . . . . . . . . . . . . . . . . . $                                                                                                                                                                                             + . . . . . . . . . . . . X X > 9 j ^ %.7.4.4.&.$.^ ! l y 9 w w k U ,.u.Z.W.}. X*X X`.Y.y.y.8.>.P G r s k s Q o.W x q , & o = >                     y y j j j y w 8 8 * ; % ; 8 * % % % & 0 N                                                                                                                                                                                                                                                 ",
"                                                                                                                                                                                                                                  = o . . . . . . . . . . + o : > > t t t y 0 0 y 9 > & o + . . . . . . . . . . + o o # = = = = : : : > > : : = o o . . . . . . . . . . . . . . . . . . .                                                                                                                                                                                                   . . . . . . . . . . . . . . X % 0 J o.&.4.8.6.%.$.! l y q w s I _ :.,.u.Z.W.`.~.W.Y.y.t.5.X.I k s e e s s _ _ ) %.) x y 3 = > n           p 0 9 p p k x R ^ ^ [ [ $.) / Q W ) ) W W J x v v V                                                                                                                                                                                                                                               ",
"                                                                                                                                                                                                                                o + . . . . . . X . . . . + o > 0 > 0 t d q q q d i > & : > # o . . . . . . . . . . + o # o o # o = : : : = & = o o . . . . . . . . . . . . . . . + o                                                                                                                                                                                                       . . . . . . . . . . . . . . . X , j W ( &.q.6.=.$.E x c k s H P X.:.,.1.3.Z.D.S.3.,.4.4.( H s s r G P O.8.t.r.r.c.c.k.` l > : > = & X - 9 k W $.l.c.M.N.^.^.).oXoX'.(.(.(././.^.E.m.m.v.6.E y 9 t                                                                                                                                                                                                                                           ",
"                                                                                                                                                                                                                                o X . . . . . . . . . . . + o > t t 3 t 0 d d 0 q y t t z M f > = X . . . . . . . . . . + o o o o & & & = & & & o . . . . . . . . . . . . o +                                                                                                                                                                                                                 . . . . . . . . . . . . . . X % 8 c W &.9.9.6.%./ E x H H K I X.4.,.,.,.u.y.y.:.P P K e r r r K 8.E._. X`.[.'.R.m.l.-.V # . . . . . X j k.N.).oX;X;X;X>X<X<X<X>X]. X X X].].].].[.[.(.N.k.E 9 & 9                                                                                                                                                                                                                                         ",
"                                                                                                                                                                                                                                o . . . . . . . . . . . . o o > 0 0 0 0 , 0 d q q j j x ' @.N y 9 , * % o o + . . . . . . . X o o o & & & & & o o . . . . . . . . . . +                                                                                                                                                                                                                       o . . . . . . . . . . . . . . X * q L O.&.9.=.$./ ^ J L P P P ( :.8.5.8.w.t.8._ H e 8 * w H <.U. X>X<X1X,X X X_.T.z.) p & X X X % * p O.^.'.oX>X<X<X>X>X>X<X,X>X X X&X X X X X X&X$X'.).N.k.~ f > ,                                                                                                                                                                                                                                       ",
"                                                                                                                                                                                                                                + . . . . . . . . . . . . o o > 0 > 9 0 9 9 w j q c J E $.*.E c q d 0 * - = = o . . . . . . . + o o o o o o o o o . . . . . . . . .                                                                                                                                                                                                                             o . . . . . . . . . . . . . . X 9 c ^ $.=.o.^ ^ o.P P P P P P o.&.:.4.>.q.4.W q w w w K u.].>X1X1X1X2X1X*X X[.T.q.) p 9 , , 0 c Q 0.^.[.'.>X<X<X<X<X<X>X,X1X,X&X*X*X&X*X X X X&X].'.(.N.x.*.M > % %                                                                                                                                                                                                                                     ",
"                                                                                                                                                                                                                                X . . . . . . . . . . . . o = t 0 9 0 0 w w q x j c Q ) $.$.$.E x N y 9 t > : o + . . . . . . . . . o o o o + X . . . . . . . . .                                                                                                                                                                                                                                 X . . . . . . . . . . . . . X > l E / ^ ^ ^ ^ o.( Q Q K K W ) ) o.4.) ) W v 8 w P <.R.].*X*X*X1X1X1X1X1X<X_.v.:.L x c x E %.l.^.'.].]. X<X2X3X3X3X2X2X2X2X1X1X1X1X,X,X*X&X].].[.).^.c.k.@.M > X X ,                                                                                                                                                                                                                                   ",
"                                                                                                                                                                                                                              = . . . . . . . . . . . . . X o , 9 y d y d j j x x J W W $.) ) Q W E j * - > o X + + + . . . . . . . . . . . . . . . . . . . . .                                                                                                                                                                                                                                     X . . . . . . . . . . . . . o t d l E E / W Q Q P L L J W W E W J x j q e s ( v._.&X<X1X1X1X1X1X=X*X1X>X(.r._ Q J L %.c.^.'.oX;X>X<X1X2X3X3XiXiX3X3X2X2X2X2X1X1X1X1X,X&X`.[.R.m.0.o.%.~ h > X X %                                                                                                                                                                                                                                   ",
"                                                                                                                                                                                                                              # . . . . . . . . . . . . . X X * 9 j l j j c v x x L W W o.Q ( Q W x p 9 * * o + o o + . . . . . . . . . . . . . . . . . . . .                                                                                                                                                                                                                                       o + . . . . . . . . . . . . . o > 9 l c E L L Q W L L E W N l j 9 , * * q ) c.'.>X>X<X1X1X2X1X=X*X*X X(.5.I r G P O.c./.'.>X<X3X2X2X2XyXiXiXiXiXiXiX3X2X2X2X1X1X,X&X&X`._.R.c.6.) x x g 3 = X X X :                                                                                                                                                                                                                                 ",
"                                                                                                                                                                                                                                X . . . . . . . . . . . . X o 9 y j z j d x x x x L ^ W Q Q L L W c j 0 9 > & + o o o . . . . . . . . . . . . . . . . . .                                                                                                                                                                                                                                             # + . . . . . . . . . . . . + o & d z C W L W L W L L E j 9 * X X % w H :.n.].>X<X<X,X1X2X1X1X*X X_.E.0.Q k ( 5.t.T.[.>X1X3X3X3XyXiXiXiXiXiXiXiXiX3X2X2X,X<X&X&X`.[.R.U.r.%.W x y , = & + . . . o                                                                                                                                                                                                                                 ",
"                                                                                                                                                                                                                                X . . . . . . . . . . . . X X - l l c c c v k x x J L W W H J L L x j j y t = & o o + + . . . . . . . . . . . . . . o #                                                                                                                                                                                                                                                 # + . . . . . . . . . . . . . X : l C E E W L x x c z 0 * * & , w k U <.y.Y.Z.Z.S.W.[.].&X].!.R.v._ L k K 4.v.E._.].,X2X2X2XiXiXiXiXiXiXyXyX3X2X3X2X,X&X$X_.Q.T.n.r.4.W j 0 , = o + . . . . . .                                                                                                                                                                                                                                 ",
"                                                                                                                                                                                                                                o . . . . . . . . . . . . X & 9 y z x x R c j c x x J L J k k J c v l z l u > > # + . . . . . . . . . . . . . . . . #                                                                                                                                                                                                                                                     # o + . . . . . . . . . . . . X 3 g c x C x x c c q ; & * q L ( +.r.y.U.Y.Z.1.T Y Y _ O.O._ Q H w w s ) l.m./.[.&X1X2X2XyXiXiXyX3X3X3X2X2X,X,X<X$X'.Q.T.n.t.8.&.o.c 9 * & o + X . . . . . . . &                                                                                                                                                                                                                               ",
"                                                                                                                                                                                                                                # . . . . . . . . . . . . o - 9 w c E c c c q d j k c x c k k x j c x z l g y u = # + + . . . . . . . . . . . . . + #                                                                                                                                                                                                                                                       # o . . . . . . . . . . . . . o > y N N z x l 0 9 ; ; q W 9.n.U.R.!.!.~.~.D.3.U G e 8 * * ; w w H &.N.^.^.(.].,X1X2X2X2X2X2X2X,X&X&X&X].$X$X[.R.n.t.8.X.Q I k q - X X . . . . . . . . . . . &                                                                                                                                                                                                                               ",
"                                                                                                                                                                                                                                o + . . . . . . . . . . . = , 9 9 c x x j c q * 0 w q c c j c c j l l l z l h g t = o + . X . . . . . . . . . . . o                                                                                                                                                                                                                                                           # . . . . . . . . . . . . . . o u N z l l z y w w e H O.t.U.Y.!.`.~.`. X`._.y.P w & o * - w c l.^.).).(._.>X,X1X1X1X2X=X*X XW.!.!.!.R.R.R.m.8.+.P J q w q 8 & X . . . . . . . . . . . . . =                                                                                                                                                                                                                               ",
"                                                                                                                                                                                                                                  + . . . . . . . . . . X = - 9 9 j J L k e e & & % % - 9 0 y l l l j l z z z n u > o X . . . . . . . . . . . . . #                                                                                                                                                                                                                                                             + . . . . . . . . . . . . . + > u l g d l d w s P O.8.y.U.Y.~.`.`.`.`.~.[.E.&.c > o o * q ^ N.).)./.E.R.>X,X1X1X1X*X X~.Y.S.Z.e.e.u.t.q.4.P k d 9 * * & o X . . . . . . . . . . . . . . >                                                                                                                                                                                                                               ",
"                                                                                                                                                                                                                                  # . . . . . . . . . . . X X * 9 k c c x j w % & X X X o & 9 0 0 0 z z l N N M g - X X . . . . . . . . . . . o #                                                                                                                                                                                                                                                                 + . . . . . . . . . . . . . + : t > 9 , 9 d c ( :.8.y.S.Y.W.~.`.~.W.Y.R.T.6.v 9 , > y J 0.m./._.T.T.R.&X<X*X*X*X X`.~.!.R.U.y.r.8.4.o.Q j w - o X X X . . . . . . . . . . . . . . . +                                                                                                                                                                                                                                 ",
"                                                                                                                                                                                                                                    o . . . . . . . . . . X X & 9 v x x x c w * ; X X & X X - 9 - 9 z l l z z g t * + X . . . . . . . . . . . o                                                                                                                                                                                                                                                                   o . . . . . . . . . . . . . X o o o & X & d c ) O.,.p.U.Y.Y.W.~.~.W.!.E.r.W w 8 0 z E o.v././.(.E.R.!.`.&X X`.~.`. X`.[._.(.T.n.z.9.o.x 9 & & + . . . . . . . . . . . . . . . . . . X                                                                                                                                                                                                                                 ",
"                                                                                                                                                                                                                                    o . . . . . . . . . . . + & & 8 c x x c p q * % & & % % % - - 9 9 9 0 t t t t & o + . . . . . . . . . . . o                                                                                                                                                                                                                                                                     + . . . . . . . . . . . . X . . X X % - 9 q E Q X.t.p.S.Y.D.W.W.Y.R.n.4.H w , j ~ $.4.c.T.T.E.E.E.!.`.`.~.~.~.`.`.].].(.).N.z.&.^ N y > o X . . . . . . . . . . . . . . . . . . . +                                                                                                                                                                                                                                 ",
"                                                                                                                                                                                                                                      X . . . . . . . . . . . + o * y N E x x e w * , - - - & - - - * & * , , , = X X . . . . . . . . . . . . . o o                                                                                                                                                                                                                                                                 o . . . . . . . . . . . . . . . . . X X X - 9 s P :.2.w.S.S.S.Y.U.v.>.k w w 0 E *.&.6.r.t.y.U.T.E.R.!.!.!.!.[.[.].'.).T.M.6.Q x y > X + . . . . . . . . . . . . . . . . . . . . . o                                                                                                                                                                                                                                 ",
"                                                                                                                                                                                                                                        o . . . . . . . . . . . # = y ! / W / J c c y 0 9 9 , - - - & % X o & o . . . . . . . . . . . . . . . . o = >                                                                                                                                                                                                                                                                 o . . . . . . . . . . . . . . . . . . . X X * k P U X.2.r.8.r.t.:.I w ; * j $.=.7.4.5.8.r.y.n.Y.R.W.W.!.`.[.[._.(.M.9.^ j , * & X . X . . . . . . . . . . . . . . . . . . . . . o                                                                                                                                                                                                                                 ",
"                                                                                                                                                                                                                                          # . . . . . . . . . X = > y N E E / ^ / E x l l c y 0 9 - * - , * & X . . X . . . . X X o & : : & o o & = = =                                                                                                                                                                                                                                                               = + . . . . . . . . . . . . . . . . . . X X X * w k K P +.o.o.&.o.W j * 0 E o.O.4.4.4.8.r.u.y.Y.Q.!.!.!.`.[.(.m.z.$.x 9 % . . . . . . . . . . . . . . . . . . . . . . . . . . . o                                                                                                                                                                                                                                 ",
"                                                                                                                                                                                                                                            + . . . . . . . . . + > i l E R ^ ) ^ ^ W E E E x l j y 0 9 0 > , , & , * X X o & * , > t d d h h 0 0 , , - > :                                                                                                                                                                                                                                                             o . . . . . . . . . . . . . . . . . . . . X X % ; w e c j x E x x y * y / o.O.4.5.8.r.r.t.p.U.R.Y.Y.R.Q.T.c.%.x 0 * X . . . . . . . . . . . . . . . . . . . . . . . . . . . .                                                                                                                                                                                                                                   ",
"                                                                                                                                                                                                                                              . . . . . . . . . . o t z ! / ) ) o.) ( ( ( ) ^ ^ E E x c j d d l q q 0 , , > , 0 q d z x C ~ ^ / ! l y 9 - & &                                                                                                                                                                                                                                                             + + + . . . . . . . . . + = + . . . . . X X X X % - , > y 9 9 9 , 8 c ) %.4.r.r.r.r.r.u.y.y.e.e.e.u.,.( j 9 % . . . . . . . . . . . . . . . . . . . . . . . . . . . . . . o                                                                                                                                                                                                                                   ",
"                                                                                                                                                                                                                                                . . . . . . . . . . % i N ! $.Q ( ) _ O.O.O.%.$.) $.^ W E J c L x c c c l l q v c x ~ ^ ^ o.) o.$.' N 9 - - & = 3                                                                                                                                                                                                                                                           # o . . . . . . . . . + = 2 > - % X X X X X X + o o o * % % & > 0 x o.%.5.v.v.n.p.y.e.u.2.e.u.,.X.G w % X . . . . . . . . . . . . . . . . . . . . . . . . . . . . . . &                                                                                                                                                                                                                                     ",
"                                                                                                                                                                                                                                                + + . . . . . . . . . % g x ^ Q ( o._ O.:.4.4.4.%.6.&.O.O.) ( ( ( W W Q ^ ^ Q Q Q ^ Q ) o.o.O.&.6.6.%.E x y - - > 3                                                                                                                                                                                                                                                           2 @ . . . . . . . . + = u M g 9 - - * & & = = # + X X % X * 0 j W %.4.5.r.n.T.R.E.U.u.u.y.t.5.) k w & . . . . . . . . . . . . . . . . . . . . . . . . . . . . . + =                                                                                                                                                                                                                                       ",
"                                                                                                                                                                                                                                                  # X . . . . . . . . . = g N W ) ) ) o.:.4.4.4.4.5.4.4.4.4.:.:.:.O.%.6.6.6.6.6.0.5.4.4.8.5.8.v.v.v.c.l.6.$.E l 0 > =                                                                                                                                                                                                                                                           # . . . . . . . . . # u M V 0 9 i 9 9 - > > o . X o % % & * c o.6.0.r.t.T.R.R.R.E.n.n.v.8.%.W c 0 > . . . . . . . . . . . . . . . . . . . . . . . . . . . + #                                                                                                                                                                                                                                           ",
"                                                                                                                                                                                                                                                    + . . . . . . . . . X > d N ) ) ) o.4.4.5.5.5.5.5.5.5.5.5.5.5.0.z.v.v.v.v.m.m.m.m.m.m.m.m./.).).).^.m.l.k.=./ p - =                                                                                                                                                                                                                                                           o . . . . . . . . + u Z ! z N N M l y 0 0 > & * & - - - 8 c o.6.r.t.U.(.R.R.E.U.u.8.8.%.E y - % & . . . . . . . . . . . . . . . . . . . . . . . . . . =                                                                                                                                                                                                                                               ",
"                                                                                                                                                                                                                                                      X . . . . . . . . . X * l / ) ) O.4.5.5.5.5.r.r.r.r.r.r.r.r.r.v.v.v.v.E.T.T.T.^./.^./.).).oX'.'.'.(.E.m.c.h.~ l 3 =                                                                                                                                                                                                                                                         # . . . . . . . . . > M ! x ~ ^ ^ E E x j q 0 0 9 9 - * 9 L +.8.8.8.U.U.n.E.U.y.r.:.( x * X X . . . . . . . . . . . . . . . . . . . . . . . . . . +                                                                                                                                                                                                                                                   ",
"                                                                                                                                                                                                                                                        . . . . . . . . . . X , l W ) O.4.5.5.8.8.r.r.r.y.y.y.y.y.v.v.U.U.U.E.E.T.T.(.(.(.(.(.oXoX'.oX'.(./.E.z.6.-.` g > = 2                                                                                                                                                                                                                                                     # . . . . . . . . . = t z x ^ ^ Q Q ^ ^ L x c v z l y y v ^ 9.t.q.8.p.y.t.c.t.4.O.E q , % X X . . . . . . . . . . . . . . . . . . . . . . . . X o                                                                                                                                                                                                                                                     ",
"                                                                                                                                                                                                                                                          . . . . . . . . . . X , c ) O.4.4.8.8.8.r.r.y.v.v.U.E.E.E.E.E.R.E.E.E.E.R._.[._.(.(.'.[.'.'.[._.(./.v.l.6.-.! y = = =                                                                                                                                                                                                                                                     . . . . . . . . . o , 0 c ) o.Q Q o.&.O.( W Q / ! x c L +.q.t.t.t.w.8.8.4.O.^ x i * o + . . . . . . . . . . . . . . . . . . . . . . . . . +                                                                                                                                                                                                                                                         ",
"                                                                                                                                                                                                                                                            . . . . . . . . . . X 0 L ( o.O.4.8.q.r.r.y.y.S.U.E.E.R.R._.[.[._.R.T.(._._.(.(.^./.(._._.(._._.T.E.v.0.7.*.N > = # #                                                                                                                                                                                                                                                   . . . . . . . . . X X & 9 ^ o.%.O.O.4.O.O.o.%.%.) E J L +.q.t.t.t.>.U L e w 9 * o . . . . . . . . . . . . . . . . . . . . . . . . . . o                                                                                                                                                                                                                                                             ",
"                                                                                                                                                                                                                                                              . . . . . . . . . . % 0 s c ( 4.4.r.r.r.t.y.y.S.E.Y.Y.Q._.`.].].[._._.R.T.T.T.m.m.T.T.T.T.(./.E.E.v.r.6.=.^ l > o + +                                                                                                                                                                                                                                                 . . . . . . . . . . X X 8 E ) %.6.5.8.4.4.4.4.6.o.) o.o.4.4.4.9.5.o.k 9 = X . . . . . . . . . . . . . . . . . . . . . . . . . . . +                                                                                                                                                                                                                                                                 ",
"                                                                                                                                                                                                                                                                . . . . . . . . . X X & 9 c o.7.0.r.t.t.t.y.U.T.E.R.!.[.[.[.[.[.(.R.U.t.t.c.q.0.r.r.v.v.U.U.v.v.c.0.4.&.$.E g = + o                                                                                                                                                                                                                                                 + . . . . . . . . . X X * c ) %.5.8.8.9.5.4.8.0.6.&.%.&.9.O.&.&.o.x , X . . . . . . . . . . . . . . . . . . . . . . . . . . . +                                                                                                                                                                                                                                                                     ",
"                                                                                                                                                                                                                                                                  X . . . . . . . . . X X w c Q &.0.q.q.q.t.n.T.T.Q.(._.[.[._.R.T.E.v.8.5.6.6.4.4.>.5.5.5.0.0.r.q.5.4.4.&.$.Z t o o #                                                                                                                                                                                                                                                 . . . . . . . . . . X ; w E o.O.4.8.8.q.q.0.0.6.9.%.o.9.%.%.Q c , X . . . . . . . . . . . . . . . . . . . . . . . . . . .                                                                                                                                                                                                                                                                         ",
"                                                                                                                                                                                                                                                                      . . . . . . . . . X & , w c W ) O.O.:.8.t.n.m.m.n.m.n.n.t.r.r.>.O.O.) %.%.O.O.O._ _ O.%.4.4.4.4.7.&.$.~ h = o o                                                                                                                                                                                                                                                 . . . . . . . . . . X % * c Q o.4.8.4.8.q.q.4.%.&.o.^ ^ E x q - X . . . . . . . . . . . . . . . . . . . . . . . . . .                                                                                                                                                                                                                                                                             ",
"                                                                                                                                                                                                                                                                        + . . . . . . . . X X X & , 0 j c J ( %.9.t.c.c.c.t.8.4.:.:.( Q ^ / ^ ^ ^ ) W L W Q ) ) ) ) ) ) %.$.^ M > + +                                                                                                                                                                                                                                                 + . . . . . . . . . . X % q o.9.q.q.8.8.q.q.4.%.o.Q E j 0 9 % . . . . . . . . . . . . . . . . . . . . . . . . . .                                                                                                                                                                                                                                                                                 ",
"                                                                                                                                                                                                                                                                            . . . . . . . . . . . . X X % - 0 c x / o.=.9.=.%.O.O.O.^ ~ ~ E E E R R x x x x R E W Q ) [ $.$.$.V > + +                                                                                                                                                                                                                                                 . . . . . . . . . . . . % q Q 6.q.q.8.8.c.l.9.=.^ z > X . . . . . . . . . . . . . . . . . . . . . . . . o                                                                                                                                                                                                                                                                                         ",
"                                                                                                                                                                                                                                                                              . . . . . . . . . . . . . . X X & * , 9 h z x N E / ~ E C C M M z V l z l z V N R R E / ' ' [ ~ t o + +                                                                                                                                                                                                                                                 + . . . . . . . . . . . & y x o.%.( O.&.k.6.*.^ l & . . . . . . . . . . . . . . . . . . . . . . . . +                                                                                                                                                                                                                                                                                             ",
"                                                                                                                                                                                                                                                                                . . . . . . . . . . . . . . . . . . X & & = 9 0 y g l z h h g g g g g p p p V M V V N ! ~ ~ g = X + o                                                                                                                                                                                                                                                   . . . . . . . . . . . X 9 c ^ ^ W ) ) ^ N d 9 & . . . . . . . . . . . . . . . . . . . . . . .                                                                                                                                                                                                                                                                                                   ",
"                                                                                                                                                                                                                                                                                    o + . . . . . . . . . . . . . . . . . . X o & & - 0 3 t u u t t u t > - t t y l l A V g > o . . +                                                                                                                                                                                                                                                   . . . . . . . . . . . X * z ^ ^ / ^ ~ z 9 & X . . . . . . . . . . . . . . . . . . . . .                                                                                                                                                                                                                                                                                                         ",
"                                                                                                                                                                                                                                                                                        + . . . . . . . . . . . . . . . . . . . X X & & & o # = # o = = o + o o > h f h u > X X . .                                                                                                                                                                                                                                                     @ . . . . . . . . . . . X 0 N N x V M y o . . . . . . . . . . . . . . . . . . . . .                                                                                                                                                                                                                                                                                                             ",
"                                                                                                                                                                                                                                                                                          + X . . . . . . . . . . . . . . . . . . . . . . . . . . . . . . . . . + = 3 3 = o . . . o                                                                                                                                                                                                                                                       . . . . . . . . . . . X o = = = * & o + . . . . . . . . . . . . . . . . . +                                                                                                                                                                                                                                                                                                                   ",
"                                                                                                                                                                                                                                                                                              + . . . . . . . . . . . . . . . . . . . . . . . . . . . . . . . . . . . + . . . . .                                                                                                                                                                                                                                                         . . . . . . . . . . . . . . . X X . . . . . . . . . . . . . . . . . .                                                                                                                                                                                                                                                                                                                         ",
"                                                                                                                                                                                                                                                                                                  . . . . . . . . . . . . . . . . . . . . . . . . . . . . . . . . . X . . . o o                                                                                                                                                                                                                                                             . . . . . . . . . . . . . . . . . . . . . . . . . . . . . . . .                                                                                                                                                                                                                                                                                                                             ",
"                                                                                                                                                                                                                                                                                                    . . . . . . . . . . . . . . . . . . . . . . . . . . . . . . . . . . . . o                                                                                                                                                                                                                                                                 . . . . . . . . . . . . . . . . . . . . . . . . . . . .                                                                                                                                                                                                                                                                                                                                   ",
"                                                                                                                                                                                                                                                                                                        + . . . . . . . . . . . . . . . . . . . . . . . . . . . . . . . . o                                                                                                                                                                                                                                                                       . . . . . . . . . . . . . . . . . . . . . . .                                                                                                                                                                                                                                                                                                                                         ",
"                                                                                                                                                                                                                                                                                                            . . . . . . . . . . . . . . . . . . . . . . . . . . . . . . o                                                                                                                                                                                                                                                                             $ . . . . . . . . . . . . . . . . .                                                                                                                                                                                                                                                                                                                                               ",
"                                                                                                                                                                                                                                                                                                                + . . . . . . . . . . . . . . . . . . . . . . . X . . o                                                                                                                                                                                                                                                                                     . . . . . . . . . . . .                                                                                                                                                                                                                                                                                                                                                     ",
"                                                                                                                                                                                                                                                                                                                    . . . . . . . . . . . . . . . . . . . . . . o o +                                                                                                                                                                                                                                                                                                                                                                                                                                                                                                                                                                                                                                                                   ",
"                                                                                                                                                                                                                                                                                                                          . . . . . . . . . . . . . . . . . . . =                                                                                                                                                                                                                                                                                                                                                                                                                                                                                                                                                                                                                                                                       ",
"                                                                                                                                                                                                                                                                                                                                . . . X X X . . . X . . . . . X                                                                                                                                                                                                                                                                                                                                                                                                                                                                                                                                                                                                                                                                         ",
"                                                                                                                                                                                                                                                                                                                                                                                                                                                                                                                                                                                                                                                                                                                                                                                                                                                                                                                                                                                                                                        ",
"                                                                                                                                                                                                                                                                                                                                                                                                                                                                                                                                                                                                                                                                                                                                                                                                                                                                                                                                                                                                                                        ",
"                                                                                                                                                                                                                                                                                                                                                                                                                                                                                                                                                                                                                                                                                                                                                                                                                                                                                                                                                                                                                                        ",
"                                                                                                                                                                                                                                                                                                                                                                                                                                                                                                                                                                                                                                                                                                                                                                                                                                                                                                                                                                                                                                        ",
"                                                                                                                                                                                                                                                                                                                                                                                                                                                                                                                                                                                                                                                                                                                                                                                                                                                                                                                                                                                                                                        ",
"                                                                                                                                                                                                                                                                                                                                                                                                                                                                                                                                                                                                                                                                                                                                                                                                                                                                                                                                                                                                                                        ",
"                                                                                                                                                                                                                                                                                                                                                                                                                                                                                                                                                                                                                                                                                                                                                                                                                                                                                                                                                                                                                                        ",
"                                                                                                                                                                                                                                                                                                                                                                                                                                                                                                                                                                                                                                                                                                                                                                                                                                                                                                                                                                                                                                        ",
"                                                                                                                                                                                                                                                                                                                                                                                                                                                                                                                                                                                                                                                                                                                                                                                                                                                                                                                                                                                                                                        ",
"                                                                                                                                                                                                                                                                                                                                                                                                                                                                                                                                                                                                                                                                                                                                                                                                                                                                                                                                                                                                                                        ",
"                                                                                                                                                                                                                                                                                                                                                                                                                                                                                                                                                                                                                                                                                                                                                                                                                                                                                                                                                                                                                                        ",
"                                                                                                                                                                                                                                                                                                                                                                                                                                                                                                                                                                                                                                                                                                                                                                                                                                                                                                                                                                                                                                        ",
"                                                                                                                                                                                                                                                                                                                                                                                                                                                                                                                                                                                                                                                                                                                                                                                                                                                                                                                                                                                                                                        ",
"                                                                                                                                                                                                                                                                                                                                                                                                                                                                                                                                                                                                                                                                                                                                                                                                                                                                                                                                                                                                                                        ",
"                                                                                                                                                                                                                                                                                                                                                                                                                                                                                                                                                                                                                                                                                                                                                                                                                                                                                                                                                                                                                                        ",
"                                                                                                                                                                                                                                                                                                                                                                                                                                                                                                                                                                                                                                                                                                                                                                                                                                                                                                                                                                                                                                        ",
"                                                                                                                                                                                                                                                                                                                                                                                                                                                                                                                                                                                                                                                                                                                                                                                                                                                                                                                                                                                                                                        ",
"                                                                                                                                                                                                                                                                                                                                                                                                                                                                                                                                                                                                                                                                                                                                                                                                                                                                                                                                                                                                                                        ",
"                                                                                                                                                                                                                                                                                                                                                                                                                                                                                                                                                                                                                                                                                                                                                                                                                                                                                                                                                                                                                                        ",
"                                                                                                                                                                                                                                                                                                                                                                                                                                                                                                                                                                                                                                                                                                                                                                                                                                                                                                                                                                                                                                        ",
"                                                                                                                                                                                                                                                                                                                                                                                                                                                                                                                                                                                                                                                                                                                                                                                                                                                                                                                                                                                                                                        ",
"                                                                                                                                                                                                                                                                                                                                                                                                                                                                                                                                                                                                                                                                                                                                                                                                                                                                                                                                                                                                                                        ",
"                                                                                                                                                                                                                                                                                                                                                                                                                                                                                                                                                                                                                                                                                                                                                                                                                                                                                                                                                                                                                                        ",
"                                                                                                                                                                                                                                                                                                                                                                                                                                                                                                                                                                                                                                                                                                                                                                                                                                                                                                                                                                                                                                        ",
"                                                                                                                                                                                                                                                                                                                                                                                                                                                                                                                                                                                                                                                                                                                                                                                                                                                                                                                                                                                                                                        ",
"                                                                                                                                                                                                                                                                                                                                                                                                                                                                                                                                                                                                                                                                                                                                                                                                                                                                                                                                                                                                                                        ",
"                                                                                                                                                                                                                                                                                                                                                                                                                                                                                                                                                                                                                                                                                                                                                                                                                                                                                                                                                                                                                                        ",
"                                                                                                                                                                                                                                                                                                                                                                                                                                                                                                                                                                                                                                                                                                                                                                                                                                                                                                                                                                                                                                        "
};
