/* XPM */
static char *c1f329b517b140cce7e5c1745c519ca6XGRlGzACLMDnv9On[] = {
/* columns rows colors chars-per-pixel */
"500 500 256 2 ",
"   c None",
".  c #030202",
"X  c #0A0503",
"o  c #0C0906",
"O  c #060608",
"+  c #090708",
"@  c #0B0A0A",
"#  c #070808",
"$  c #120602",
"%  c #130A05",
"&  c #1B0C04",
"*  c #130D0B",
"=  c #1B0E0A",
"-  c #1A0602",
";  c #15110D",
":  c #1B130C",
">  c #1C1207",
",  c #0E0E11",
"<  c #130F11",
"1  c #141212",
"2  c #1B1513",
"3  c #1D1915",
"4  c #1D1A1A",
"5  c #1A1718",
"6  c #0E1010",
"7  c #230C05",
"8  c #231206",
"9  c #23140B",
"0  c #24190E",
"q  c #2B1B0D",
"w  c #2A1508",
"e  c #321D0C",
"r  c #371907",
"t  c #231612",
"y  c #231B14",
"u  c #2B1D13",
"i  c #231D1A",
"p  c #2A1C18",
"a  c #331D15",
"s  c #2E0D08",
"d  c #38220D",
"f  c #2D2115",
"g  c #26211C",
"h  c #2B231C",
"j  c #2B251B",
"k  c #332315",
"l  c #3B2513",
"z  c #33251B",
"x  c #34291D",
"c  c #3B2B1C",
"v  c #3B2817",
"b  c #3B2E1B",
"n  c #301A27",
"m  c #2C2521",
"M  c #2E2923",
"N  c #262322",
"B  c #342B23",
"V  c #3B2D23",
"C  c #342E29",
"Z  c #362A25",
"A  c #3D3125",
"S  c #3C332B",
"D  c #373129",
"F  c #3C3631",
"G  c #1F201D",
"H  c #46190C",
"J  c #45260B",
"K  c #442B14",
"L  c #422D1C",
"P  c #472A16",
"I  c #44311D",
"U  c #4B331C",
"Y  c #4C3216",
"T  c #56381A",
"R  c #552C0F",
"E  c #663A15",
"W  c #432C23",
"Q  c #433324",
"!  c #4B3523",
"~  c #4D3925",
"^  c #43352B",
"/  c #45392C",
"(  c #4C3B2C",
")  c #483729",
"_  c #533B24",
"`  c #5A3E23",
"'  c #533E2B",
"]  c #563A26",
"[  c #443B32",
"{  c #4B3D32",
"}  c #463833",
"|  c #533C33",
" . c #532832",
".. c #6A352F",
"X. c #491D2F",
"o. c #6E461B",
"O. c #5C4125",
"+. c #55412D",
"@. c #5B432C",
"#. c #5A452A",
"$. c #4D4134",
"%. c #4D433A",
"&. c #544333",
"*. c #5A4533",
"=. c #5D4934",
"-. c #53453A",
";. c #5C4B3B",
":. c #57483A",
">. c #514432",
",. c #624424",
"<. c #62462B",
"1. c #644A2D",
"2. c #6B4C2C",
"3. c #6A4825",
"4. c #744C28",
"5. c #77532C",
"6. c #644C33",
"7. c #6A4E33",
"8. c #634E3A",
"9. c #654935",
"0. c #6C5234",
"q. c #65513C",
"w. c #6B543B",
"e. c #695439",
"r. c #735434",
"t. c #7C5A35",
"y. c #72563A",
"u. c #745A3C",
"i. c #7B5C3B",
"p. c #785734",
"a. c #714E31",
"s. c #7D613D",
"d. c #5D411D",
"f. c #6A374F",
"g. c #733767",
"h. c #583046",
"j. c #5A4D42",
"k. c #5C5043",
"l. c #645342",
"z. c #6B5642",
"x. c #6D5943",
"c. c #6B5B4A",
"v. c #735C43",
"b. c #7A5E42",
"n. c #745D48",
"m. c #6D4C4B",
"M. c #7C6244",
"N. c #7C644B",
"B. c #77634A",
"V. c #7B6753",
"C. c #6F6353",
"Z. c #7C496D",
"A. c #86582A",
"S. c #845C36",
"D. c #925430",
"F. c #83623C",
"G. c #8B643C",
"H. c #8A6639",
"J. c #966939",
"K. c #966932",
"L. c #A66A37",
"P. c #A7743A",
"I. c #B27036",
"U. c #935524",
"Y. c #914D4F",
"T. c #836543",
"R. c #8C6B44",
"E. c #82664A",
"W. c #846A4C",
"Q. c #8B6D4B",
"!. c #876844",
"~. c #926D43",
"^. c #956D48",
"/. c #8D714C",
"(. c #93734C",
"). c #9B754B",
"_. c #997547",
"`. c #846C52",
"'. c #886D53",
"]. c #8D7253",
"[. c #8A7459",
"{. c #937553",
"}. c #9B7B54",
"|. c #957A5B",
" X c #9B7D5B",
".X c #957855",
"XX c #926D51",
"oX c #A67A49",
"OX c #B57A46",
"+X c #A27D53",
"@X c #A77D55",
"#X c #AD6C4C",
"$X c #894E72",
"%X c #977D61",
"&X c #8D7362",
"*X c #AB6262",
"=X c #C47A50",
"-X c #944843",
";X c #9D815C",
":X c #AA824B",
">X c #B8844A",
",X c #A3835C",
"<X c #A98557",
"1X c #B68956",
"2X c #BA925A",
"3X c #9C8263",
"4X c #9E8970",
"5X c #A38562",
"6X c #AB8B64",
"7X c #A78A66",
"8X c #B79569",
"9X c #B99973",
"0X c #B08E67",
"qX c #C78849",
"wX c #C78A56",
"eX c #C99557",
"rX c #D89A57",
"tX c #D2914E",
"yX c #DCA25A",
"uX c #D4A653",
"iX c #E3A45B",
"pX c #E6A85B",
"aX c #EAB359",
"sX c #CC9968",
"dX c #D9A567",
"fX c #D5AA73",
"gX c #E7AA65",
"hX c #EBB46A",
"jX c #F4B66B",
"kX c #EAB676",
"lX c #F6BA75",
"zX c #EDAD6C",
"xX c #E39C61",
"cX c #FAC379",
"vX c #F0C46D",
"bX c #BE813D",
"nX c #95518C",
"mX c #B66EAE",
"MX c #AD6793",
"NX c #C975B4",
"BX c #C87394",
"VX c #D17AC2",
"CX c #DB9F9F",
"ZX c #FAC88A",
"AX c #D892CA",
"SX c #E59AD4",
"DX c #EBABD8",
"FX c #F6B7E9",
"GX c #F5B0EC",
"HX c #DDA5CD",
"JX c #F7C7E8",
"KX c #FDC9F8",
"LX c #FED6FC",
"PX c #FAD2EB",
"IX c #F9D4EA",
"UX c #B885A3",
/* pixels */
"                                                                                                                                                                                                                                                                                                                                                                                                                                                                                                                                                                                                                                                                                                                                                                                                                                                                                                                                                                                                                                        ",
"                                                                                                                                                                                                                                                                                                                                                                                                                                                                                                                                                                                                                                                                                                                                                                                                                                                                                                                                                                                                                                        ",
"                                                                                                                                                                                                                                                                                                                                                                                                                                                                                                                                                                                                                                                                                                                                                                                                                                                                                                                                                                                                                                        ",
"                                                                                                                                                                                                                                                                                                                                                                                                                                                                                                                                                                                                                                                                                                                                                                                                                                                                                                                                                                                                                                        ",
"                                                                                                                                                                                                                                                                                                                                                                                                                                                                                                                                                                                                                                                                                                                                                                                                                                                                                                                                                                                                                                        ",
"                                                                                                                                                                                                                                                                                                                                                                                                                                                                                                                                                                                                                                                                                                                                                                                                                                                                                                                                                                                                                                        ",
"                                                                                                                                                                                                                                                                                                                                                                                                                                                                                                                                                                                                                                                                                                                                                                                                                                                                                                                                                                                                                                        ",
"                                                                                                                                                                                                                                                                                                                                                                                                                                                                                                                                                                                                                                                                                                                                                                                                                                                                                                                                                                                                                                        ",
"                                                                                                                                                                                                                                                                                                                                                                                                                                                                                                                                                                                                                                                                                                                                                                                                                                                                                                                                                                                                                                        ",
"                                                                                                                                                                                                                                                                                                                                                                                                                                                                                                                                                                                                                                                                                                                                                                                                                                                                                                                                                                                                                                        ",
"                                                                                                                                                                                                                                                                                                                                                                                                                                                                                                                                                                                                                                                                                                                                                                                                                                                                                                                                                                                                                                        ",
"                                                                                                                                                                                                                                                                                                                                                                                                                                                                                                                                                                                                                                                                                                                                                                                                                                                                                                                                                                                                                                        ",
"                                                                                                                                                                                                                                                                                                                                                                                                                                                                                                                                                                                                                                                                                                                                                                                                                                                                                                                                                                                                                                        ",
"                                                                                                                                                                                                                                                                                                                                                                                                                                                                                                                                                                                                                                                                                                                                                                                                                                                                                                                                                                                                                                        ",
"                                                                                                                                                                                                                                                                                                                                                                                                                                                                                                                                                                                                                                                                                                                                                                                                                                                                                                                                                                                                                                        ",
"                                                                                                                                                                                                                                                                                                                                                                                                                                                                                                                                                                                                                                                                                                                                                                                                                                                                                                                                                                                                                                        ",
"                                                                                                                                                                                                                                                                                                                                                                                                                                                                                                                                                                                                                                                                                                                                                                                                                                                                                                                                                                                                                                        ",
"                                                                                                                                                                                                                                                                                                                                                                                                                                                                                                                                                                                                                                                                                                                                                                                                                                                                                                                                                                                                                                        ",
"                                                                                                                                                                                                                                                                                                                                                                                                                                                                                                                                                                                                                                                                                                                                                                                                                                                                                                                                                                                                                                        ",
"                                                                                                                                                                                                                                                                                                                                                                                                                                                                                                                                                                                                                                                                                                                                                                                                                                                                                                                                                                                                                                        ",
"                                                                                                                                                                                                                                                                                                                                                                                                                                                                                                                                                                                                                                                                                                                                                                                                                                                                                                                                                                                                                                        ",
"                                                                                                                                                                                                                                                                                                                                                                                                                                                                                                                                                                                                                                                                                                                                                                                                                                                                                                                                                                                                                                        ",
"                                                                                                                                                                                                                                                                                                                                                                                                                                                                                                                                                                                                                                                                                                                                                                                                                                                                                                                                                                                                                                        ",
"                                                                                                                                                                                                                                                                                                                                                                                                                                                                                                                                                                                                                                                                                                                                                                                                                                                                                                                                                                                                                                        ",
"                                                                                                                                                                                                                                                                                                                                                                                                                                                                                                                                                                                                                                                                                                                                                                                                                                                                                                                                                                                                                                        ",
"                                                                                                                                                                                                                                                                                                                                                                                                                                                                                                                                                                                                                                                                                                                                                                                                                                                                                                                                                                                                                                        ",
"                                                                                                                                                                                                                                                                                                                                                                                                                                                                                                                                                                                                                                                                                                                                                                                                                                                                                                                                                                                                                                        ",
"                                                                                                                                                                                                                                                                                                                                                                                                                                                                                                                                                                                                                                                                                                                                                                                                                                                                                                                                                                                                                                        ",
"                                                                                                                                                                                                                                                                                                                                                                                                                                                                                                                                                                                                                                                                                                                                                                                                                                                                                                                                                                                                                                        ",
"                                                                                                                                                                                                                                                                                                                                                                                                                                                                                                                                                                                                                                                                                                                                                                                                                                                                                                                                                                                                                                        ",
"                                                                                                                                                                                                                                                                                                                                                                                                                                                                                                                                                                                                                                                                                                                                                                                                                                                                                                                                                                                                                                        ",
"                                                                                                                                                                                                                                                                                                                                                                                                                                                                                                                                                                                                                                                                                                                                                                                                                                                                                                                                                                                                                                        ",
"                                                                                                                                                                                                                                                                                                                                                                                                                                                                                                                                                                                                                                                                                                                                                                                                                                                                                                                                                                                                                                        ",
"                                                                                                                                                                                                                                                                                                                                                                                                                                                                                                                                                                                                                                                                                                                                                                                                                                                                                                                                                                                                                                        ",
"                                                                                                                                                                                                                                                                                                                                                                                                                                                                                                                                                                                                                                                                                                                                                                                                                                                                                                                                                                                                                                        ",
"                                                                                                                                                                                                                                                                                                                                                                                                                                                                                                                                                                                                                                                                                                                                                                                                                                                                                                                                                                                                                                        ",
"                                                                                                                                                                                                                                                                                                                                                                                                                                                                                                                                                                                                                                                                                                                                                                                                                                                                                                                                                                                                                                        ",
"                                                                                                                                                                                                                                                                                                                                                                                                                                                                                                                                                                                                                                                                                                                                                                                                                                                                                                                                                                                                                                        ",
"                                                                                                                                                                                                                                                                                                                                                                                                                                                                                                                                                                                                                                                                                                                                                                                                                                                                                                                                                                                                                                        ",
"                                                                                                                                                                                                                                                                                                                                                                                                                                                                                                                          * * * * * * * @ * * * @ @ @ @ @ @ @ @ @ * * * * * @ * * * < 1 2                                                                                                                                                                                                                                                                                                                                                                                                                                               ",
"                                                                                                                                                                                                                                                                                                                                                                                                                                                                                                                * @ @ o O O . . . . . . . . . . . . . . . . . . . . . . . . . . . O . X O . X + + o * * *                                                                                                                                                                                                                                                                                                                                                                                                                               ",
"                                                                                                                                                                                                                                                                                                                                                                                                                                                                                                        * * @ + . . . . . . . . . . . . . . . . . . . . . . . . . . . . . . . . . . . . . . . . . X + X + 2                                                                                                                                                                                                                                                                                                                                                                                                                             ",
"                                                                                                                                                                                                                                                                                                                                                                                                                                                                                                    2 * o + X X . . . . . . . . . . . . . . . . . . O + + o % * % * % % % o o o o o + + . . . X X X + X . + * 1 * @ o o 2                                                                                                                                                                                                                                                                                                                                                                                                               ",
"                                                                                                                                                                                                                                                                                                                                                                                                                                                                                        o o @ @ @ o + X . . . . . . . . . . . . . . . . . . . . o 2 i N h z S { [ [ [ [ [ ^ B z B B g t ; % % % % o X X X $ $ $ o X X $ $ : t 2 2 2 =                                                                                                                                                                                                                                                                                                                                                                                                   ",
"                                                                                                                                                                                                                                                                                                                                                                                                                                                                                  @ . + . . . . . . . . . . . . . . . O . . O O + + o * * * * * : p B D V A ( &.;.k.j.j.k.:.) ) ) Q A c x f f u u u f k z c c z z z z z 0 $ X . . X X X ;                                                                                                                                                                                                                                                                                                                                                                                               ",
"                                                                                                                                                                                                                                                                                                                                                                                                                                                                            * + + . . . . . . . . . . . . . . . + + * i i i i N N m B C D F D D S [ [ [ { { ' *.8.z.z.z.z.z.w.z.l.q.l.l.l.l.l.8.k.z.c.n.V.V.V.C.C.V.V.V.c.W e Z p = % $ o @ o ; m                                                                                                                                                                                                                                                                                                                                                                                       ",
"                                                                                                                                                                                                                                                                                                                                                                                                                                                                  @ * @ @ @ + . . . . . . . . + + + o @ * * * * : y M C S S S S F [ [ { %.%.%.-.:.:.:.j.j.l.l.w.x.n.B.B.B.N.N.N.V.V.V.V.V.N.N.V.V.`.`.'.[.[.&X%X&X&X%X&X[.V.n.V.:.w 7 % X . . X % % o X o                                                                                                                                                                                                                                                                                                                                                                               ",
"                                                                                                                                                                                                                                                                                                                                                                                                                                                              O O O . . . . . . X X . . + @ * 2 3 i i i g N N h M B S S S S S S S [ { { %.-.-.:.:.:.;.k.l.l.z.z.v.v.N.N.V.N.N.N.E.E.`.`.`.`.`.`.'.'.'.].|.|.|.|.%X%X%X%X|.[.'.`.x.! L c c z f u x j % X + t                                                                                                                                                                                                                                                                                                                                                                             ",
"                                                                                                                                                                                                                                                                                                                                                                                                                                                          * + O . . . . . O @ * 2 2 * 1 t N m M B B B B B C C D D ^ ^ S S S S S ^ [ $.$.-.-.-.:.:.;.l.l.z.x.x.n.B.B.V.W.`.`.`.'.].[.|.|.|.|.|.|.|.|.|. X%X%X3X3X3X3X3X3X3X3X%X%X|.[.[.[.[.[.V.n.c.;.0 X X o % = %                                                                                                                                                                                                                                                                                                                                                                       ",
"                                                                                                                                                                                                                                                                                                                                                                                                                                                    * @ + + . . . . . + + < 4 N M m M m M B C C D D D D S S S S S S ^ ^ S S S S ^ { -.&.-.:.:.:.:.8.l.z.c.n.B.N.N.V.`.'.].[.|..X|.|. X%X%X%X%X%X%X%X X X3X3X5X5X5X5X7X7X7X5X5X5X3X3X3X3X%X%X|.'.N.x.Q 9 > > 9 9 $ 9                                                                                                                                                                                                                                                                                                                                                                     ",
"                                                                                                                                                                                                                                                                                                                                                                                                                                                @ * @ + X . . . X + * 1 2 i m B Z C C C C C D D S S S S ^ ^ ^ S S S S S S S ^ ^ / $.-.:.;.;.;.j.;.l.l.c.n.B.N.V.V.`.'.[.[.|.|.%X%X%X%X%X%X%X%X%X X X X X;X3X5X5X5X7X7X7X7X7X5X5X3X3X3X3X X X X.X].`.v.=.] *.&.W u a V p p                                                                                                                                                                                                                                                                                                                                                               ",
"                                                                                                                                                                                                                                                                                                                                                                                                                                            2 @ O O . . . + + + * 4 N N N M B C Z C Z D C D D S S S S S S ^ ^ S S S S S ^ ^ [ [ { -.:.:.;.;.;.8.l.l.z.z.x.n.N.N.V.V.`.`.[.%X%X%X%X%X%X%X%X3X%X X X X X X;X3X5X5X5X5X5X7X7X5X5X5X3X3X3X3X3X;X;X X}.{.E.b.b.M.b.q.8.l.) 9 t Z                                                                                                                                                                                                                                                                                                                                                             ",
"                                                                                                                                                                                                                                                                                                                                                                                                                                          * * @ O . . . . X + * 2 N m B B B C C Z Z Z Z Z B B V V V D D S S ^ ^ S S S ^ ^ / / ( { &.:.:.;.;.;.;.q.l.l.l.z.x.n.n.B.V.V.`.].%X%X X X X|..X{..X|..X.X|.|. X;X,X5X5X5X5X5X7X7X5X5X5X5X3X3X3X;X;X X X X}.{.Q.Q.Q.Q.N.V.V.( = X % t                                                                                                                                                                                                                                                                                                                                                           ",
"                                                                                                                                                                                                                                                                                                                                                                                                                                    @ @ @ + @ ; @ X . . + + o * i m B C C C C Z Z Z Z Z Z B B V V V D D S S ^ ^ ^ S S ^ / / ( | &.:.=.8.8.8.8.8.q.q.q.q.z.z.w.v.B.N.`.`.'.[.|..X|.|.{.].Q.Q.Q.Q.Q.]..X X;X,X,X5X5X5X5X5X5X5X5X5X5X,X;X X X{.{.{.{.{./.(.).}.{.!.M.n.( y o X X p                                                                                                                                                                                                                                                                                                                                                         ",
"                                                                                                                                                                                                                                                                                                                                                                                                                                + . O @ @ @ 1 5 @ + X + o o * 3 N m B B B B Z Z B B B B Z B V V V V D S S S ^ ^ ^ ^ / [ { $.&.=.=.8.8.8.8.8.8.8.q.q.q.q.z.z.w.v.B.N.`.`.].[.|.[.].].].{.].Q./.{.{.{. X;X,X5X,X5X5X6X7X5X5X5X5X5X,X X X|.'.M.y.0.u.b.T.{. X;X XR.u.w.( y o X X t                                                                                                                                                                                                                                                                                                                                                         ",
"                                                                                                                                                                                                                                                                                                                                                                                                                          @ @ O . . O @ 1 1 4 4 1 * ; 2 2 3 i g m M B B B B Z Z Z Z Z B Z V V D V D S S S S ^ / [ { { { $.:.;.q.q.z.z.q.q.q.8.q.q.q.q.q.w.x.u.u.b.N.E.W.].[.[.].].]..X X.X/. X;X X;X3X5X5X5X5X5X6X7X7X7X5X5X5X5X,X;X|.B._ K v Q *.q.x.E.[..X.XW.u.e.) y o X X % t                                                                                 LXLXLXKXKXKXKXKXKXKXKXLXPXLX                                                                                                                                                                                                                                          ",
"                                                                                                                                                                                                                                                                                                                                                                                                                        + O . . O O O 1 4 N N N i i i g g N m m M M M B B B C Z Z B Z B B B V S S S S ^ ^ [ [ { %.%.$.{ $.;.q.w.x.n.v.v.v.w.e.e.e.q.q.q.w.w.y.u.b.M.M.E.'.].].].].]..X;X|.{. X5X5X,X5X5X6X7X6X6X6X7X7X7X5X5X5X7X.X'.[.;.q $ X o & > 0 k l l I n.N.l.) t : o + + %                                                                           KXKXKXKXKXKXKXKXKXFXFXFXFXFXJXKXKXKX                                                                                                                                                                                                                                        ",
"                                                                                                                                                                                                                                                                                                                                                                                                                  @ 1 * O O . O O O @ 1 5 i N N g i i g g N M M M M M B B B Z B B B B B B B D S S ^ ^ ^ [ [ { { { { $.( &.l.z.z.v.B.v.v.B.v.w.w.w.q.w.w.w.y.y.i.T.E.E.'.|.|.|.{.].]..X3X;X.X;X5X5X5X5X5X7X6X6X0X0X0X5X5X,X,X7X7XE.v u : X . . . . . . . . . % -.c.-.x ; * o + X %                                                                       FXFXFXGXGXGXGXFXGXGXGXGXGXGXFXFXFXFXJXKXLX                                                                                                                                                                                                                                      ",
"                                                                                                                                                                                                                                                                                                                                                                                                              O . . O O O O O O @ 1 1 5 4 4 i i i i i i i h M M M B B B B B B B V V B B C V D S S F ^ [ [ [ { / ) ) ) $.&.:.q.q.x.v.u.v.N.N.y.y.y.y.y.u.M.E.E.Q.{.{..X}.3X3X X X|.|.;X5X7X5X5X7X7X7X6X6X6X6X6X6X8X7XQ.Q.T.u. X[.) & X . . . . . . . . . . . . * 3 : o X + X X . *                                                                   SXSXSXSXSXSXSXSXSXDXDXGXGXGXGXGXGXGXGXFXFXJXLX                                                                                                                                                                                                                                      ",
"                                                                                                                                                                                                                                                                                                                                                                                                          + o . . . . . O O @ @ 1 5 5 4 5 5 4 4 i i i i i h m M m m B B B B C B B V V B D D S S S ^ S S ^ ^ { / ( { { &.&.&.' *.q.v.v.b.N.N.v.u.v.b.b.M.W.]..X}. X X;X,X5X5X5X5X5X5X7X7X7X7X6X6X6X6X6X6X6X6X6X0X8X7XT.M.B.d I k X X . . . . . . . . . . . . . . . . . . . . . . *                                                                 DXSXAXNXNXAXAXSXSXSXDXGXGXGXGXGXGXGXGXGXGXGXFXKXKX                                                                                                                                                                                                                                    ",
"                                                                                                                                                                                                                                                                                                                                                                                                      @ . . . . . . . . . @ 1 5 4 4 4 4 4 4 4 4 i i i i i g m m M M M B B B C D D D D B D S S F [ [ [ S S ^ ^ / -.:.:.:.;.&.( ' q.v.v.v.N.B.v.v.B.N.E.T.!.{. X X;X,X,X5X5X5X5X5X7X7X5X7X6X6X6X6X6X6X6X6X<X,X,X5X3X%XN.) { 9 $ X . . . . . . . . . . . . . . . . . . . . . . . . *                                                             SXDXSXAXNXVXAXAXSXDXGXGXGXGXGXGXGXGXGXGXGXGXGXGXFXKXKXJX                                                                                                                                                                                                                                  ",
"                                                                                                                                                                                                                                                                                                                                                                                                    @ + . . . . . . . O o @ 5 i N i 4 4 4 5 4 4 i i i i i g N m m M M M M B C D D D D D D [ [ [ [ [ [ [ [ ^ B / :.k.j.-.-.-.| &.8.8.q.z.n.v.v.v.v.N.E.T./. X X,X,X,X,X5X5X5X6X7X7X5X6X6X6X6X6X6X6X5X,X,X X}. X|.[.V.c % o . . . . . . . O O . . . . . . . . . . . . . . . . . . %                                                       $XnXMXmXmXmXmXmXAXDXGXGXFXFXFXFXFXFXFXFXGXGXGXGXGXGXGXGXFXJXFX                                                                                                                                                                                                                                  ",
"                                                                                                                                                                                                                                                                                                                                                                                              O O . . . . . . . . . O @ 1 5 4 G G i 4 5 5 5 4 4 4 4 4 4 4 4 4 4 4 i g g N m C C C D D D S [ [ [ [ [ [ [ %.{ V / $.$.{ ) { -.:.:.*.*.*.6.w.z.z.z.v.b.E.E.(. X X X,X,X,X,X5X6X6X5X5X6X6X6X<X,X,X,X,X,X}.}..X'.].n.*.) % . . . . . . . . O O O . . . O + O . . . . . . . . . . O + %                                                       $X$XnXnXMXMXmXmXAXFXKXKXKXKXKXKXKXKXKXKXKXFXFXGXDXGXGXGXGXDXDX                                                                                                                                                                                                                                  ",
"                                                                                                                                                                                                                                                                                                                                                                                            O . . . . . . . . . . O O @ 1 4 4 i 4 4 4 5 5 5 5 5 1 1 1 1 < @ @ @ @ @ * 1 2 5 i m m h M B C D [ [ [ [ ^ [ $.%.{ / S A Q ) { -.-.-.&.&.*.6.q.z.q.q.x.b.E.T.!.{. X;X;X,X,X,X,X5X,X}.}.,X,X,X,X,X,X,X,X;X X|.'.q.*.k X X . . . . . . . + @ 1 1 * @ * 2 4 i 5 @ . . . . . . . . . + o $                                                     nX$XnXnXnXMXmXmXAXGXKXKXKXKXKXKXKXLXLXLXLXLXKXKXKXFXFXGXGXGXDXFXFX                                                                                                                                                                                                                                ",
"                                                                                                                                                                                                                                                                                                                                                                                          + . . . . . . . . . . O O + @ 1 5 4 i 4 4 4 4 4 4 1 @ @ @ @ @ @ + + + @ @ @ @ * 1 1 4 i i i M B B S [ [ S D V S %.-.%.A c Q ( $.%.-.-.| | &.*.=.=.=.=.z.v.B.M.T.Q.{.{.|. X X X X;X;X.X}.,X,X,X,X,X,X,X,X;X|.V.+.q ; X . . . . . X o * 2 g M M N g h M B m m g 1 . . . . . . . . O + :                                                     $X$X$XnXnXnXmXAXGXGXKXKXLXLXLXLXLXLXLXLXLXLXLXLXLXKXKXFXKXFXGXGXKXKX                                                                                                                                                                                                                                ",
"                                                                                                                                                                                                                                                                                                                                                                                        + . . . . . . . . . . . . O + @ 1 5 4 i G N N G 4 5 6 O O O @ @ O O O + @ @ @ @ @ , 1 5 3 i g M B B D [ S S V B V %.j.-.{ Q ^ $.%.%.{ [ / ( ( ( | ' &.:.=.q.v.v.u.i.M.M.T.T.T.T.Q.{..X;X5X6X,X}.}.<X<X<X,X;X|.l.0 X . . . . . . * i h B D [ [ S B B D D D C C m i 2 2 2 2 * + O . O +                                                       g.Z.nXnXnXnXmXSXKXKXLXLXLXLXLXLXLXLXLXLXLXLXLXLXLXKXKXKXKXFXDXGXFXKXJX                                                                                                                                                                                                                              ",
"                                                                                                                                                                                                                                                                                                                                                                                      O . . . . . . . . . . . . . O @ @ 1 4 G N N N N N 5 @ @ O O O O O O O O O O @ @ @ @ 6 1 2 4 4 g M M M B [ S D V V S ^ { -.-.{ ^ / %.%.S V V ^ [ ) ) { -.-.| ' 8.e.0.y.y.r.r.r.r.r.p.!./..X,X,X;X}._.:X:X,X;XN.( z o . . . . . . % h [ %.-.&.-.-.{ { { { { { [ ^ S D C C C m 2 o + O . o i                                                   Z.g.g.Z.nXnXnXmXSXKXKXLXLXLXLXLXLXLXLXLXLXLXLXLXLXLXLXKXKXFXFXFXFXDXAXHXDX                                                                                                                                                                                                                            ",
"                                                                                                                                                                                                                                                                                                                                                                                      O . . . . . . . . . . . . O + @ @ 1 5 4 4 4 4 N N 5 @ # O O O O O O O O O O @ @ @ @ @ 1 2 5 4 i m M h M B B B B V S D V A S S V V S S B B B S ^ ^ ^ ^ { [ Q Q *.8.7.w.y.y.r.r.u.i.M.Q.]..X;X;X}._._.:X<X,X Xq.> X . . . . . . % u V { :.;.:.:.*.&.&.&.-.-.{ ( / ^ S D D C M t 3 2 1 + X t                                                 $Xg.g.g.nXnXnXmXmXSXKXLXLXLXLXLXLXLXLXLXLXLXLXLXLXLXLXLXKXKXKXKXKXKXDXmXmXAXDX                                                                                                                                                                                                                          ",
"                                                                                                                                                                                                                                                                                                                                                                                        . . . . . . . . . . . . O @ @ @ @ @ , @ @ @ , 1 @ O O O O O O O O O O O O O @ @ @ @ @ 1 2 5 4 N N h h h M M Z D S S D V S S D h h h h h M B C B C S S D V c ( 8.q.x.v.v.u.M.E.W.].].|. X;X}.}.}.<X,X,XQ.w.Q X . . . . . ; i z [ ( &.:.=.=.=.=.*.*.*.*.&.&.( ) ^ ^ ^ ^ [ ^ B C C m * X t                                               $Xg.f.g.g.nXnXmXSXSXDXKXLXLXLXLXLXLXLXLXLXLXLXLXLXLXLXLXKXKXKXKXKXKXKXGXmXMXmXAX                                                                                                                                                                                                                          ",
"                                                                                                                                                                                                                                                                                                                                                                                        o X . . . . . . . . . . O @ @ @ @ O O O O O O . . . . . O O O O O . . O O O O @ @ @ @ 1 1 2 5 i N h i h M M D S S [ [ [ ^ F S B g i i i i g g g N m M M h x ) &.8.x.v.v.u.N.].|.].].]./.(.{.}.,X,X6X7Xv.8 X . . . . . . i F [ j.-.:.;.=.;.8.=.*.+.+.+.+.&.( ( ) ( { { $.%.{ [ F M 2 % i                                               Z.g.g.g.g.nXMXAXFXGXGXKXLXLXLXLXLXLXLXLXLXLXLXLXLXLXKXKXKXKXKXKXKXKXKXFXAXmXmXmXAX                                                                                                                                                                                                                        ",
"                                                                                                                                                                                                                                                                                                                                                                                          @ + O . . . . . . . . . O O O O O O O O . . . . . . . . . . . . . . . . . O O @ @ @ < 1 2 4 i N N h h B D S S S S [ [ D S S B i 3 5 2 5 3 3 3 4 i g g h j Q ( &.8.q.8.7.w.M.N.M.M.s.T.R.}.<X,X,X{.[.8.= X . . . . . . @ 2 z / { :.;.*.*.8.q.*._ ~ _ ] +.' ( ( $.&.&.&.%.%.%.[ C i = =                                             Z.g.g.g.g.$XnXmXAXFXFXGXKXLXLXLXLXLXLXLXLXLXLXLXKXKXJXJXKXKXKXKXKXKXKXKXFXSXSXAXmXAX                                                                                                                                                                                                                        ",
"                                                                                                                                                                                                                                                                                                                                                                                            * o O . . . . . . . . . . . O . . . . . . . . . . . . . . . . . . . . . . O O @ @ , 1 5 5 i i h M B C S S D C S S C B B C M 3 2 1 1 1 2 2 2 5 4 i g B D ^ ( &.*.=.6.6.=.6.e.y.M.M.T.Q. X,X,X{._ u > + . . . . . . . O @ 3 f u c ( ) ! =.8.+._ ] @.*.*.' ' | &.&.&.&.-.-.-.%.[ D t = p                                         Z.g.g.g.g.g.nXMXmXAXFXFXGXFXKXLXLXLXLXLXLXLXLXLXKXKXJXFXJXKXKXKXKXKXKXKXKXFXSXGXSXmXmXmX                                                                                                                                                                                                                      ",
"                                                                                                                                                                                                                                                                                                                                                                                              @ O . . . . . . . . . . . . . . . . . . . . . . . . . . . . . . . . . . . O O @ , 1 5 5 4 g M B V D D D D B B B B M h m i 2 1 < * 1 1 1 1 1 5 i N C S ^ ( *.=.6.6.6.6.6.6.i.N.E.Q.{. X.X].[.! X . . . . X X X X X X o ; ; X ; f e v ' *.' @.8.w.q.=.&.&.&.&.&.&.&.-.-.:.-.-.[ p t n                                         g.f.g.g.g.$XnXNXmXVXGXFXGXFXKXKXKXKXLXLXLXLXLXLXKXKXKXKXKXLXLXKXLXLXKXKXKXFXSXDXSXMXnXMX                                                                                                                                                                                                                      ",
"                                                                                                                                                                                                                                                                                                                                                                                                X . . . . . . . . . . . . . . . . . . . . . . . . . . . . . . . . . . . . O @ @ 1 2 5 4 g M B D D C D D B B B B B M N 4 1 < * * * ; 1 1 1 2 3 g B S / $.=.6.8.q.6.e.e.u.E.Q.{.{.|.E._ v | a X . . . $ w q w & o X X X X X * > 8 k ) ' ] 8.n.n.z.=.*.*.&.&.*.&.&.&.-.-.:.:.{ z t a                                       $Xf.h.f.$XnXMXNXVXNXNXGXGXDXDXKXKXKXKXLXLXLXLXLXKXKXKXKXLXLXLXLXLXLXLXLXKXKXGXSXSXSXMXnXnX                                                                                                                                                                                                                      ",
"                                                                                                                                                                                                                                                                                                                                                                                                  O . . . . . . . . . . . . . . . . . . . . . . . . . . . . . . . . . . . O O @ 1 5 5 4 m B D D D B B D B B B B B m i 2 1 * < * * * , 1 1 1 5 g B ^ ( =.q.q.q.q.q.w.w.V.].'.].[.`.) $ X % + . . X X d <.7.1.P 7 $ % o X o : t u x ( ' ' 8.z.w.8.=.*.*.*.*.&.&.&.&.&.:.:.:.-.S p z                                       Z.f.h.g.nXNXNXVXAXVXVXGXGXDXSXFXKXKXKXKXKXLXKXKXKXFXFXKXLXLXLXLXLXLXLXLXKXKXGXDXDXSXnXnXMXmX                                                                                                                                                                                                                    ",
"                                                                                                                                                                                                                                                                                                                                                                                                    o X . . . . . . . . . . . . . . . . . . . . . . . . . . . . . . . . . . . @ 1 5 4 g B D D D B B B B D B B D C i 1 1 < < < * * * * 1 1 1 5 g B / $.q.x.w.w.w.w.w.v.E.`.E.M.6.) : . X . . . X & & K 5.5.5.3.T <.e.Q $ % u u y x A ^ $.;.q.=.*.*.=.*.*.&.&.&.&.&.:.=.;.j.j.{ S V ^                                   f.f.h.f.g.MXAXAXAXAXVXNXGXGXGXSXDXJXKXKXKXLXKXKXKXKXFXFXKXLXLXLXLXLXLXLXKXKXKXFXGXDXSXnXnXnXnXnX                                                                                                                                                                                                                  ",
"                                                                                                                                                                                                                                                                                                                                                                                                      + . . . . . . . . . . . . . . . . . . . . . . . . . . . . . . . . . . . O @ 5 i M D D D D B B B B B B B B M 3 * @ * * * * ; ; ; 1 1 2 4 h A / +.q.n.v.w.w.w.v.B.E.N.B.z.0 X . . . . . X q _ T d.5.A.S.H.H.)./.` w l ' k % : : y x / &.$.( +.*.*.+.+.+.&.&.:.;.;.;.j.k.:.} } ^                                    .X. .m.$XBXAXAXVXVXNXNXGXFXGXDXSXDXFXKXKXKXKXKXJXFXKXKXKXKXLXLXLXLXLXKXKXKXKXFXGXDXAXnXnXnX$XZ.                                                                                                                                                                                                                  ",
"                                                                                                                                                                                                                                                                                                                                                                                                        @ O . . . . . . . . . . . . . . . . . . . . . . . . . . . . . . . . . . @ 1 g B D D D D D B B B B B B M i 1 * @ * * * ; ; 1 1 1 1 5 g x A ( +.8.n.v.v.w.w.u.M.N.v.C.j.% . . . . o & e 2.F.G.H.J.J.J.J.K.H.H.5.4.p.b.U $ $ % o % : f x c ~ &.=.*.+.+.' &.:.=.*.*.;.j.-.{ } V t                                 X.n  .Z.MXBXAXAXVXVXNXNXGXFXGXDXDXDXFXFXFXJXKXKXFXFXKXKXKXKXKXKXKXKXLXKXKXKXKXGXGXDXAXnXnXnX$XZ.                                                                                                                                                                                                                  ",
"                                                                                                                                                                                                                                                                                                                                                                                                          # . . . . . . . . . . . . . . . . . . . . . . . . . . . . . . . . . . o 2 m D D D D D D C B B B B m i 2 1 * @ * * ; 1 1 1 2 1 5 y h B ^ ( ' 6.n.v.u.w.w.u.B.N.l.Q y X . . . . > l R 5.J.K.K.K.L.K.K.K.K.K.K.H.G.S.,.r l e - X X % % 0 c &.:.*.+.~ ~ ' | | ( ( | -.} S D h 9                                 X.n X.$XMXBXVXAXVXNXNXmXGXGXGXDXFXJXFXFXFXFXJXKXJXFXKXLXLXKXJXJXJXKXKXKXKXKXGXGXDXSXAXnXnX$X$XZ.                                                                                                                                                                                                                  ",
"                                                                                                                                                                                                                                                                                                                                                                                                            O . . . . . . . . . . . . . . . . . . . . . . . . . . . . . . . . X ; h B D D D D B D B C B B M m i 1 1 * * < 1 1 1 2 2 5 2 4 h B S ^ ) ) *.x.w.w.0.0.u.z.8.{ : . . . . . X w T E A.K.L.L.L.L.K.K.K.K.K.K.K.K.A.A.5.R.0.r - X X X % f ( &.*.&.~ ~ _ ' ! ! ! { { / p t t %                                 X.a W Y.MXBXNXAXVXNXmXmXGXGXGXGXKXJXJXJXFXFXFXJXJXJXLXLXLXKXKXKXJXJXJXKXFXGXDXDXSXSXAXnX$X$XZ.g.                                                                                                                                                                                                                  ",
"                                                                                                                                                                                                                                                                                                                                                                                                              @ O . . . . . . . . . . . . . . . . . . . . . . . . . . . . . . o i C D D D D D B C C C C M g i 2 1 1 < 1 1 2 2 5 4 4 3 3 y B D ^ ) ) ( *.w.7.1.6.7.w.+.9 % . . . . X 7 r T G.J.L.I.>XI.I.P.L.L.K.K.U.K.K.K.K.L.oXoXH.T U q X . X & z { $.( ) ~ ' ' ' ) ( | -.[ p % * %                                  .X. .*XBXMXBXNXNXNXmXmXGXGXGXGXKXKXJXJXJXJXJXJXJXLXLXLXLXKXKXKXKXKXKXKXFXDXSXSXSXSXAXnX$X$XZ.g.                                                                                                                                                                                                                  ",
"                                                                                                                                                                                                                                                                                                                                                                                                                  . . . . . . . . . . . . . . . . . . . . . . . . . . . . . o 3 M D D D D D B B B C C B h i 2 2 2 1 2 2 2 2 2 4 4 4 4 y h A ^ { $.&.+.=.7.6.6.6.6.6.Q $ . . . . % ! 1.5.~.@X>XwXrXrXrXrXeXeXwXqXqX>X>X>X>XqXqXwXeXoXJ.T.P $ . . o t V ^ Q ) ) ' ' ' ( ) [ [ S t o @ %                                  .X...*XBX*XBXNXNXNXmXmXGXGXGXDXJXJXJXJXJXJXPXJXJXLXLXLXPXKXKXKXKXKXKXKXFXDXSXSXSXSXAXnX$X$Xg.g.$X                                                                                                                                                                                                                ",
"                                                                                                                                                                                                                                                                                                                                                                                                                    O . . . . . . . . . . . . . . . . . . . . . . . . . . O ; M D S C B C B B B B B M M y 3 2 2 2 2 2 2 2 2 5 4 i i g M A ^ { -.&.*.*.=.=.6.e.w.z.+.u . . . . X w 3.G.J.oX>XqXeXyXdXdXdXdXyXyXdXdXdXdXrXeXtXeXrXeX>XP.H.T 9 $ + + * y z V ) ) ) ( | | Q z M N 2 + o =                               m.f. .m.*XBX*X*XBXNXNXmXmXGXGXGXDXJXJXJXJXJXJXPXJXJXLXLXPXPXPXJXJXJXKXFXKXFXGXSXSXSXSXAXnXZ.Z.g.g.$X                                                                                                                                                                                                                ",
"                                                                                                                                                                                                                                                                                                                                                                                                                      @ O . . . . . . . . . . . . . . . . . . . . . . . . o 2 M C C B B B B B M B M h i y 2 2 2 5 2 2 2 2 2 5 i i h B S [ [ { &.*.+.@.@.=.6.e.w.l.) ; . . . 9 U ,.S.J.oX>XwXwXrXgXgXgXgXdXyXyXdXdXgXgXdXrXtXrXyXdXrXdXsX6X<.u % + + * t c Q ) ) ( ( [ V y y 2 1 @ + %                             m.m.f.f.f.*X*X*X*XBXNXNXmXmXGXGXGXGXJXJXJXJXJXJXJXJXJXLXLXIXPXPXJXFXFXFXFXFXFXGXSXSXSXSXAXnXg.g.g.f.g.                                                                                                                                                                                                                ",
"                                                                                                                                                                                                                                                                                                                                                                                                                        @ O . . . . . . . . . . . . . . . . . . . . O O O @ 2 g B C B B B B M M M M g i i 3 3 4 4 5 2 2 2 2 3 i h B S ^ [ { ( ' +.+.@.@.=.6.7.=.Q y * . X $ U .XoXoXOXOXqXeXeXdXgXgXgXgXgXgXgXgXgXgXgXgXgXgXgXhXzXlXcXkXsX3.e 0 o @ * t z Q ) ) ) c z y t 2 ; * @ + $                             h.f.f.f.f.Y.*X*X*XCXCXNXmXmXGXFXGXFXJXJXJXJXJXJXJXJXJXLXLXPXPXJXJXFXFXFXGXFXFXSXAXAXAXSXNX$Xg.g.g.f.g.                                                                                                                                                                                                                ",
"                                                                                                                                                                                                                                                                                                                                                                                                                          O . . . . . . . . . . . . . . . . . . . . O + @ 1 4 m B B B B M M M m m h g i i 4 4 4 4 5 5 2 2 2 4 N M B S S / ( ) ( +.@.@.=.6.=.@.Q 9 X . $ a e 3._.oXoXP.OXqXeXrXgXgXgXgXgXgXgXgXgXgXgXgXgXgXgXhXhXzXkXlXlXsXE P v : 3 i p u c Q ) ^ z u : : * @ @ @ + o                             | f.f.Y.Y.Y.Y.Y.*XCXCXCXMXmXSXGXGXFXJXJXJXJXJXJXJXPXPXPXLXLXPXPXJXFXFXDXDXDXGXSXAXAXAXAXmXg.g.g.f.f.Z.MX                                                                                                                                                                                                              ",
"                                                                                                                                                                                                                                                                                                                                                                                                                          O . . . . . . . . . . . . . . . . . . . O @ @ 1 N M B B B B x M M m g h g i i i i 4 4 5 2 5 2 3 3 i m B B D V Q ) ) ' +.@.*.6.6.6.' u X . X 9 n.b.~.oXoXoXoXOX>XeXsXgXgXgXgXgXgXgXgXgXgXgXgXgXgXgXgXhXzXjXjXjXeXo.T ' B M B z a z V V V B p 3 * * @ @ * o $                              ...f.Y.Y.Y.Y.-XY.sXCXCXBXMXAXSXSXDXFXJXJXJXJXJXJXJXPXIXLXLXLXKXKXFXFXSXSXDXDXDXAXAXAXAXmXg.f.f.f.f.g.$X                                                                                                                                                                                                              ",
"                                                                                                                                                                                                                                                                                                                                                                                                                          O . . . . . . . . . . . . . . . . . . O @ 1 5 g m C C B B B x h h g g g i i i i 4 3 3 5 2 2 5 4 i i m M h h z x c Q _ @.6.6.6.6.8.) = . . . 8 B.{.).^.J.G.J.J.oX1X1XsXdXdXdXdXgXgXgXgXgXgXgXgXgXhXhXhXzXjXjXjXdXo.T *.^ Z M h t 8 u z B h i y * * @ @ ; * %                             | ....Y.*XY.Y.-X-X#X*X=X*XBXBXMXMXAXFXJXJXPXPXPXPXJXPXIXPXPXJXHXHXDXDXSXSXDXDXDXSXAXAXAXmXg.f.Z.Z.Z.f.h.h.                                                                                                                                                                                                            ",
"                                                                                                                                                                                                                                                                                                                                                                                                                          . . . . . . . . . . . . . . . . . X O * 4 N m M C C B B M h h h h g g i i i i i i 3 3 5 5 2 5 4 i i i g g f f x I U ' @.6.7.e.=.v = X . . . X q K T 5.5.4.o.o.4.4.4.S.K.P.>XeXrXyXdXgXgXgXgXgXgXhXhXzXhXjXjXlXdX4.Y ~ x t t : % % t B B h i i ; @ @ * ; * %                              . ...Y.Y.Y.Y.Y.Y.Y.-X#X=XUXUXnXnXUXDXFXJXPXJXJXJXJXPXPXPXJXHXMXMXAXSXSXSXDXSXAXAXAXMXMX$Xf.Z.$X$X$Xf.X.X.                                                                                                                                                                                                            ",
"                                                                                                                                                                                                                                                                                                                                                                                                                          O . . . . . . . . . . . . . . X . o 1 i C F D D D D B B x h h h h h i i i i 4 4 i i 4 5 5 5 4 g g i i y y f k b ~ _ @.@.7.e.x.x.c X . . . . X X - e 7.7.2.,.,.,.T T ,.3.o.4.A.P.>XeXdXdXgXgXgXgXgXgXzXjXjXjXkXdX4.P L u * * o + o : B Z N i 3 ; @ @ * * % $                           X.X. ...Y.Y.Y.Y.Y.Y.Y.Y.L.#X=XBX*X*XMXBXMXUXHXDXJXJXPXPXJXJXJXHXMXmXAXDXSXDXSXAXNXUXmXg.f.h.h.m.$X$X$Xf.X.X.                                                                                                                                                                                                            ",
"                                                                                                                                                                                                                                                                                                                                                                                                                          . . . . . . . . . . . . . . X @ 1 i M C D S D D D B B B M h h h h g i i 4 5 5 4 4 4 4 5 5 5 4 M M g i y y f c ~ +.+.#.1.6.6.+.&.z X . . . . X X $ - L Y l e 9 q w w e r d J T G.).oX>XeXrXrXyXyXyXgXjXjXjXjXkXsX4.K c t * + . X + : B B h i 2 ; o + @ * $                             X.n  ...Y.*XY.Y.Y.Y.Y.Y.#X=X*X*XY.$X$X$XY.*XCXJXIXIXIXPXJXJXJXDXHXHXDXDXDXSXAXAXNXUXMXf.h. . .f.Y.Y.Z.h.n n                                                                                                                                                                                                             ",
"                                                                                                                                                                                                                                                                                                                                                                                                                          O . . . . . . . . . . . . . O ; 3 m B D D D D D B B B B M M M h h g i i 4 5 5 5 4 4 4 4 5 5 4 N M h g g j Q ~ +.@.@.9.6.@.Q 9 o X . . . X o + X X . 8 k 9 X . . X X X X X $ w K R E A.oX>X>XqXtXtXiXjXjXjXjXkXsX<.w 9 o X X . X @ 3 M M h i y * + . . *                               n a  ...Y.*X*XY.Y.Y.Y.-X=XsX=XY.Y.Y.Y.Y.*X*XCXDXIXIXJXDXDXJXJXFXDXDXDXDXDXSXUXnX$XBXMX . .X. ...m.Y.m. .n n                                                                                                                                                                                                             ",
"                                                                                                                                                                                                                                                                                                                                                                                                                          O . . . . . . . . . . . . . O * 3 M B B B B B B B x M M M B M h h g i 4 4 5 5 5 4 5 2 2 2 5 5 4 g g g j x ( *.=.7.7.7.8.Q 8 X . . . . * : = $ X . . o 9 0 o . . . . . . . . X X $ 7 r o.S.K.OX>XqXgXjXjXjXhXfX0X! $ X . . . . . * 2 h M N g i * . . . *                               a t W ..Y.*X*XY.Y.Y.Y.-X=XfXsX#XY.Y.-XY.*X=X0XCXHXDXHXHXDXFXFXDXDXHXAXAXAXUXnXh.X.Z.Y.X.X.X.X...Y.Y.Z.h.n n                                                                                                                                                                                                             ",
"                                                                                                                                                                                                                                                                                                                                                                                                                          O . . . . . . . . . . . . . O @ 3 M B B B B B B M M B B B B M M h i 4 4 4 5 2 5 5 2 2 2 2 1 1 5 y y j x I ~ 6.6.w.0.w.l.x . . . . . % V V v w $ . . . X X X X . . . . . . . . . . X $ 7 J E K.OXbXgXjXjXlXdXJ.y.u . . . . . . . + * y m N g i * . . . 2                               p 7 a ..Y.*X*XY.Y.Y.Y.-X#X=XwXsXfX*XD.Y.=X=X^.*XUXHXDXDXHXDXDXDXHXAXAXAXUXnXf.X.X.m.m..... . ...&X$XZ.m.n n                                                                                                                                                                                                             ",
"                                                                                                                                                                                                                                                                                                                                                                                                                          . . . . . . . . . . . . . . O @ y B B B B B B B M B B M M M h h g i 3 4 5 5 2 5 5 2 2 1 1 1 1 3 y j A $.+.=.y.y.u.7.*.{ : . . . . . 9 { *.' ! 8 o + . . X o @ O O . . . . . . . . . . X 7 r A.eXtXgXjXjXlXfX5.! : . . . . . . . . o 3 i i 4 4 @ . . . 2                               t $ s  .-XY.*X*XY.Y.Y.*XY.#X=XxXfX#XD.#X=X@X^.#X*XCXDXHXCXUXUXmXmXUXAXSXAXMXf.X.f.%X%XY.m.9...m.&Xn. .h.n n                                                                                                                                                                                                             ",
"                                                                                                                                                                                                                                                                                                                                                                                                                          O . . . . . . . . . . . . . O + 2 C D D B B D B x B M M h h g g i i 4 3 2 2 2 2 5 2 2 1 5 4 i h B ^ { =.=.0.u.i.i.q.v ; . . . . . X q ' =.<.` v 8 & $ X + @ ; @ @ . . . . . . . . . . $ d R oXdXgXhXjXjXkXsX,.x * . . . . . . . . O @ * * @ * o . . . 2                               = $ 7 X.....*X*XY.Y.Y.Y.Y.L.#X=X=X#XD.L.#X#XD.~.^.*X*X*X*XMXBXNXUXAXSXHXAXUXMX .m.%X*XY.a.9.] ..XXm.n n n n                                                                                                                                                                                                             ",
"                                                                                                                                                                                                                                                                                                                                                                                                                          + . . . . . . . . . . . . . . O * D F D B B B B x x h h h g i i i i 3 5 2 2 5 2 2 2 4 g M C D [ [ { &.*.6.0.u.u.u.z.h . . . . . X 8 d T ,.3.,.,.T Y @.c % o O @ @ . . . . . . . . . X d R.oXeXgXgXjXjXjXkX2XJ % . . . . . . . . . . . @ * + o O . . .                                 = $ = s H ..*X*X-X-X-X-XD.D.D.D.OXtXtXrXtXwX#X#X#XD.D.D.Y.*XBXAXAXAXSXAXAXHXUXh. .Y.Y....... ...E.m. .n n n                                                                                                                                                                                                             ",
"                                                                                                                                                                                                                                                                                                                                                                                                                          @ . . . . . . . . . . . . . . . * S F M x B B B M h h g h g i y y 3 2 2 2 2 2 2 5 4 3 m C S [ $.{ ) ' @.6.0.r.y.z.l.y . . . . . % P Y T 4.5.A.H.J.oX8XE.7 X . . O X . . . . . . . X $ H oXtXyXpXgXjXjXhXkX<X8 X . . . . . . . . . . . @ ; + O X . . X                                 = o % = s X.Y.Y.-X-X....-XD.D.U.I.rXzXjXlXlXzXsX=X#XD.D.Y.Y.*XMXMXMXmXmXMXmXMX .X...............Y.n.h. .n n                                                                                                                                                                                                             ",
"                                                                                                                                                                                                                                                                                                                                                                                                                          + . . . . . . . . . . . . . . . * M D M B B h M M h m h g i i y 2 2 2 2 2 2 2 5 4 3 y h B S / $.( ' ' 6.0.0.u.y.=.[ * . . . . X 8 ` 3.3.5.A.K.>XrXrXfX1X<.e % @ 9 ) v w - X . . X w T 4.eXiXpXaXaXaXjXhXzX<X8 X . . . . . . . . . . . @ @ + O X . . .                                 = o $ % = s r H ..........Y...A.D.=XrXpXjXgXrXI.U.U.D.#X#XD....... .Y.*X$XY. .H R ..............Y.m.| h.h.X.                                                                                                                                                                                                            ",
"                                                                                                                                                                                                                                                                                                                                                                                                                          O . . . . . . . . . . . . . O @ ; 3 g M D D h h M M m N i i i 3 2 2 5 2 2 2 5 4 i i g z A / ( ( ) ' @.e.u.i.u.w.W * X . . . X 7 r T 4.5.K.L.K.qXgXgXgXfXsXQ.e 7 Y {.!.r._ & X + $ T 0XrXgXaXaXaXaXaXjXhXkX1Xr X . . . . . . . . . . . X O X O O . . .                                 = $ o + + $ - s  .f... .........E A.L.bXiXpXtXI.L.L.I.OX#XD...E E ..Y.*XY.Y...R ....a.S.........Y.m. .h.m.                                                                                                                                                                                                              ",
"                                                                                                                                                                                                                                                                                                                                                                                                                        . . . . . . . . . . . O O + @ 6 1 3 3 g B S D M h m m N i 4 4 4 4 3 5 5 5 5 4 4 i g h h z Q ) ( ) _ @.9.w.v.v.u.q.k . . . . X u K J ,.4.A.K.>XqXtXgXgXgXgXgXsXo.E S.>XOX@X(.d $ $ - 4.sXgXhXaXaXaXaXjXjXjXkX8Xe X . . . . . . . . . . . . . . . . . . X                                   t * + X X $ 7 | m. .X.......R R ..E U.gXjXjXiXxXgXgXxXxXdXsX1X#X#X#X#X*X*XY.D.D.Y.Y.D.-X......m.m. .h.Z.                                                                                                                                                                                                              ",
"                                                                                                                                                                                                                                                                                                                                                                                                                        O . . . . . . . . O @ @ 1 1 1 1 2 3 M B B S D m g g g i 4 4 4 4 4 5 5 4 4 4 i g M M Z B V ) *.*.] <.w.y.u.M.v.w.&.t . . . X 0 ' <.T 5.K.K.P.tXrXrXgXgXgXgXgXdXeXeXdXdXrXrXsX@.z V r 5.yXgXaXaXaXaXaXaXjXjXkX6Xw . . . . . . . . . . . . . . . . . . . X                                     ; + X . X &  .| X.H  .....R H R R D.gXlXjXjXjXlXlXlXlXZXZXZXdXsXsXwXwXsX=X#X#XY.D.-X-X-X....m.f. .h.                                                                                                                                                                                                                ",
"                                                                                                                                                                                                                                                                                                                                                                                                                        . . . . . . . . . O @ @ 1 1 1 1 1 5 M S B M h i 4 4 3 4 4 4 4 4 5 5 5 i i g N M B S / ( ' *.6.7.1.7.M.M.u.y.v.' 0 X . . . X w _ a.o.H.OXI.>XrXiXgXgXgXgXgXgXgXgXgXrXrXeXeX<XY w l J K.dXjXaXaXaXaXaXaXjXjXkX@X8 . . . . . . . . . . . . . . . . . . . X                                     = + . . X * t p a a  .....E ....T E L.=XqXqXrXgXjXzXzXxXxXxXrXxXxXxXxXxXwXL.D.-X....-XY...f.m. . .h.                                                                                                                                                                                                                ",
"                                                                                                                                                                                                                                                                                                                                                                                                                      * O . . . . . . . . O @ @ @ @ 6 1 2 5 i g y 3 2 2 5 5 5 4 4 i i i i 4 4 g N m M B D / ( &.*.6.7.0.0.p.T.T.u.w.x.A X . . . % 0 r T 4.4.K.OXI.bXrXgXgXgXgXzXgXgXgXgXgXiXrXtX>XoXE J 3.K.eXgXjXjXjXjXaXjXjXjXjXkX@X8 . . . . . . . . . . . . . . . . . . X $                                     : + X . . * 2 = = s W ......T.T.E H E D.OXbXqXxXzXzXgXtX=XtXxXgXgXgXxXxXtXL.D.D.-X-XY.Y.....f. .X. .                                                                                                                                                                                                                ",
"                                                                                                                                                                                                                                                                                                                                                                                                                      @ . . . . . . . . . O @ @ @ @ 1 1 1 1 2 2 ; 1 2 2 2 5 5 i i N N N N N N m m M B B A ) ' +.6.0.0.u.t.t.F.T.u.6.l.h . . . . p | U 3.S.D.L.qXqXbXtXgXgXgXzXzXzXhXzXzXzXgXgXgXgXfXeXeXfXfXkXjXjXjXjXjXjXjXjXjXjXkX5Xw X . . . . . . . . . . . . . . . . X + %                                     9 $ + . . * ; % % - a W P P ..4.E E o.U.OX=X=XxXzXzXgXtXqXrXxXxXrXxXxXxXxXwX#X#X-XY.Y.Y....... . .h.                                                                                                                                                                                                                ",
"                                                                                                                                                                                                                                                                                                                                                                                                                      O . . . . . . . . O O @ @ @ @ , @ * * 1 2 1 2 3 4 i i i g g m M M M M m M M B B D ) ( ' O.1.r.y.i.i.t.F.T.v.! z * . . . X B :.<.p.^.J.OXtXtXtXrXgXgXgXgXzXjXjXjXjXkXkXjXjXlXlXlXkXzXkXjXjXjXjXjXjXjXjXjXjXjXkX5Xw X . . . . . . . . . . . . . . . . X * 9                                     t % X . . o * * o % 9 a a s H E U.L.I.I.OXbX=XxXgXxXxXrXtXtX=XI.I.I.qXtXrXwXOX#X#X#X#XY...X. . .f.                                                                                                                                                                                                                  ",
"                                                                                                                                                                                                                                                                                                                                                                                                                    . . . . . . . O . O O @ @ @ @ @ 6 6 @ ; 1 2 2 2 4 i i g h h h M M M B M M B B B S ^ ) ( +.@.7.y.y.i.t.t.i.T.v.v X . . . . X u ' ` 4.S.K.I.rXrXrXyXgXgXgXgXzXjXkXkXkXkXkXkXjXjXlXkXjXkXkXkXjXjXjXjXjXjXjXjXjXjXkX6Xs X . . . . . . . . . . . . . . . . X * y                                     t % X . . + + o o % 9 a a s R A.I.=X=X=X=XI.=XxXxXtXqXwXtX=XI.L.I.I.I.OXOXL.L.#X#X#X*XY. .X. . .                                                                                                                                                                                                                    ",
"                                                                                                                                                                                                                                                                                                                                                                                                                    . . . . . O O # # # @ @ @ @ @ @ 1 1 1 1 1 2 5 4 i i g h m h h M B B B B B B B A ^ ) ~ ' @.9.0.u.i.t.t.t.t.b.z.k . . . . . X = Y J E A.A.L.eXrXrXyXiXpXpXgXzXkXlXlXlXlXlXlXlXlXlXlXlXlXkXkXjXjXjXjXjXjXjXjXjXjXkX1Xr $ X . . . . . . . . . . . . . . O O @ 2                                       = X . . . + X o % 8 L W a E D.bXbXI.I.L.L.I.=XOXI.U.U.I.I.L.L.I.I.L.OX#XD.D.#X#X*XY... . . .h.                                                                                                                                                                                                                    ",
"                                                                                                                                                                                                                                                                                                                                                                                                                  . . . . . O O O @ @ @ @ @ 1 1 1 1 1 1 1 2 5 4 i i g g m M M h z B V V V B B B x A / ( ( +.=.0.r.u.t.t.t.t.y.u.*.> . . . X * 9 a U R E J.K.I.rXrXrXyXyXiXgXgXhXkXlXlXlXlXlXlXlXlXlXlXlXlXlXlXlXlXlXlXlXlXlXlXjXlXlXsXE l = . . . . . . . . . . . . . . . + + o =                                     i X . . . X X o = w ! ] L R U.bXbXI.I.I.L.I.I.I.I.U.U.L.L.K.L.L.K.U.P.#XD.D.^.*X*Xa. . . .h.f.                                                                                                                                                                                                                    ",
"                                                                                                                                                                                                                                                                                                                                                                                                                  . . . . . O O @ @ @ @ @ @ 1 1 1 1 1 2 2 5 4 i i g g h m m B B Z V D D A B B x x B Q ) _ @.6.0.r.p.y.t.i.i.u.*.u X . . . % x Q ! _ T 4._.P.>XrXrXrXyXyXyXpXgXgXzXkXlXlXlXlXlXlXlXlXlXlXlXlXlXlXlXcXcXcXcXcXcXcXcXcXfX@Xb.u . . . . . . . . . . . . . . . O + + *                                       X . . . X X $ = w ] ' J H E qXqXbXqXqXqXqXrXrXqXOXOX=XOXI.I.I.K.U.L.K.A.a.a.a... .W X. . .                                                                                                                                                                                                                      ",
"                                                                                                                                                                                                                                                                                                                                                                                                                X . . . . O O @ @ @ @ @ 1 1 1 1 1 5 2 5 4 4 i i g g h h m M B D S D D D A V B A A Q ( +.*.6.0.0.0.r.p.u.u.u.x.( % . . . . % W ! U _ T 4.oXP.>XrXyXrXrXyXrXpXgXgXgXzXkXlXlXlXlXlXlXcXlXlXlXlXlXlXcXcXcXcXcXcXcXcXcXcXzX>XS.q . . . . . . . . . . . . . . + @ O O :                                       . . . . X X = 9 w ~ ` J H o.OXI.bXtXrXtXrXxXxXxXrXrXrXwX>XOXwXOXL.L.G.4...U H H W  . .|                                                                                                                                                                                                                         ",
"                                                                                                                                                                                                                                                                                                                                                                                                                O . . . . O # @ @ @ @ ; 1 1 1 2 5 5 3 4 i i i g g h h h M M B S S S A V A S S / / $.&.=.6.6.7.7.0.0.r.p.u.e.~ k X . . . . = W ! U ` E 4.oXP.>XrXyXrXyXyXrXiXgXgXgXgXzXkXlXlXlXlXlXlXcXlXlXlXcXcXcXlXcXcXcXcXcXcXcXcXzX1X!.u . . . . . . . . . . . . . . @ @ O O *                                       * : + . X $ 9 u w ~ y.7.] ] 3.E U.qXrXtXrXrXrXrXrXrXrXqXL.I.eXwXP.J.S.3.U H a a X.| m.                                                                                                                                                                                                                          ",
"                                                                                                                                                                                                                                                                                                                                                                                                              + O . . . O O @ @ @ 1 1 1 2 2 5 4 4 4 g g h h g g h m h h M B A S S S V V ^ / { $.$.$.+.*.*.6.6.7.0.r.r.r.u.*.> X . . . . . 7 P Y T ` E o.oX>XqXyXyXyXrXrXrXyXgXgXgXgXhXkXkXlXlXlXlXlXcXcXcXcXcXcXcXcXlXcXcXcXcXcXcXlXgX2X|.u . . . . . . . . . . . . . O @ @ O O @ 3                                         * . X X t z e U w.n.8.v r r E >XrXtXtXtX=XbXI.I.I.L.U.K.eX1XJ.A.a.` L a a a X. .                                                                                                                                                                                                                            ",
"                                                                                                                                                                                                                                                                                                                                                                                                              O . . . . O O @ @ @ 1 2 2 4 i i g g N m m m m h h h h h M B B D S S S A ^ ( { $.$.$.( ( +.@.6.7.7.r.p.i.w.z.-.% . . . . . X 8 P R R E o.A.>XqXeXrXyXyXyXrXrXyXiXgXgXhXzXzXkXkXkXlXlXlXlXcXlXlXcXcXcXcXcXlXcXcXcXcXlXlXeXoX`.t . . . . . . . . . . . . . . , , @ O o *                                         * X X X = u e r P ] W a t s R OXrXqXqX=XI.I.I.I.I.L.D.J.0X+X3.` ..] a a n  . .                                                                                                                                                                                                                              ",
"                                                                                                                                                                                                                                                                                                                                                                                                            O . . . . . O O @ @ 1 2 4 i g N N N m m m M M M m m M M B B B D S S S ^ / ( { $.$.$.( ( ~ +.6.7.0.p.t.i.E.6.) B + . . . . o 9 J ` o.o.H.P.OXeXtXtXrXyXiXyXyXyXyXyXiXgXgXhXzXzXkXkXkXlXlXlXlXlXlXcXcXcXcXcXlXlXlXlXlXlXkX@XE c o . . . . . . . . . . . . . O 6 , @ O + *                                         % X X X & 9 q w r a a p t s R P.qXI.OXOXP.OXOXqX>X#X4.R <.T H r a a s a W  .                                                                                                                                                                                                                                ",
"                                                                                                                                                                                                                                                                                                                                                                                                            . . . . . . O o @ * 2 4 i g m M M M M M M M M M h M B C D S S S ^ [ / / { { { $.&.+.( ( *.6.w.r.y.F.G.G.Q.' $ . . . . . . * L T 4.A.D.OXqXwXtXtXtXtXrXyXyXyXyXyXyXiXiXgXgXzXzXjXkXkXjXjXlXlXlXlXlXlXcXcXlXlXlXjXzXgXdXsX3.- X . . . . . . . . . . . . . . O 1 5 , + O o                                           X X X % q c L L L W W W P 3.oXwXI.L.K.L.P.OXwX1X@Xa.H w w 8 7 7 & & n  .                                                                                                                                                                                                                                  ",
"                                                                                                                                                                                                                                                                                                                                                                                                          O . . . . . . O @ 1 1 2 4 i g h M M M M M m m m h M B B C S S D A S ^ [ [ { { ( ( ( ) ~ +.q.w.y.s.F.!.~.R.'.( X . . . . . . = L Y E A.A.I.qXtXtXtXtXtXtXyXiXyXyXyXyXiXiXiXgXgXhXzXjXkXjXjXjXlXlXlXlXlXlXlXlXlXjXjXzXdXoXi.q . . . . . . . . . . . . . . . . @ 1 5 , O O o                                             * o X f -.| ! L W W ] 9.S.1XeXOXL.L.oXOXwXsXsXsX X8.} Z t = 9 7 9                                                                                                                                                                                                                                       ",
"                                                                                                                                                                                                                                                                                                                                                                                                          O . . . . . O o @ 1 3 i g g h h M M M M m m m h M B B B B B B B B V S S ^ / ) ) ) ) ( +.=.z.v.i.T.R.~.).R.'.&.+ . . . . . . % k r R A.U.OXqXtXtXtXtXtXtXrXyXiXiXiXyXiXiXiXiXgXgXhXjXjXkXkXjXlXlXlXlXlXlXlXjXjXkXgXeX1X2.l X . . . . . . . . . . . . . . . . @ 5 5 6 O O +                                               o X 9 / ) L L H r J ` S.oX@XoXoXoXoXoX<X2X1X0X@X8.) Z t 9 t a z                                                                                                                                                                                                                                       ",
"                                                                                                                                                                                                                                                                                                                                                                                                          . . . . . . o * ; i m m M M h h h h h m m m m h B B B B B B B B V A S S S ^ ) ) ) ) &.=.q.v.u.i.T.(.(.).Q.N.( X . . . . . . % 0 w R A.U.>XtXtXtXtXtXtXtXtXrXiXiXiXiXiXiXiXiXiXgXhXjXjXkXlXkXlXlXlXkXjXjXjXjXzXzXwX4.R 7 . . . . . . . . . . . . . . . . . . @ 4 4 6 O O + 2                                             X . X = = w K U ` ..3.4.S.~._._._.~.S.4.E 3.S.u.] a p t 7 s W                                                                                                                                                                                                                                         ",
"                                                                                                                                                                                                                                                                                                                                                                                                        O . . . . . O @ i g m M M M x h g h h h h M M B C S F F S D D B B A S / / ) ) ) ( $.+.=.q.w.u.u.t.!.}.).}.'.=.9 . . . . . + * 3 t w P 4.A.>XeXtXtXtXtXtXtXtXtXrXiXiXiXiXiXiXiXiXiXgXzXjXkXkXlXlXjXjXjXjXjXjXzXzXfX0X` & . . . . . . . . . . . . . . . . . . . @ g 4 1 O X + 2                                             o . X X $ 7 U y.XX7XXXA.A.S.).).).).S.R r H ] 9.! a p p p a                                                                                                                                                                                                                                           ",
"                                                                                                                                                                                                                                                                                                                                                                                                    + + . . . . . . O @ g M M M x h j g h j h x B B B D S F [ [ ^ ^ S A A A ^ / ( ) ) ( &.*.*.q.w.w.i.y.t.~.+X).}.`.^ X . . . . . ; i i u 8 w P E oXeXeXtXtXtXtXtXtXtXyXiXiXiXiXiXiXiXiXiXiXgXjXjXkXlXkXjXlXjXjXjXjXgXrXsX7X_ $ . . . . . . . . . . . . . . . . . . . @ g g 1 @ O O ;                                             $ X X X $ 8 ] u.!..XT.a.a.S.~.Q.Q.Q.b.` L W | | x p t a W  .                                                                                                                                                                                                                                          ",
"                                                                                                                                                                                                                                                                                                                                                                                                  + . . . . . . . O O o g m h j j g h h x B V S D S S S S S ^ / / / ^ Q ^ / / ( $.+.+.*.=.8.q.w.v.v.u.t.R.}.+X).Q.*.: . . . . . + 2 i i p 9 = 8 d t.H.OXeXtXtXrXtXtXtXyXiXiXiXiXiXiXiXiXiXiXgXhXzXkXkXlXlXlXjXgXgXgXI.U.oXE.e X . . . . . . . . . . . . . . . . . . . ; M m 5 @ O O 1                                             $ X . . o 9 ' v.T.E.a.3.a.a.5.a.` ` ` ] ! c k 8 & = 9 a } j.                                                                                                                                                                                                                                          ",
"                                                                                                                                                                                                                                                                                                                                                                                              + + O O . . . . . X o + + y g f f h B B B V S S ^ ^ ^ ^ ^ ^ ^ ^ ^ ) / ) ) ) ( ( &.&.=.=.6.q.w.w.w.u.i.i.(.}.+X@X(.b.V X . . . . . o i p p u 9 & & 8 d J 4.wXeXeXrXrXtXtXrXrXiXiXiXiXiXpXpXiXiXpXgXzXjXjXjXjXjXgXpXiXrXK.E A.7.7 X . . . . . . . . . . . . . . . . . . . 3 S S m 1 @ . 1                                             % . . . o = u L ] y.a.` 2.a.4.3.R J R ` U r w 8 9 7 9 w c |                                                                                                                                                                                                                                           ",
"                                                                                                                                                                                                                                                                                                                                                                                            X X . . . X X X X . o : : : t f z B A S ^ ^ / [ [ ( ( ) ) ) ) ) / / / ( ( ( ( $.( &.;.q.q.q.w.w.w.y.y.y.s.).+X+X}.T._ 0 X . . . . . + 3 t t u t 9 9 u z e ` ).oX>XeXrXtXtXtXrXrXiXiXiXiXpXpXiXiXpXpXgXgXgXgXgXgXpXpXpXgXqXI.1X{.e X . . . . . . . . . . . . . . . . . . X i { [ C g 5 @ * ;                                           % X . . + o % $ 7 r P R 2.p.S.S.S.5.S.!.S.2.` ' ~ c 8 & 8 a                                                                                                                                                                                                                                           ",
"                                                                                                                                                                                                                                                                                                                                                                                          O X . . . . X * 3 ; % : g h z z z c A Q ^ ) / { { { $.( ( ( ( ) ( ( ( $.&.&.&.&.+.' +.8.q.w.w.w.w.y.w.r.y.t.J.}.).(.y.8 X . . . . . . + * ; t u u u h B B u e T E A.wXdXrXrXrXrXyXiXiXiXiXiXiXiXiXiXiXpXpXpXpXpXpXpXpXpXgXgXyXdX7XL . . . . . . . . . . . . . . . . . . . X u { ^ h y 3 @ @ o X                                         & X X + + * @ $ - s H R r.S.S.~.@X@X+X+X).T.y.7.8.) 9 $ - w                                                                                                                                                                                                                                           ",
"                                                                                                                                                                                                                                                                                                                                                                                        O . . . X o * ; y M B x V A A V c c b Q Q Q Q Q ) ( ( ( ( ( ~ ( ( ( ' +.+.+.&.*.*.*.*.=.q.q.w.w.w.y.y.y.y.F.F.R.(.(.b.8.% . . . . . . . X * = t u u f z B V z k v P 5.2XsXdXrXyXrXyXyXiXiXiXiXiXiXiXiXiXiXiXpXiXiXpXpXpXpXpXpXyXdX6XL . . . . . . . . . . . . . . . . . . . o t ( Q t : 4 ; @ X X                                         & X o o * 2 : % w ! ..r.S.T.G._.sXsX8X<X@X^.i.7.9.Q 8 $ $ 9                                                                                                                                                                                                                                           ",
"                                                                                                                                                                                                                                                                                                                                                                                      o . . X X * i m h g B S ^ ^ / ^ Q Q Q Q Q I I I I Q Q ~ ~ ~ ~ ' +.+.+.+.+.@.+.+.*.=.;.8.q.w.w.w.w.w.y.u.y.T.(.(.^.Q.w.v p X . . . . . . . : y g h M B V V ^ ) ) W l l Y r.S.J.>XeXrXrXyXyXyXyXrXyXrXiXyXyXyXiXiXiXiXpXpXpXpXpXpXiXdX+Xl . . . . . . . . . . . . . . . . . . X % 0 ) ) z u h 5 @ . .                                       u - X $ $ * 3 : & v w.b.T.T.!.G.).sXfXsX1X@XXXr.<.' x & X % 0                                                                                                                                                                                                                                           ",
"                                                                                                                                                                                                                                                                                                                                                                                    + . . . O @ 3 g M h h B S S S A V A A V V c v k k k v c c A Q Q ~ _ +.+.*.*.@.@.*.*.;.q.q.w.w.e.w.w.y.y.y.t.Q.(./.Q.b.! $ . . . . . . . . + g V V V A Q Q Q ) ' @.~ v k 8 w d T _.1XqXeXrXrXyXrXrXrXrXrXrXrXyXiXiXiXpXpXpXpXpXpXpXgXsX).e . . . . . . . . . . . . . . . . . . % 0 v | { V z M i @ . .                                       u - $ $ $ = t = $ k 9.i.T.T.T.S.J.1X1XoXH.G.S.,.I c u $ X % p                                                                                                                                                                                                                                           ",
"                                                                                                                                                                                                                                                                                                                                                                                  O . . X + * 4 i N B C B S [ S B g t t 9 : ; * % % % % % % * % % & q k I +.*.=.*.=.=.=.8.8.q.e.e.0.0.0.0.u.s.T.R.R.Q.i.U u X . . . . . . . . X q L P L I I P P _ ` O.` _ L w 9 q d 0.S.H.oX1XeXrXrXrXrXrXrXrXrXrXiXiXpXpXpXgXgXgXzXzXgXdX{.w . . . . . . . . . . . . . . . . . . = z Q *.&.^ B M N @ . .                                       w - $ % % = p t = k 6.y.i.T.R.G.J.1X1X_.A.4.,.P e e = X X - a                                                                                                                                                                                                                                           ",
"                                                                                                                                                                                                                                                                                                                                                                                O . . . @ 1 i N m M B C M g i i i * + + . O O . . . . . . . . . . X 0 z A -.k.8.8.8.8.8.q.q.q.0.0.0.0.7.0.M.{..X!.t.i.O.& X . . . . . . . . . X l ` ` ,.O.,.,.,.,.,.3.,.3._ d 8 8 $ > 8 r ` 5.A.>XrXrXrXrXrXrXrXrXiXiXpXgXzXhXjXjXjXzXfX8XB.; . . . . . . . . . . . . . . . . . . 8 ) ' *.&.) Z M N @ . .                                       u $ $ - % 9 z z a v _ 9.y.S.R._.oXsXfXsX_.S.,.K a 0 $ X X - a                                                                                                                                                                                                                                           ",
"                                                                                                                                                                                                                                                                                                                                                                              O . . . . @ 2 2 2 i N i 2 o + . . O O . . . . . . . . . . . . . . . X @ * : p z z z c ( 8.l.q.e.w.w.w.w.w.0.i.Q.{.(.F.T.@.$ . . . . . . . . . . X Q 7.5.t.S.S.S.F.S.S.S.S.5.2.T d q 9 % % & e ,.F.<XsXsXrXeXtXtXrXrXrXiXgXgXgXgXgXgXgXkX1XT k X . . . . . . . . . . . . . . . o : > c *.*.*.*.) Z M N @ . .                                       w - $ & = t z V ^ ) P P T ,.5.oX1XsXZXfX<X^.9.P v t o . X % a                                                                                                                                                                                                                                           ",
"                                                                                                                                                                                                                                                                                                                                                                            + . . . . . + @ @ @ @ @ * + . . . . . . . . . . . . . . . . . . . . . . . . . . X X X % f -.l.q.w.w.u.u.u.u.y.p.F.(.).^.Q.q.% . . . . . . . . . . . 0 K T 5.5.A.S.A.S.H.G.G.S.S.r.,._ L 8 * * & e @.5.G.oXK.L.I.I.I.OXqXqXrXrXrXrXrXrXrXsXa.$ X . . . . . . . . . . . . . . . . : A Q &.*.@.*.*.) Z B N @ . .                                       w $ $ = = t z W { ' K d R R 4.oX1XsXZXfX<X/.9.L a : X . X % p                                                                                                                                                                                                                                           ",
"                                                                                                                                                                                                                                                                                                                                                                          . . . . . . . . . . . . . . . . . . . . . . . . . . . . . . . . . . . . . . . . . . . . . % h c ) 8.x.v.v.v.v.u.p.F.(.).(.{.c.= . . . . . . . . . . . . X e 3.4.5.A.A.A.A.S.H.S.S.S.S.p.7.) k : % % u e P T R o.H.J.L.L.I.I.qXtXrXrXrXrXeX<XI . . . . . . . . . . . . . . . . . . 9 ) ' *.@.@.*.*.( V B i @ . .                                       0 % % = = t z W ) ) _ O.r.t.G.oX:XeXfX8X~.p._ v u o . . X % p                                                                                                                                                                                                                                           ",
"                                                                                                                                                                                                                                                                                                                                                                          . . . . . . . . . . . . . . . . . . . . . . . . . . . . . . . . . . . . . . . . . . . . . . X $ t { &.*.v.v.u.u.u.T.(.).(.{.8.$ . . . . . . . . . . . . . : +.1.r.A.A.A.S.S.S.S.S.S.S.i.b.7.v q ; 3 3 : z W ! <.E.XX_.oXoXoXwXeXwXeXsXeXsX7Xc . . . . . . . . . . . . . . . . . $ c &.@.+.` @.6.*.{ B M i o . .                                       0 % % % = 9 a W ) ~ _ y.Q.).<X1X1XwXfX8X~.2._ ) ^ 2 . . X % t                                                                                                                                                                                                                                           ",
"                                                                                                                                                                                                                                                                                                                                                                        O . . . . . . . . . . . . . . . . . . . . . . . . . . . . . . . . . . . . . . . . . . . . . . . . o t t q =.B.b.i.i.F.~.(.(.{.v.= X . . . . . . . . . . . . . = q ,.S.A.A.A.5.5.A.S.S.S.t.i.r._ Q z h 3 o @ * * 8 k v K P Y T 5.S.4.A.G.5.5.q.t . . . . . . . . . . . . . . . . X - v @.@._ _ @.=.=.{ z h i o . X                                       t % $ % = t a W ) _ @.b.^.).0X2X1XwXsX0X).i.] { %.N . . X $ t                                                                                                                                                                                                                                           ",
"                                                                                                                                                                                                                                                                                                                                                                        + . . . . . . . . . . . . . . . . . . . . . . . . . . . . . . . . . . . . . . . . . . . . . . . . . . X % Q x.N.M.F.F.R.~.~.{.E.v & X . . . . . . . . . . . . . X K p.5.5.4.4.4.5.p.5.5.p.t.p.7.6.&.( z * X . . . . . X X $ $ l U K U @.Y k u + . . . . . . . . . . . . . . . . > k K ] @.@.] ' *.&.^ h i 5 o . X                                       t % $ % p z x ) ' _ 2.T.S.G.<X1X>X2XsX<X^.y._ W D i . . X $ 0                                                                                                                                                                                                                                           ",
"                                                                                                                                                                                                                                                                                                                                                                        + . . . . . . . . . . . . . . . . . . . . . O O O O . . . . . . . . . . . . . . . . . . . . . . . . . . . X V c.M.i.F.G.R.R.R.T.0.=.t . . . . . . . . . . . . . . & Y ,.a.4.4.4.4.p.p.p.S.t.t.t.r.1.@.) v t + . . . . . . . X : y t u h g : + . . . . . . . . . . . . . . . . o x &.+.] @.@.&.' ( / B i 4 1 + . X                                       u % X = ^ } ) ;.6.<.p.S.4.A.oXOXoX>X8X).5.<.! v t * . . X $ 0                                                                                                                                                                                                                                           ",
"                                                                                                                                                                                                                                                                                                                                                                        X . . . . . . . . . . . . . . . . . . . . . O O O O O O . . . . X . . . . . . . . . . . . . . . . . . . . . % c ~ u.!.R.R.!.G.F.M.N.c X X . . . . . . . . . . . . . - d 1.r.3.3.3.5.t.S.!.R.G.S.t.r.7.<.' c & X . . . . . . . . . . . . . . . . . . . . . . . . . . . . . . . * Q =.*.] ] ] ~ ) V h y 3 2 * + X $                                       p % X = V W Q *.e.i.F.G.A.H.@X@XoXoX1X^.3.Y ! c 9 + . . + $ t                                                                                                                                                                                                                                           ",
"                                                                                                                                                                                                                                                                                                                                                                        . . . . . . . . . . . . . . . . . . . . . . O O O O O O O O O O O O O O . . . . . . . . . . . . . . . . . . . o 9 ( 6.0.T.!.F.G.T.N._ k 9 . . . . . . . . . . . . . X 7 P 2.4.4.4.5.S.H.^._.~.G.G.t.p.7.6.! w = X . . . . . . . . . . . . . . . . . . . . . . . . . . . . . . % Q =.*.] _ ! I c f 9 * * @ o X %                                         9 % $ & p a v _ 9.T.(.~.^.oX@X@XoXoXoXQ.3.U | ) y X . . + $                                                                                                                                                                                                                                             ",
"                                                                                                                                                                                                                                                                                                                                                                        . . . . . . . . . . . . . . . . . . . . . . . O O O O O O O O O O O O O O O O O . . . . . . . . . . . . . . . . X o & e w.T.F.!.R.Q.b.b.*.% . . . . . . . . . . . . . X 7 ` t.G.S.S.S.H.^.oX^.H.G.S.t.p.a.9.U W > . . . . . . . . . . . . . . . . . . . . . . . . . . . X % % - c ] _ _ ` +.' ) z t * o X + $                                           9 - $ - w e L U ` R.+X_.oXoXoXoXoX~.S.r.` _ ;.j.Z * O + * %                                                                                                                                                                                                                                             ",
"                                                                                                                                                                                                                                                                                                                                                                        . . . . . . . . . . . . . . . . . . . . . . . . . . O O # # @ @ @ + + # @ @ @ @ # O O O . . . . . . . . . . . . . . X > *.e.y.M.T.Q.Q.{.v.w $ X . . . . . . . . . . . . $ _ b.Q.~.J.H.K.K.J.J.K.A.S.S.5.a.2.` *.h . . . . . . . . . . . . . . . . . . . . . . . X ; % $ 0 Q Q l ~ _ _ @.q.z.l.$.M y * + X $                                           V w - $ - s a W ! T Q.0X<X<X1XOX@XoXJ.S.R J K ( { D * X o t p                                                                                                                                                                                                                                             ",
"                                                                                                                                                                                                                                                                                                                                                                        . . . . . . . . . . . . . . . . . . . . . . . . . . . O O @ @ @ @ @ @ @ @ @ @ @ @ @ O O O O O O . . . . . . . . . . . X ; q ' w.u.T.Q.Q.i.O._ _ v t 1 . . . . . . . . . . = q T R.oXJ.K.K.L.oXoXJ.S.S.5.5.4.3.w.V X . . . . . . . . . . . . . . . . . O O O O . = A c k ~ 8.@._ 8.e.6.6.z.c.j.[ p * * o *                                           p 0 9 7 7 9 u a W L P i.,X<X<X<XoXoX^.G.t.T J K W z t o . X p                                                                                                                                                                                                                                               ",
"                                                                                                                                                                                                                                                                                                                                                                          X . . . . . . . . . . . . . . . . . . . . . . . . . O O @ @ @ , , , 1 1 1 1 1 1 1 @ @ @ 1 1 1 @ . . . . . . . . . . . . X u c U w.M.T.F.i.i.y._ Q M . . . . . . . . . . . . 9 M.}.oXoXoXoXoXoXoXJ.S.A.5.5.r.z.z . . . . . . . . . . . . . . . . . . O @ o X X w ' +.@.7.w.6.9.w.v.6.' &.-.{ Z = o o o :                                           & & - 9 0 0 p a c v r P ` ,.3.3.4.S.G.S.a.` _ W a 9 o + . o p                                                                                                                                                                                                                                               ",
"                                                                                                                                                                                                                                                                                                                                                                            + X . . . . . . . . . . . . . . . . . . . . . . . O O # @ , 6 5 4 4 4 4 4 4 4 4 5 5 5 5 5 2 * . . . . . . . . . . . . . . . = L _ ,.p.t.t.4.T U L & $ X . . . . . . . . . % U 0.~.oXOXOXOXOXOXoXJ.A.S.S.y._ = . . . . . . . . . . . . . . . . O O @ o o $ X e #.1.6.0.w.y.w.w.v.=.Q x p y : $ o % =                                             & $ & 9 p p p a Z Z 9 - 7 7 7 r T 5.!.i.,.T ! x = o + X . X w                                                                                                                                                                                                                                               ",
"                                                                                                                                                                                                                                                                                                                                                                            * O X . . . . . . . . . . . . . . . . . . . . . . O O O @ @ 1 1 5 5 5 4 4 4 4 4 4 4 5 5 5 1 @ o O O O + o @ O . . . . . . . X 0 d _ <.2.r.4.4.p.i.<.] a & $ X . . . . . . . X 8 r.<X1XOXOXOXOXoXoXA.A.S.7.w X . . . . . . . . . . . . . . . . O @ @ ; f c l U 1.7.0.7.0.w.e.q.l.| c u = X X X $ 9                                               $ X $ 9 u p p a x V q e l J R ,.a.t.F.i.1.U L t o + X X X $                                                                                                                                                                                                                                                 ",
"                                                                                                                                                                                                                                                                                                                                                                              + . . . . . . . . . . . . . . . . . . . . . . . . . . O O @ @ @ 6 1 1 5 5 5 4 4 4 4 5 5 2 2 2 2 2 2 5 4 i 4 @ + X . . . . . o > x l r T a.5.S.S.p.t.a.,.` I 8 X . . . . . . X _ R.+X@XOXOXOXoXoXA.A.t.@.- . . . . . . . . . . . . . . . . . + ; : k +.6.1.1.0.0.0.1.9.6.*.&.Q a t = o . . X $                                                 X X $ 9 w u p a z c ! i.(.~._.~.H.S.t.r.Y l u % X . X o t                                                                                                                                                                                                                                                   ",
"                                                                                                                                                                                                                                                                                                                                                                              O . . . . . . . . . . . . . . . . . . . . . . . . . . . . . . . . O @ 1 5 4 G 4 G g 4 5 2 4 i i i i g N m N 4 ; o X . . . . . + $ $ 8 ! 7.i.S.S.A.S.H.H.G.t.<.e $ . . . . . . & K i.}.oXOXOXoXJ.o.4.t._ $ . . . . . . . . . . . . . . . . . @ 2 0 l =.w.0.0.0.1.1.1.6.*.' Q q & % + . . . X                                                   X . $ = 9 0 p a v L @.R.<X1X:XoXH.A.t.2.d 7 % X . . . %                                                                                                                                                                                                                                                     ",
"                                                                                                                                                                                                                                                                                                                                                                              . . . . . . . . . . . . . . . . . . . . . . . . . . . . . . . . . O @ 1 1 1 5 1 5 5 1 1 5 4 3 i i 4 i i g h g y 3 3 2 * + . . . X X * u z v T 5.S.A.K.J.K.H.i.e.) V x : X . . . X l ,.G.oXoXoXoXA.5.p.! X . . . . . . . . . . . . . . . . . @ i u l *.w.6.6.1.#.#.@.*.&.) z 8 % X . . . o                                                   t X . $ = 9 t 0 w l ! ` 3.H.J.P.J.K.S.S.1.e & $ . . . X $                                                                                                                                                                                                                                                     ",
"                                                                                                                                                                                                                                                                                                                                                                            o X . . . . . . . . . . . . . . . . . . . . . . . . . . . . . . . . . . O . O O . X X . O 4 i 4 4 4 3 y i h B B h h M B m 3 * @ + X . . X X X e i.G.K.K.J.J.G.!.E.v.z.l.A 9 % . . . X & T R.+X@XoXA.A.t._ X . . . . . . . . . . . . . . . . . @ i h c *.6.=.@.+._ _ ' ) Q u 8 % o X . . . *                                                   9 X . $ t u u u w l _ ,.E E o.4.A.S.p.r.#.d w : o . X X 7                                                                                                                                                                                                                                                     ",
"                                                                                                                                                                                                                                                                                                                                                                            @ . . . . . . . . . . . . . . . . . . . . . . . . . . . . . . . . . . . . . . . . . . . . @ 5 4 3 2 2 y y h B B B B M B B h i y 2 @ o O . . X > _ 3.S.J.J.^.J.~.!.T.M.b.8.&.Q 9 o . . . > @.{.@X_.A.A.F.] X . . . . . . . . . . . . . . . . . @ i h V =.=.=.*._ I I ~ Q 9 & & : 2 * * ; *                                                     t X . $ u V V W k K <.p.S.A.A.A.A.4.E R U l v V i X X =                                                                                                                                                                                                                                                       ",
"                                                                                                                                                                                                                                                                                                                                                                            @ . . . . . . . . . . . . . . . . . O O O O @ @ 1 1 * @ @ @ O . . . . . . . . . . . . . . . @ 4 4 5 3 i g h D V B B B B B B B B h 3 3 2 * O . X $ w 2.~.~.G.~.~.G.G.F.T.E.E.V.x.Q X . O . - L T o.A.~.).6.X . . . . . . . . . . . . . . . . . + i M A ( +.+.+.~ Q b ) ^ z f z B C g y N                                                       = X . X u V ) | _ ` r.F.^.oXoXJ.A.o.R R T P W } F * % V                                                                                                                                                                                                                                                       ",
"                                                                                                                                                                                                                                                                                                                                                                          o O . . . . . . . . . . . . . . O O O O O @ @ @ ; 3 4 4 2 2 ; * * * @ o + X . . . . . . . . . . O o @ @ : y M D S A A A A S D B B g i h m B h i 4 * % ! ` 2.T.~.~.G.G.G.G.!.T.T.M.@.q % * X . X 7 3.}.}.@Xn.% . . . . . . . . . . . . . . . . . . * 2 9 0 9 9 w k Q ) { { [ S D C m 2 o 2                                                       = X . o t f c ) ] <.r.S.J.J.J.J.K.H.S.S.b.U l / F % =                                                                                                                                                                                                                                                         ",
"                                                                                                                                                                                                                                                                                                                                                                        O . . . . . . . . . . . . . . O @ @ @ @ @ @ @ ; * * 5 i g h h h M M B M h h y 1 @ + . . . . . . . . . . . X * h S F / / / [ [ [ D Z B B B B [ [ %.F 3 o % $ l b.T.!.!.G.G.H.G.G.T.E.M.0.@.=.A X . % c #.1.N.l.* . . . . . . . . . . . . . . . . . . . . X X X X 0 Q &.:.-.$.^ V B h 3 o . . *                                                     % . . o % % 9 c L U ` 4.5.A.A.K.J.~._.}.'.] u u 3 $ =                                                                                                                                                                                                                                                         ",
"                                                                                                                                                                                                                                                                                                                                                                      O . . . . . . . . . . . . O O @ @ ; 1 2 ; ; 2 3 2 3 i h M M B B D S ^ ^ ^ ^ S B M h y * X X X X . . . . . . . X ; h x B A S [ [ [ [ S B B B V A [ %.%.F M t % 9 ! ` y.T.T.G.G.G.G.G.T.T.!.Q.W.v.Q % X o $ - k u + . . . . . . . . . . . . . . . . . . . . X $ > w Q ;.:.:.$.[ B u y 3 * X . . *                                                     $ . . . . X = z l l J J R R E A.H.A.5.r.6.Q p = % X -                                                                                                                                                                                                                                                         ",
"                                                                                                                                                                                                                                                                                                                                                                      O . . . . . . . X O O O O o @ @ ; 1 2 4 2 3 g M M S S D B B B V V ^ [ [ [ ( ( ^ S S A x j j x f ; o . . . . . . . . . X o = h S [ [ ^ S B x x x A $.-.-.%.^ z 8 - 7 U b.M.!.~.~.~.G.!.G.!.~.(.|.%X-.o O O . . . . . . . . . . . . . . . . . . . . . . % > q L ( +.+.~ c v k f 0 : : ; * + . . o :                                                   $ . . . . . & c v K Y J H H R 5.S.4.` U v u : * o $ &                                                                                                                                                                                                                                                         ",
"                                                                                                                                                                                                                                                                                                                                                                    X . . . . O . . . O O O o @ @ @ ; ; ; : 3 3 g h B S [ [ [ ^ V V A ^ ( { &.:.*.-.&.&.$.$./ ^ ) ) Q V h : o X . . . . . . . . X * M B x B S S S A V Q $.&.:.&.{ ) c z c Q L P i..X).).~.(.(.~.~.}.;X4XV.9 o + . . . . . . . . . . . . . . . . . . . . X u A ( =.q.w.w.q._ e w 8 8 > : 0 t 3 o . . . .                                                   % . . . . . & c v Y 1.p.S.5.4.S.5.E T P k 9 o . X $                                                                                                                                                                                                                                                           ",
"                                                                                                                                                                                                                                                                                                                                                                  X . . . . O O X X X O O @ @ * ; ; ; ; : 3 y g M B S ^ { %.{ { { ( ( { &.:.;.q.q.l.q.;.;.=.*.&.( ) ) ) Q V y * o . . . . . . . . X * * % : B [ [ S ^ ( &.:.:.:.&.( Q ( :.&.d e 6.E.Q.(.).).).~.G.~.{.|.v.L V p X . . . . . . . . . . . . . . . . . . % u / &.*.6.0.0.w.w.6.@.+.~ I c q f h i * . . . .                                                   % . . . . . ; k l T ,.S.).oX^.G.4.T O.` Q u @ . X %                                                                                                                                                                                                                                                           ",
"                                                                                                                                                                                                                                                                                                                                                                . . . . . . . O O O X + + o @ * ; 2 2 2 y g h B B D ^ [ { $.$.-.-.-.&.&.*.=.8.q.w.q.q.q.8.6.=.*.' _ +.*.*.( Q V x t % X . X . . . . X X X ; x F [ $.$.:.:.:.:.;.;.=.&.=.8.q.q.w.6.K _ E. X+X).G.G.R.R.R.Q.'.&XC.y . . . . . . . o * * . . . . . o ; 0 V ^ Q ~ _ ` ,.2.r.i.T.W.W.N.c.+.v f j 3 o X . . .                                                   $ . . . . . % q Y 3.5.A.J.oXoX^.G.i.T.N.z.S @ . X &                                                                                                                                                                                                                                                           ",
"                                                                                                                                                                                                                                                                                                                                                              X . . . . . . . O O O O + + o @ * 2 5 4 3 g x B B V S S / / { { | &.&.&.*.*.=.q.q.e.e.q.q.6.6.6.6.=.=.6.w.x.c.z.l.l.j.$.V z t o . . . . . X o * ; g x ^ -.$.Q v Q ;.l.c.x.v.n.v.B.O.e v =.`.(.+X<X<X<X_.G.R.Q.'.8.k > $ X X + . % z ^ S 3 . . X X 0 &.j.-.c k L _ 1.i.T.!.!.Q.Q.!.E.v.+.I Q x % X . . . X                                                   & . . . . . o > _ T.~._.oXoXoX_.G.S.T.N.l.S @ O X &                                                                                                                                                                                                                                                           ",
"                                                                                                                                                                                                                                                                                                                                                            X . . . . . . . O O O O O + + + @ 1 5 4 g g x B B A V A ^ ^ ) ( ( ( ' ' &.&.*.6.q.e.e.e.q.q.e.e.7.7.e.e.w.v.B.V.V.V.V.B.q.+.( c > X . . . . . . . O o o ; x ^ / ) $.:.;.=.8.x.n.v.w.#.w.&.k k O. X0X0X1X_.~.G.t.2.Y e e 8 e ) [ u u ^ $.{ B X X X $ k l.l.) w 8 d @.`.|.{.Q.Q.!.!.T.M.M.q.+.&.S ; X . . X %                                                   & X . . . . . X v y.F.~.).oX_.~.p.2.p.7.) y + O X &                                                                                                                                                                                                                                                           ",
"                                                                                                                                                                                                                                                                                                                                                            . . . . . . . . O O O O + + + @ 1 5 5 G N m B B B V V A Q ^ ) ) ) ( ( ( ' +.+.=.q.q.0.e.e.6.6.e.e.e.q.w.w.M.N.W.W.W.W.N.B.v.x.q.Q z x 4 o . . . . . X X X ; B F S ) ^ Q Q ! =.x.v.v.N.[.c.9 X d M.(.@X<XoX_.~.i.2._ Y _ Y @.V.c.W V { &.-.V o X $ p { ;.+.k 8 w d _ [.3X|.].Q.E.T.M.N.V.B.;.&.^ y % . X X %                                                   & X . . . . . . = J J E 4.5.5.3.E 3.i.w.) : . O X &                                                                                                                                                                                                                                                           ",
"                                                                                                                                                                                                                                                                                                                                                            . . . . . . . . O O O O + o @ @ 1 5 5 4 N M M M B V V A Q Q Q Q Q ) ) ) ( ( ' *.6.6.6.0.0.0.e.e.e.e.w.y.u.N.W.W./././.W.W.'.'.`.B.B.C.;.h * o . . . . X . . o o o ; 0 z A Q :.l.8.q.B.n.q.k q q d 1.;X6X<X+X~.i.2._ O.y.y.M.n.c $ u / ( ( ^ j 9 u A / x k k c ) Q ! 8.B.N.B.b.v.v.v.B.B.z.&.$.^ B g o X X &                                                   & X X . . . . . $ e r H J R R R T 0.M.n.{ * . O X &                                                                                                                                                                                                                                                           ",
"                                                                                                                                                                                                                                                                                                                                                            . . . . . . . . O O O O O o @ 1 5 5 4 G N m M M B B B V A Q Q Q ) ) ) ( ~ ' +.=.6.e.u.M.N.E.E.N.M.M.M.s.s.M.!.W./.{..X.X.X.X].]./.W.N.B.8.:.$.; . . . . . . . . . . o : u x { &.( +.=.6.e.x.C.) $ d 6.i.~._.G.t.0.O.O.u.t.i.! $ . o t z z V A B j u 9 = > 9 x { &.' ' +.+.*.*.*.*.+.*.+.b v ^ [ ^ B * X X &                                                     % + X . . . . 8 _ 7.r.a.r.3.T O._ I Q z o . X X &                                                                                                                                                                                                                                                           ",
"                                                                                                                                                                                                                                                                                                                                                            . . . . . . . . O O O O O o @ 1 1 5 5 i M M M M B x x V A Q ~ ( +.*.=.6.7.e.w.v.M.E..X X;X;X;X;X;X.X.X/.!.R./.(..X X;X;X;X;X;X;X X}..X.X].`.C.f . . . . . . . . . . . X % u A ^ Q ' +.+.=.x.n.*.Q L e J r.(.~.F.b._ Y i.s.p.K $ . . % t u x B x 0 % % % % % > h ^ $.{ &.&.&.;.j.| Q Q A k f x S h : X X X %                                                     3 o O . . . . q 6.T.T.F.F.r.T ] Q k k 3 . . X X &                                                                                                                                                                                                                                                           ",
"                                                                                                                                                                                                                                                                                                                                                            . . . . . . . O O O O O O O @ ; 1 1 1 i C B B B B V A A Q ) +.@.6.0.v.M.N.N.N.T.W.]. X5X7X5X5X5X,X,X;X;X,X,X,X,X,X,X,X,X6X5X,X,X,X,X,X X/.s.6.q & & % X . . . . . . . . . * h ^ ^ ( ( ! ~ *.6.q.c.6.d r t.(.R.T.N.v w 6.i.i.7.L o . * g h B B z : % * * % o o X 9 B ) $.( / { / c z f f f 0 0 9 % X X % *                                                         * O . . . . k 0.T.F.F.s.7.U ) / V h * . . . X -                                                                                                                                                                                                                                                           ",
"                                                                                                                                                                                                                                                                                                                                                            . . . . . . . X O O X O O + @ @ 1 ; ; 3 h B z z x c Q ) ~ ] =.1.1.0.i.s.T.T.T.T.!.R.(.}.,X,X,X,X,X,X,X,X,X,X,X,X,X,X,X6X6X6X6X<X<X<X,X;X(.!.s.0.e.q.l.%.g . . . . . . . . . * g B V x k c Q *.6.w.w.1.<.T.Q.s.u.*.& % c T 5.Q.`.x . * g M B V B u : * * * @ + . X = f B V j u 0 0 0 0 9 : ; ; ; % X X & u                                                         @ O . . . X l 0.s.F.F.i.7.P k h y * X . . . $                                                                                                                                                                                                                                                             ",
"                                                                                                                                                                                                                                                                                                                                                            . . . . . . . . X X X + o @ @ ; 1 2 : : t z z k k v ! +.] ] <.1.2.r.y.i.s.F.T.!.!.R.R.(.}.}.;X}.;X;X}.;X,X,X,X,X,X,X,X6X6X6X6X6X6X6X6X6X,X;X.X/.'.V.V.C./ X . . . . . . . . . : h z z f k c Q ( 6.w.i.M.N.M.1.U 0 . X : 8 ` Q.[.A . + i B B A V B B y = * o + X X % : 0 0 : & & > : : : ; & * ; % o o ; h                                                         % + . . . X v 0.s.i.t.t.2.U q % + . . . . X t                                                                                                                                                                                                                                                             ",
"                                                                                                                                                                                                                                                                                                                                                            O . . . . . . . X X X + @ 1 1 2 3 y u u z A Q Q ! ~ @.6.6.1.1.7.0.y.y.s.s.T.T.!.R.R.R.(.(.).).).}.}._._.}.}.}.}.;X;X,X5X5X5X5X5X5X,X,X,X5X XT.p.0.6.8.:.^ 0 : o . . . . . . X 1 M D D B A A Q &.:.6.1.6.6._ l q > X X % - Y M.`.z . . 1 B D S S ^ S M : * * o % * : 0 0 f f 0 : : ; : : ; * ; ; * % % % 9 u                                                       % o X . % 9 Y 0.i.i.t.i.i.z.Q X . . . . . $                                                                                                                                                                                                                                                               ",
"                                                                                                                                                                                                                                                                                                                                                            @ O . . . . . . . . O O * 5 5 3 y g x x Q &.=.=.=.1.6.7.0.7.0.r.r.u.i.i.s.M.T.!.R.R.R.(.(.~.(.(.(.(.~.~.(.}.}.}.,X,X X/.T.s.i.i.s.T.s.s.s.s.0.1.#.O.+.~ Q A S y . . . . . . . @ 5 2 : ; : u A $.( Q I ~ ) l 8 q ) ( k 0 8 K e.8.u . . O i D [ [ [ ^ B : % % : t y y u y u y : % % % ; : ; ; ; ; * % o % % & 0                                                     o o O X u ) _ r.i.F.F.R.Q.[.{ X . . . . . $                                                                                                                                                                                                                                                               ",
"                                                                                                                                                                                                                                                                                                                                                              O . . . . . . O O O o * 5 3 y f j z v Q +.*.6.1.1.2.0.7.2.0.u.u.u.u.i.s.M.T.T.T.!.R.Q.(.(.(.(.(.(.(.(.(.(.{..X{.Q.M.i.y.y.u.i.y.y.y.0.0.0.0.0.6.=.#.+.+.>.( z * o o @ @ O . . . . . . . X * f f 8 9 q k f 8 d =.c.=._ 1.1.O.~ q X . . + : p h p B [ B t : t u z z x x k z f u 9 > 9 > % = ; ; % % o o % $ 8                                                     o o O X f _ O.u.F.F.!.(.{.'.Q X . . . . . $                                                                                                                                                                                                                                                               ",
"                                                                                                                                                                                                                                                                                                                                                              O . . . . . . O # @ @ 1 4 i y f z z v Q @.@.1.<.1.2.2.2.7.r.u.u.u.y.u.i.M.M.M.M.M.T.Q.{.{.{.{.(.(.(.(.(.(.(.Q.M.u.w.w.y.u.v.b.b.i.i.y.w.w.w.w.e.6.6.6.=.#.+.$.Q x D S g + . . . . . . . . X o % & > 8 w d l K 1.s.s.T.{.Q.i.b.*.k * . . . X + X y j.:.z w q k c ) *.q.;.;.;.:.( Q Q f $ ; ; = % % o o o % & u                                                   o o + X q U T p.T.G.R.(..X`.Q X . . . . X =                                                                                                                                                                                                                                                               ",
"                                                                                                                                                                                                                                                                                                                                                              @ . . . . . . O # @ * 2 i i p z z c L ! @.@.<.<.1.2.0.0.0.y.y.y.0.0.0.0.0.0.u.u.r.u.i.T.T.M.M.M.M.M.T.T.T.M.i.M.b.y.y.y.u.i.i.i.M.M.M.u.u.u.i.u.y.r.0.7.1.6.*.I c ^ F g o . . . . X o X . . o & > q k v _ v.u.t.~._.:X<X:X<X5X3X`.{ = X X X X X X : a I +.q.l.q.q.w.x.x.x.z.q.8.+.+.v - = u 9 % o X o o % % & >                                                 o + + X w Y T 3.F.!.{.;X;X|.=.% O . . . X                                                                                                                                                                                                                                                                 ",
"                                                                                                                                                                                                                                                                                                                                                              O . . . . . O @ @ @ 1 2 i g h z c c L ) *.=.=.1.1.1.1.9.6.6.9.9.6.6.6.7.7.w.v.v.v.v.u.u.y.0.w.w.w.0.w.y.y.0.0.u.M.E.E.Q.Q.(.(.).}.}.}..X(.{.(.(.~.!.F.F.!.!.0.J d d u 9 * X . . * Q +.( A f z x k c Q Y O.R.H.H.oXP.P.>X2X0X<X,X|.q.V 9 % % & = = = e 7.N.E.`.N.v.w.q.q.q.6.=.=.@.+.( c ) -.V % o X X % % % $ 8                                                 o + + o w Y T 3.F.R.}.,X5X%Xk.= O . . . =                                                                                                                                                                                                                                                                 ",
"                                                                                                                                                                                                                                                                                                                                                            O . . . . . . O @ @ @ 1 3 i g h x V V V Q ' +.+._ ] ] ] ] @.*.+.+.+.+.+.+.@.=.q.q.q.e.e.w.w.w.w.v.x.w.u.M.N.N.M.T.R.R.R.~.).+X:X:X<X<X<X<X:X:X<X<X:X_.~.J.~.(.F.,.1.@.) ^ D y + . 0 6.0.y.q.' ( ) ) ~ ~ T d.H.oX:XeXeXeXuXdX2X_.+X}.w.+.c L *.q.q.x.b.i.i.i.i.u.y.w.q.q.6.=.=.=.=.6.q.q.8.l.l.( 8 % $ o % % % $ 8 k                                             t o + + $ e _ 2.F.}.}.~.R.Q.N.&.= @ . . o                                                                                                                                                                                                                                                                   ",
"                                                                                                                                                                                                                                                                                                                                                          + . . . . . . . . O @ @ ; 2 i h h B V V V W Q Q Q ~ ( ' ' ' &.&.&.-.&.+.' ( ~ ' ' +.@.@.@.6.e.w.w.v.v.b.M.E.{.|.}.{.(.H.H.H.J.oX:XoX:X:X:X:X:X:X:X:X:XoXoXP.J._.J.H.!.E.q.*.-.[ 3 X d ,.3.t.u.O.~ Q Q ) ( T d._.2XsXgXhXhXhXkX2XK.oX6X!.O.Y @.N.N.i..X+X}.G.S.i.y.0.=.=.=.*.*.*.*.#.=.6.6.6.6.6.~ v f 9 & $ $ % % $ 9 w                                           p @ + + $ l 6.u./.7X,XF.4.4.0.) = @ . . o                                                                                                                                                                                                                                                                   ",
"                                                                                                                                                                                                                                                                                                                                                        + X . . . . . . . . O O @ * 1 3 g g h h h z z c c Q ) ) ) ( ( ( ( { &.( ) ' +.+.*.=.6.7.7.6.7.w.y.y.y.M.T.T.R.(.+X,X+X+XoX_._._.:X1X1X1X1X1X2X2X1X2X2X1X1X1X1X1X1X:XJ.R.T.] k z M 3 X U s.H.~.R.,.U v k x c I Y ).2XdXkXkXkXkXkXsX>X2X0X(.r.<.O._ J J t.+X_.~.R.!.T.u.1.1.1.6.6.6.6.=.O.O.<.1.0.0.6.=.=.( w & - $ $ $ - =                                           t o + . $ c w.s./.,X(.F.4.2.0.' = + . . X                                                                                                                                                                                                                                                                   ",
"                                                                                                                                                                                                                                                                                                                                                        X . . . . . . O O O O @ @ @ * 2 i i y y u h z x V Q Q Q ) ^ ) ^ Q b c L I _ =.8.e.q.w.b.N.N.E.W.W.T.i.T.T.G.G.G._.+X@X<XoXoXoXoX1X2X2X2X2X2X2X8X2X2X2X2X2X2X0X0X0X1X+X{.`.+.7 $ * % X O.(.oX:X_.o.J 8 % * : 8 w 2.J.>XhXhXlXkXkXkXfXfX2X).(.E.w.~ w r 5.+X)._.~.~.Q.!.T.T.N.E.W.`.E.M.0.r.s.M.M.M.M.u.x.=.l q > % % $ - 7                                         w = + + . % Q w.T./.(.~.F.5.p.y.( % + . X $                                                                                                                                                                                                                                                                   ",
"                                                                                                                                                                                                                                                                                                                                                      + . . . . O O # # O O @ @ @ @ @ 2 4 i y y u g h B A A A A A / ( ^ c d d U _ _ =.w.y.y.v.E.].].Q.Q.Q.!.F.F.G.G.H.H.J.oX:X<X:XoXoX1X1X2X2X2X2X2X2X2X2X1X1X<XF.F.Q.!.Q.Q.s.e.=.x $ X X X X ! s.H.oXP.o.R d & X X X X l F.P.dXhXjXjXlXkXkXkX1XoX<X X`.+.8 l v.(.~.(.~.^.~.Q.R.R.R./..X.X{.{././.(./.Q.E.T.N.M.x.*.&.u % % $ & 7                                         8 % @ O . % ~ w.T.R.~.R.F.t.t.u.Q X . . =                                                                                                                                                                                                                                                                     ",
"                                                                                                                                                                                                                                                                                                                                                    + O . . . O O # # @ @ @ @ @ @ @ @ * 2 2 3 y y 3 : y j x x x x A ) Q I I ~ q.w.w.0.0.y.y.u.b.E.T.S.F.S.S.F.!.G.H.H.H.J.oX1X1X1X>X1X1X2X2X2X2X2X2X<X<X<X_.(.T.P w e w w w 8 & $ . . . . . . 0 Y d.J.oXJ.~.M.c o . . . u ].1XdXhXhXkXkXkXkXkXeX1XsX6X].) $ 0 =.0.3.p.!.~.(.(.~.R.R.~.).}.}.}.}.{.(.(.Q.!.T.E.W.V.z.;.f % $ $ - =                                         9 % + . . o Q 6.M.R.~.~.G.s.s.v.Q X . . =                                                                                                                                                                                                                                                                     ",
"                                                                                                                                                                                                                                                                                                                                                    O . . . X X O @ @ @ @ * @ * * * @ * 2 2 3 y t : > > > 9 0 w 8 q v Q +.=.q.v.B.b.y.y.0.0.r.r.p.p.t.t.t.F.~.).}._._._.oX<X1X1X1X1X1X1X8X0X0X6X,X X|.|.Q.N.B.l.z % X X X . X . . . . . . . . X 8 K H.:X>X<X}.T = o . . % #.F.:XdXhXkXkXkXkXkXdXfXfX9X|.' X o : d d 2.R.(.}.}.).)._.).+X<X,X,X}.(.(.(.Q.Q.W.W.`.V.x.:.u X $ $ - 8                                         9 % + . . o Q 1.s.R.R.R.R.G.!.M.W X X X                                                                                                                                                                                                                                                                       ",
"                                                                                                                                                                                                                                                                                                                                                  X . . . O O O O @ @ ; 1 1 1 < 1 1 1 5 i y y t 9 8 = k V L v d e l ~ *.e.w.u.u.u.y.r.r.0.0.r.r.r.p.t.S.G.R.).+X:X:X<X:X:X<X<X<X<X<X+X_.H.F.0.<.! v l v k u 9 * X . . . . . . . . . . . . . . . X 7 4.J.OX1X<X4.J 0 o . . & w d.:XdXvXkXkXkXkXkXkXfX8X;X+.X . . X & ! u.F.{.}.}.+X+X+X:X<X<X,X).R.(.(././.].].].`.x.&.0 X X % -                                           8 $ + . . o Q 6.u.!.!.R.~.R.Q.M.c X X =                                                                                                                                                                                                                                                                       ",
"                                                                                                                                                                                                                                                                                                                                                  . . . . O O O o @ ; ; 1 1 1 1 1 2 2 i g g u 9 q q 8 L 8.8.=.@.O.@.6.7.0.y.y.y.r.r.0.r.0.r.r.p.i.S.F.G.~._.+X<X<X+X<X,X<X<X<X<X<X,X(.s.0.#.e $ X X X X X . . . . . . . . . . . . . . . . . . . . $ T H.oX2X2XJ.p.*.z X X X X J H.uXhXkXkXkXkXkXkXfX1X,X6.X . . . X & e Y i.(.(.}.+X+XoX+X<X<X(.S.F.T.R./.].E.N.v.l.( 8 X . X >                                           = X X . . % ( 6.y.!.!.R.(.(.{.v.k X X =                                                                                                                                                                                                                                                                       ",
"                                                                                                                                                                                                                                                                                                                                                o . . . O O + @ @ @ * 1 1 1 1 1 ; : 2 t 0 > 8 w v L d U 6.0.0.7.7.1.1.2.2.r.r.r.r.r.r.r.r.r.y.t.S.F.!.~.).}.@X<X<X+X_.R.s.2.3.2.0.1.#.! k g * . . . . . . . . . . . . . . . . . . . . . . . . . . X v t.J.1XeX:XoX|.*.= + . X d t.:XhXkXkXkXkXkXcXfX:X7XN.% . . . . X X - Y 3.5._.+X:X<X:X<X,X}.G.t.s.F.M.w.O._ ' +.Q ; . . X 9                                           & X . . . ; &.6.u./.R.R.}.,X5XB.u X X =                                                                                                                                                                                                                                                                       ",
"                                                                                                                                                                                                                                                                                                                                                + . . . X O @ @ @ @ * 1 1 1 1 1 * = t x z q e v L _ T O.1.1.2.2.2.1.1.2.2.2.2.0.r.r.y.y.t.r.t.t.S.T.T.F.Q.Q.R.R.T.F.p.9.U 7 $ $ X X X X . . . . . . . . . . . . . . . . . X o * * * @ . . . . . . . - d T J.2X>X1X@X` 7 % . . > 1.:XfXkXkXkXkXkXcXkX1X0X`.= . . . . . X $ K ,.t.,X0X8X8X0X6X6X,X}.Q.T.i.w.@.Y v v c f o . . X &                                         w - X . . . : :.6.s.{.R.R.;X0X7Xv.9 + X                                                                                                                                                                                                                                                                         ",
"                                                                                                                                                                                                                                                                                                                                              O . . . . . O O + @ @ * * 1 1 1 * * = z &.&.) ~ ) _ O.<.1.<.,.3.,.,.3.2.2.2.2.2.a.r.r.y.y.t.t.t.t.i.b.b.i.y.u.<.P P d w 9 8 $ . . . . . . . . . . . . . . . . . . . . . o ; 2 g B S S N * + . . . . . X $ 7 ,.1XeXeX2XS.,.' = . . b .X8XfXkXkXkXkXkXfX_.;Xz.% . . . . . . X u _ 6.M.W.Q.{.(././.(.(. X/.y.0.*.! v q = * X . . X                                           w $ X . . . : :.6.M. X{.(.,X6X7Xq.; X X                                                                                                                                                                                                                                                                         ",
"                                                                                                                                                                                                                                                                                                                                            . . . . . . . O O + @ @ * * * 1 1 : = 7 W =.*.@.@.@.@.O.#.<.O.T T d.,.1.2.2.2.2.2.5.r.5.r.p.i.i.s.M.N.B.w.z.z.z.+.e w $ X X . . . . . . . . . . . . . . . . O @ * * ; * * ; y 3 y B C M = * * @ @ + . . . + X T 2XsXfXdX2X6X4X) . . ; @.5._.2XdXfXdXfX<XR U e X . . . . . . . X $ - 7 w w r w w r J T W.E.1.@.) Q z = X . . . . X                                           8 $ X . . . t =.6.M. X}.}.,X5X.X( % + X                                                                                                                                                                                                                                                                         ",
"                                                                                                                                                                                                                                                                                                                                            . . . . . . . O O + @ @ * * 2 : * t z v ' 6.@.@.@.@.O.` ` O.` ` ,.2.2.2.2.5.5.r.r.p.p.r.r.u.v.<.Y K v e 8 > 9 9 = % o + O . . . . . . . . . . . . . . . . + i C F D M g 3 2 3 t g h B g : 2 i y 2 * . . . . . ! 6XsXfXdXdXsX9X! X . . $ r ,.H.1XsX2X8X7XP - $ X . . . . . . . . . X X % % $ $ $ - 7 I V.V.@.( q 0 y o . . . . .                                             8 % X . . . f =.0.i.Q.(.(.}.,XE.k X + X                                                                                                                                                                                                                                                                         ",
"                                                                                                                                                                                                                                                                                                                                            . . . . . . . . O + @ * * ; h B j V ( ' *.*.@.@.O.O.O.O.` ` ` ,.r.i.r.r.r.r.r.p.u.i.0.0.7.8.c.( w & X X . . . . . . . . . . . . . . . . . . . . . . . . . @ m D S C B h g y i g z B B D C B M h g 2 + . . . . 8 y.G.oXeXeXsX<XK $ X . . > _ E..X(.R..X[.L 9 2 = % % $ $ + . . . . . X + + + + X X $ u { &.Q Q z t * O . . . %                                               9 % + . . X k q.y.s.Q.R.~.}.7XE.q X o X                                                                                                                                                                                                                                                                         ",
"                                                                                                                                                                                                                                                                                                                                            . . . . . . . . . O @ * * 3 D [ ) ) +.+.+.@.@.O.O.O.O.O.O.O.3.2.i.s.i.r.r.r.p.y.u.w.v 9 9 : 3 * X X . . . . . . . . . . . . . . . . . . . . . . . . . . . @ g m m B B M h h M B B B B S [ S V B M h 2 + O . . X e T A.>XeXsXsX!.9.c % X % u c v e w 0 t % * i V ( | ' ' Z + . . . . . . . . . . . . . o % & : : * O . . . O                                                 = % + . . $ c q.s./. X(.(.,X8X[.u X + X                                                                                                                                                                                                                                                                         ",
"                                                                                                                                                                                                                                                                                                                                          o . . . . . . . . . + + @ * t S $.) ( ' _ _ ` O.O.O.O.O.O.O.2.p.t.F.T.T.M.v.v.v.v.n.l.u . . . . . . . . . . . . . . . . . . O O . . . . . . . . . . . . . + 2 N N M M B B B B B A D V V ^ [ ^ V z z M M i * + O + = @.T._.:X1XsXsX9X'.q o o * * X . . . . . X t ! z.'.XXE.=.: . . . . . X X . . . . . . . . . . . . . . . . X                                                 & % + . . > ! 0.M.}.,X}.}.,X0X%Xu . X $                                                                                                                                                                                                                                                                         ",
"                                                                                                                                                                                                                                                                                                                                          + . . . . . . . . . X + o : u A ( ) ~ _ _ _ ` O.O.,.<.<.,.1.r.i.F.F.i.i.7.! Q Q W V B * . . . . . . . . . . @ @ @ @ @ @ @ @ @ @ . . . . . . . . . . . . . < i M M B Z B B V B V A A A B S [ ^ V z u z ^ ^ M 4 @ . X c 1.4.5.A.oX2X8X{.l & * 3 g y * o % ; k c l r T S.R.T.8.t . . . . % Z a - % X . . . . . . . . . . . . . X                                                 & % o X X q +.0.T. X,X+X,X,X7X[.u X X $                                                                                                                                                                                                                                                                         ",
"                                                                                                                                                                                                                                                                                                                                        + . . . . . . . . . . + * : z c c Q ~ ~ _ T T O.<.1.2.2.2.2.7.p.s.M.b.u.e.Q $ X X X . . . . . . . . . . . X * N M C m N 5 1 1 6 @ O . . . . . . . . . . . + 2 i M M B V S S D V A V V A V ^ { { A z k k &.l.-.V % . . % q U 3.A.J.oXoXG.T l k f x A A c d ~ N.|.E.E E S.S.t.q.t . . . . = | *._ ' v = X . . . . . . . . . . . X                                                 & % o X X k #.0.F.(.,X<X<X<X5XV.9 X X &                                                                                                                                                                                                                                                                         ",
"                                                                                                                                                                                                                                                                                                                                        . . . . . . . O @ 1 2 3 h B A A v I ! ~ T T ` 1.2.0.r.2.0.0.2.1.6.+.L c V p X . . . . . . . . . . . + + + * i C D C C N 5 1 * * @ O . . . . . . . . . . . @ 3 i h Z B D ^ ^ S V V V V ^ ^ [ -.{ Q c l L 8.n.l.&.u * . . . & P R.).oX_.F.,.@.' L v c I ~ Y T F.,X1XoX+X<XG.s.B.u . . . . $ U 7.u.b.q.) z * O . . . . . . . . . O                                                 = * * X $ L =.y.s.G.).:X<X+X5XV.: X X &                                                                                                                                                                                                                                                                         ",
"                                                                                                                                                                                                                                                                                                                                        . . . . . . O O * i N B D V Q Q I U _ _ T O.1.r.i.i.i.i.u.w._ d q = X X . . . . . . . . . . @ 1 N B m i i i m C C M g 4 5 1 * * @ + . . . . . . . . . . + 1 y g h z z Z ^ / S V V V V / -.-.;.( v L L U e.b.v.q.&.A o . . . & w.Q.G.~.S.3.2.w._ P K P ,.3.o.J.<X2X2XsX9X.XM.l.u . . . . X v 0.i.i.y.q.-.h @ O . . . . . . . . + y                                               = o o X $ ! 6.u.F.H.~.+X+X}.%Xz.= X X 7                                                                                                                                                                                                                                                                         ",
"                                                                                                                                                                                                                                                                                                                                      @ . . . . . O @ * 3 m M Z V W Q Q ! _ @.#.<.2.r.i.i.i.M.9.L c 0 $ X o . . . . . . . . . X @ ; i F j.j.j.F D D D D C M i 2 2 < * * @ @ . . . . . . . . . O * i h h h h h Z [ } ^ S V V ^ ( :.;.;.( l ! *.,.2.p.y.w.q.' h : X . . u ! T 4.4.4.5.s.2.Y Y T t.R.H.oX1X2X1X2X<XT.#.Q : . . . . X d 1.t.i.u.e.:.V * O O . . . . . . . O *                                               = o + X - ! e.s.F.H._.+X+X}.`.) % . $ 7                                                                                                                                                                                                                                                                         ",
"                                                                                                                                                                                                                                                                                                                                      @ . . . . . o ; 2 i M B V W Q ! ~ _ @.1.1.0.u.i.M.b.M.B.! - X X . . . . . . . . . O @ 3 i g B D S [ { %.S D D D S S M i 5 5 1 * * @ @ . . . . . . . . O @ 2 N M M h h h Z } { [ / ^ V Q ( :.8.;.( l @.b.i.S.F.S.s.u.e.c./ o . . X $ w Y ,.S.R.G.5.o.3.5.G.).:X1X2X2X1XoXp.` v u 2 + . . . X w _ r.p.2.O.~ B 2 + O . . . . . . . X + X                                             = + + X & ! 0.T.G.~.+X+X+X{.b.c X X 8                                                                                                                                                                                                                                                                           ",
"                                                                                                                                                                                                                                                                                                                                    ; + . . . . . @ ; 5 h B B V Q ! ! _ @.=.1.0.u.v.v.N.e.] &.k X + . . . . . . . . . o 3 M F F [ ^ ^ ^ ^ { { [ S S S S F m 5 5 5 1 @ @ @ + . . . . . . . . @ 1 5 N M B M h h Z [ { { [ ^ ^ ^ ( &.=.;.( l 1.!.F.~._.}.^.F.b.V.;.& X . X + * q K T._.H.H.J._.)._._.oXoX>X>X1X~.Y v f p F N O . o % & P 0.r.O.P v B i O O . . . . . . . . + X                                             = + + X 7 ! 0.!.!.~.<X,X}./.v.z X X v                                                                                                                                                                                                                                                                           ",
"                                                                                                                                                                                                                                                                                                                                    X . . . . . # @ 1 4 h V V W ) _ _ @.1.6.6.0.x.+.L W a & % X . . . . . . . . . . X * h B S [ [ ^ ^ ^ [ { { [ / ^ ^ [ F m i i 4 1 @ @ @ + . . . . . . . . @ 2 4 N M B B z z Z [ { { ( ^ ^ / { :.:.=.' d O.Q.G.^.oX+X(.F.i.v.@.q u : X X o = e v.}.~.<X8X1X<XoXJ.K.J.oXoX+Xi.r q y i F N O O * * - K 0.y.#.K v A h + . . . . . . . . . X X                                             * + + $ w ~ 0.E.T.(.,X,X.XE.z.u . $                                                                                                                                                                                                                                                                             ",
"                                                                                                                                                                                                                                                                                                                                  . . . . . . . o ; 2 y h x x Q &.=.<.6.7.6.7.8.l.c & = * o X . . . . . . . . . . * 3 y B D S [ { [ / / / [ { [ [ [ [ [ F B m G 4 1 @ @ @ O . . . . . . . . @ 2 i N B Z Z V V S [ [ ( ) W Q ^ | :.*.+.U d d.(.J._.oXoX).F.r.7.@.+.;.V X X X X & =.E.p.R.<X<XoXJ.K.H.H.J.H.i.1.9 % ; * @ @ O O @ o $ l w.u.1.K v Q h o . . . . . . . . . . X                                           t o + o & L _ 9.M.F.(.,X5X/.N.;.: . o                                                                                                                                                                                                                                                                             ",
"                                                                                                                                                                                                                                                                                                                                  . . . . . . . o ; 3 g z k l Q *.8.6.7.q.*.~ Q ( h % o X . . . . . . . O O O o * g D B S ^ [ { { { ( ( ( ( ( / [ [ [ [ S C C N 4 1 , , @ O . . . . . . . O @ 2 i m B V D S ^ ^ [ [ ( ) Q Q ) &.=.' T Y J 3.}.J.J.oXoX}.!.2.,.<.7.q.b > % * o X > 0 7 r E ~._.J._.).~.^.p.O.~ 0 X X . . . . . . . . w 0.v.1.Y P Q z % X + O X @ + . . . . X :                                     w % o X . X 8 ' _ <.i.T.Q.;X|.i.8.{ % . o                                                                                                                                                                                                                                                                             ",
"                                                                                                                                                                                                                                                                                                                                o . . . . . . . X ; y B ) ) ) ' *.*.6.*.&.&.f $ % X X . . . . . . . O @ ; 1 2 y h B B A ^ / { $.-.-.&.&.&.$.( ( / / ^ ^ S C C N G < @ , + . . . . . . . O O < 4 i m B D S S ^ ^ / / ( &.&.&.*.=.=._ T 3.4.G.+XJ.J.oXoX).F.a.2.,.@.6._ U I c f > % . X $ K /.}.R.(. X|.|.z.v w > * % + X . . . . . . 7 6.u.0._ ! ) V = % g S B S C * X . . X o =                                 L - X . . X X u *._ <.i.T.!./.M.T v h + . X                                                                                                                                                                                                                                                                             ",
"                                                                                                                                                                                                                                                                                                                                X . . . . X X o * y f c ) ' ' ' &.*.=.&.Q ) g X . . . . . . . . . @ @ 2 m M h B D ^ ^ / [ / { -.-.;.;.j.;.;.&./ / [ / ^ C B m m G < @ @ O . . . . . . . O O 1 4 i m Z V D S S ^ / ) $.&.:.=.;.8.=.T T t._._.oXoXoXoXoX).S.r.5.2.3.2.1.7.e.7.+.Q z % . X q 6.7.T T O.@.*.W = $ & u y : * + . . . . . & <.u.0.<._ ' Q q t S j.%.{ [ M 3 o . . + $                           w w d Y w & $ X X $ l *._ @.r.s.T.E.0.K 8 * O . X                                                                                                                                                                                                                                                                             ",
"                                                                                                                                                                                                                                                                                                                              + . . . . . + * 3 g B B A ( ( ( ) Q Q Q ^ u 3 ; . . . . . . . . . @ i i i C D B S [ $.$.$.$.$.$.&.-.:.;.l.l.l.;.( / / / S B M m N G 1 O O . . . . . . . . O @ 1 4 i M B V S ^ ^ ^ ^ ( &.:.:.=.=.=.#.d.E H.oXoXoX:X1X1X1X).H.S.t.p.r.a.4.r.p.0.@.*.^ ; X o % 8 e ) Q k u q u u u x D z y 2 @ . . . . . 7 <.i.p.1.@.+.) z c / $.{ / ^ B B ; . . O + ;                       8 & - J !.~.i.2.` _ ! v.w.Y ` 0.i.M.N.x.e $ . . . X                                                                                                                                                                                                                                                                             ",
"                                                                                                                                                                                                                                                                                                                              . . . . . X o 2 h B D S ^ $.:.$.V > % % % o . . . . . . . . . X + * M D h D ^ A ^ ( $.&.-.$.$.$.&.-.:.;.;.l.l.k.$.( ( / x g h g i i 1 O . . . . . . . . O @ @ 1 i g M B V S S ^ Q Q ( &.=.=.=.=.~ T 3.o.J.:X:XoX>X1X>X:XoXH.H.!.!.T.t.4.r.5.2.#.*.^ ; X * ; % 8 j.j.u = > p ^ { [ S x y y * . . . . . 8 9.u.i.7.<.+.Q c ) $.{ ) W c x V : . . . . %                       & - - T sXZXkXkXfXCXfXCXQ.r P @.6.0.7._ & X . . . o                                                                                                                                                                                                                                                                             ",
"                                                                                                                                                                                                                                                                                                                              . . . . X @ * ; t y g g f j D F g X . . . . . . . . . . . . O * 2 : B S x A ) ) ) ) ( $.$.$.-.-.-.-.-.;.;.l.l.k.-.{ { / x g h i g N 1 O . . . . . . . O + @ @ 2 i N B Z V V V Q A Q &.:.:.;.l.*.l Y 5.A.K.>X>X>X1X1X1X:XoXJ._.).~.S.S.S.t.r.2.1.*.V * + 2 y : & V Z = $ & q ^ $./ A x u t * . . . . . 8 O.r.s.p.1.] c q ) &.{ ( Q ) ( { y . . . . X %                   e w J R A.dXlXjXlXlXlXcXZXJ.H J T <.1.7._ 7 X X X o % u u                                                                                                                                                                                                                                                                         ",
"                                                                                                                                                                                                                                                                                                                            o . . . . O 1 2 : : : ; * o o * 1 @ . . . . . . . . . . . O @ 1 i M B [ $.Q Q Q ) ) Q ) ( ( &.-.:.-.-.-.:.;.k.l.j.&.$.$.{ ^ z i i N N 1 O . . . . . . . O @ @ @ 2 g M B B B B V V Q ) &.;.:.;.l.*.d Y H.J.oX>X1X2XwX2X2X1XoXoXoX<X(.E E r.S.p.2.1.&.z X + 3 g u 9 z V z u w z ( &.$.^ B u t * . . . . . = P 3.F.i.7.~ w & V -.{ ( ( ' -.:.B . . . . . . $             u 0 w Y ^.1XdXkXvXjXjXjXjXlXcXfX@X^.t.2.y.E.b._ e w w - X X X $ e                                                                                                                                                                                                                                                                     ",
"                                                                                                                                                                                                                                                                                                                            @ . . . . X 1 g g g y 2 * @ @ @ + O . . . . . . . . . O @ @ * 3 h ^ -.j.k.;.:.&.+.) ) ) ) ) ( &.-.$.$.| &.;.l.l.;.-.-.$.%.$.B i i N G 1 O . . . . . . . O @ @ @ 2 g M Z V V V c V ) &.:.;.&.( -.( e T ~.oX>X>X1X>X1X1X2X1X:XoX<X0X,XT H T o.o.3.@.Q > . O 3 g f k ' z.z.;.+.' &.;.$./ A u t ; . . . . . $ l ,.T.T.0.! 8 % u ( ) ) ( | &.:.V X . . . . . X           p % $ 7 E eXgXhXjXjXjXjXjXjXlXcXcXZXfXH.4.S.R.R.t.4.E E R e w = 7 d z.                                                                                                                                                                                                                                                                  ",
"                                                                                                                                                                                                                                                                                                                          @ X . . . . . @ i N N i 5 * @ @ + O O . . . . . . . . X * 3 y g h S -.l.l.l.l.8.;.=.:.;.:.&.) Q Q Q c V Q { ;.k.k.;.-.-.-.%.%.S m g N i @ . . . . . . . O O # @ @ 2 h M B V V A A Q ( :.:.:.-.V k l r T _.>X>X>X>X>XOX:X:X1X<X:X:X<X).T H T o.o.2.6.L % . o t h k L q.`.E.B.v.q.q.q.&.( ) x h 3 O . . . . $ K 2.R.!.u.+.> X 9 V V L Q ( | *.W $ X . . . . X t     > B M + o s 4.sXgXzXzXhXjXjXjXjXjXcXcXlXkX1XoX@X<X1X@XoX:X1X2X0X5X] s 7 P L                                                                                                                                                                                                                                                                 ",
"                                                                                                                                                                                                                                                                                                                          O . . . . . . + * 1 1 ; @ o O O + + O O O O X . O * 2 3 g M C S F %.j.k.k.;.;.8.;.=.:.l.c.;.&.) ) Q c Q ^ $.:.k.k.;.-.-.%.$.[ F D M g 4 @ . . . . . . . O O @ @ @ 4 h h B V V A ^ ( &.:.:.:.-.k 8 w r R K.:X>X>X>XoXoXoXoXoX<X:XH.5.o.E E t.F.r.y.z.c $ X ; f x L ! 0.E.E.M.u.w.w.q.*.*.( V B g o . . . . X L 2.R.G.T.z.u X : B V v Q ~ ' ] P 8 % X X . . X 0     X * * . o r A.dXzXzXhXhXhXhXjXjXjXjXlXcXZXkXfXdXdXfXfXgXgXhXkXkXfX~.R e 7 s                                                                                                                                                                                                                                                                 ",
"                                                                                                                                                                                                                                                                                                                          . . . . . . . X . . O O . . . O + + + @ o o @ @ * g C D B B S S [ %.j.j.;.;.;.;.:.&.=.l.l.;.&.*.&.$.$.&.-.-.j.k.k.:.-.%.%.$.[ C C N 1 * O . . . . . . . O O @ @ * 4 M z B A A Q { -.:.&.-.:.-.z 8 e J R A.OX>X:XoXoXJ.J.~._.+X+X4.R E 5.!.(.F.3.<.' q X * h V Q ) _ 7.N.E.T.i.u.u.w.6.=.&.V A M @ . . . . $ K 3.R.F.i.l.y . : x W L ! _ <.7.7.=.( u ; @ . X * t * X . . . & J K.gXgXgXgXgXpXpXgXpXgXjXjXlXcXZXlXlXlXlXlXlXjXjXlXcXcXkXsX5Xl - L                                                                                                                                                                                                                                                               ",
"                                                                                                                                                                                                                                                                                                                        % . . . . . . . . . . . . . . O O + @ @ @ * * * ; 2 3 m B M B A S S / &.-.-.:.:.:.&.&.&.;.;.=.*.&.&.&.:.;.:.:.:.:.:.-.$.$.$.[ D g i ; . O . . . . . . . O O O + @ < i M B A Q Q ( -.-.&.&./ S [ V d T o.A.P.:X>X:XoXJ.H.H.S.F.G.F.E R o.G.~.~.i.` l 7 $ $ 0 x Q ) ~ T 2.T./.{.!.M.M.u.w.q.:.Q S C * . . . . X w ,.~.F.a.' ; . & z Q _ O.1.i.T.Q.].B.A f 2 X X X X . . . . = <.A.P.rXpXgXpXpXyXrXrXrXpXhXjXlXcXZXcXcXcXlXlXlXjXlXcXcXcXZXZXCXY 7 e                                                                                                                                                                                                                                                               ",
"                                                                                                                                                                                                                                                                                                                        X . . . . . . . . . . . . . . O + @ @ @ * * 1 1 1 1 2 i h h B B A A Q / ) ( &.-.&.&.| &.:.;.:.:.:.:.-.:.:.:.-.-.-.-.$.^ ^ [ F B 3 2 @ X X . . . . . . . O O O @ * 1 i m B S / ( &.&.$.( / z 9 u e r t.).oXoX:X:XoXJ.J.H.G.S.S.F.S.5.4.A.S.p.r.0.! 8 X X % c ) +.=.6.7.M.{. X}.Q.M.M.v.w.z.;.) S B @ . . . . . 7 ,.).H.2.! & . & Q @.9.y.i.T.R.(.{.v.I u ; X X . . . . . . q R.oXqXyXiXiXiXyXyXrXrXtXrXgXgXkXlXcXcXcXlXlXlXlXjXjXlXcXcXcXZXfXT w w w                                                                                                                                                                                                                                                             ",
"                                                                                                                                                                                                                                                                                                                      . . . . . . . . . . . . . . O O O + @ @ * * 1 1 1 1 1 3 g B B B B V V Q ^ c c ( &.-.&.&.&.:.;.k.k.k.j.:.-.-.-.$.$.%.%.^ z z A D M 2 ; o . X . . . . . . . X O O @ * 1 i m Z S { &.&.| ( A S u & 8 e d H.2X>X>X:XP.K.A.A.A.S.~.~.~.~.~.G.F.5.T J l 8 % o X 9 ( &.8.w.v.E.{.;X,X;X/.M.M.v.x.x.;.) S B @ . . . . . - 3.<XH.,.! 9 X 8 ' w.i.T.T.F.G.~.{.M.! f ; X X . . . . . . q A.P.eXiXrXrXrXrXrXrXrXtXrXyXyXgXkXlXcXlXlXlXjXlXlXlXlXcXcXcXZXZX_.2.K r                                                                                                                                                                                                                                                             ",
"                                                                                                                                                                                                                                                                                                                      . . . . . . . . . . . . . . O O O @ @ @ @ 1 2 2 2 2 2 i g M B B A A A ^ ^ x k ( -.-.-.-.&.&.-.j.k.k.k.;.-.&.$.$.$.$.[ D f g B D B 2 @ O . . . . . . . . . X O O @ @ 2 i m Z S { $.&.{ ) x Z h = 7 Y 3.oX2X2X>XOXK.A.o.A.4.A.S.H.A.A.5.4.4.1.! 8 $ X o y f Q =.8.e.w.u.Q.;X5X5X,X{.T.E.N.v.x.;.) ^ D * . . . . . $ 2.1XJ.d._ f % k 7.b.T.R.!.F.S.~. X].=.A y X O . . . . . . w A.>XyXiXtXqXqXtXeXrXgXdXrXrXrXrXgXzXlXlXlXlXjXjXlXlXlXlXcXcXcXZXCX7XU e                                                                                                                                                                                                                                                             ",
"                                                                                                                                                                                                                                                                                                                    + . . . . . . . . . . . . . O O O O @ @ @ @ 1 1 2 4 i i i h M B B S S ^ ) Q k z { -.-.$.&.&.$.$.$.-.-.:.:.-.&.$.$.[ [ [ S B B D C M 1 @ O . . . . . . . . . . O O @ @ 1 i m B A / { { $.^ u : > - r 2.H.oX2XqX>XOXP.K.J.oXJ.S.G.5.o.o.o.d._ ' Q * . O o h $.=.q.w.w.0.u.Q.,X5X5X5X.X!.E.N.v.x.;.) ^ B @ . . . . . $ 3.2X_.3.*.A ; c w.i.!.!.G.F.G.}. X[.q./ B + . . . . . . . 8 A.>XyXdXrXqXbXOX>XeXdXgXyXyXgXyXrXgXzXlXlXlXjXlXlXlXlXlXcXcXcXZXfX{.K r                                                                                                                                                                                                                                                             ",
"                                                                                                                                                                                                                                                                                                                    o . . . . . . . . . . . . . O O O @ @ @ @ @ * 1 2 i M M h h M B B S [ [ ^ V k x { -.$.$.&.&.-.$.$.$.$.$.$.$.$.$.[ [ F F S S S D C m ; o O . . . . . . . . . . O O @ @ 1 i N M x V ) / $.A ; $ & 8 P F.J.P.2XqXqX2X2X2XeX2X+XF.S.p.o.d.d.T L u = X . + * u Q ' 6.y.u.M.!..X5X5X5X5X{.T.N.B.w.w.=.) ^ B * . . . . . $ ,.<X_.5.8.^ 0 c u.F.F.G.H.G.}.}./.x.b t 3 . . . . . . . . 7 o.P.>XeXqXI.I.K.P.1XeXeXeXrXdXyXrXdXgXkXlXlXlXlXlXlXjXjXlXvXcXcX8XR.r r                                                                                                                                                                                                                                                             ",
"                                                                                                                                                                                                                                                                                                                    + . . . . . . . . . . . . O @ @ @ @ @ @ @ 2 3 y h B S D h g h M B B [ ^ S x f V $.-.$.$.&.-.-.$.$.$.{ { { [ / [ [ [ S D D D D D C g @ # . . . . . . . . . . . O O @ 1 1 4 h h g z A ) $.V % % b O.2.J.J.L.>XeXqXqXeXeXeXsXoX5.3.3.,.,.O.I q X . . . @ h u q K @.v.W.{. X5X5X5X5X3X].T.M.v.w.w.=.~ ) D * . . . . . $ d.:X_.r.8.A & k i.~.G.~._._.(./.M.+.> X . . . . . . . . X 7 E A.A.U.L.I.K.U.A.K.oXoXOXP.>XeXxXzXkXlXlXlXlXlXjXjXjXjXjXlXcXcX2XM.e 7                                                                                                                                                                                                                                                             ",
"                                                                                                                                                                                                                                                                                                                  o . . . . . . . . . . . O O @ @ @ @ @ @ @ 2 C S D [ [ F V h t t y y g D S B z f B / $.%.-.&.&.%.%.$.{ { [ / ^ ^ ^ ^ D C B M M M M M 4 @ O O . . . . . . . . . . O # @ 1 5 i i h h x A A { B % & +.M.F.J.K.U.>XwX2X2X2XeXeXeXP.E T T ` @.' c % X . . . * V z l U 6.E.{. X5X5X5X5X5X3X].N.M.v.w.q.=.~ Q D * . . . . . $ ,.+X_.p.=.z X q T.}.).:X<X_.F.M.=.^ : . . . . O X . . . X r o.D.U.K.I.I.OXU.o.U.J.P.L.A.L.1XsXzXkXlXlXcXcXcXcXlXlXlXcXcXcXZX8X6.8 -                                                                                                                                                                                                                                                             ",
"                                                                                                                                                                                                                                                                                                                  . . . . . . . . . . . O O @ @ @ @ 1 1 1 * 4 F [ { [ [ S V z t = : t p B B x x z z V [ { { / ^ ^ ^ ^ ^ S S S S D D V B B M m g i y 2 * O O . . . . . . . . . . . O @ ; 2 4 4 i g h x V A ^ z = 8 ~ r.F.G.H.A.<X1X1X1X1X1X1X1XJ.o.,.T K k u = X . . . . % z a K 6.b.].|. X5X5X5X5X5X3X].N.N.M.w.q.=.) / S * . . . . . $ ,.+XJ.r.*.0 . u !.+X).oX<XR.2.O.q : % X X : g B h + . . X l ^.<X>X>XqX>X>XOXJ.oXoX_.~.o.A.K.P.>XeXeXrXdXhXhXhXgXgXhXfXfXfXfXE.q $ =                                                                                                                                                                                                                                                             ",
"                                                                                                                                                                                                                                                                                                                . . . . . . . . . . . . O @ @ @ * * 1 2 4 2 g S { { ( ^ A V z u > 9 y h B x x x x f z S ^ V z z z z z B B V D D B B B C m N i 3 2 ; @ @ O . . . . . . . . . . . . O @ 1 2 4 i i i g j h j z u = u &.v.t.5.o.o.F.G.t.t.5.5.K.:X<X(.'.*.w & $ X X X + * : u W I @.B.].|. X;X5X;X5X5X5X3X[.E.N.M.w.q.=.) / S ; . . . . . $ ,.+XJ.r.*.9 . e Q.+X_.).}.y.#.I & X X X & A -.c.%.* . . X q T.@XoX>XtXqXqX>XoX@XJ.J.~.E R E o.U.L.L.P.P.P.P.P.L.L.L.J.A.5.,.e X . =                                                                                                                                                                                                                                                             ",
"                                                                                                                                                                                                                                                                                                                . . . . . . . . . . . O @ * * 1 1 1 2 3 g g x S { -.{ ) Q c c k e u z V A Q A A V z z A A V z h f f h j z B B B D D C B N 4 1 ; * @ @ + O O . . . . . . . . . . . O @ 1 5 4 3 i i y y t : : ; % 8 x U R R J H H H r r s r R p.F.N.n.Q % X X % % X * z V Q l.x.M.]..X X X;X;X;X;X3X3X3X|.W.E.N.x.q.=.) / F ; . . . . . $ ` +XG.2.) = . u Q.+X_.)./.T v f o X & f Q $.:.k.-.: o 2 * $ r J R U.tXtXqXP.4.4.4.K.).4.E A.K.P.oXP.P.P.L.K.U.A.A.A.4.E J 7 X . . =                                                                                                                                                                                                                                                             ",
"                                                                                                                                                                                                                                                                                                                . . . . . . . . . . . O 1 1 1 1 2 5 3 g m B D ^ $.$.$.&.( ~ ! ) Q L Q ~ ( ( ( ( ) A V V S ^ B z j z h z z M Z D S S C m 4 1 @ @ o + + O X . . . . . . . . . . . . O @ @ 2 i y g g g y ; ; : * % % % - r T 5.4.3.4.4.,.R J J J e q 0 % X o % t M f 9 A ~ ' N.`.E.W.]. X;X;X;X;X;X3X3X3X.X`.E.N.z.q.=.) / F ; . . . . . $ ` }.G.T k X . u !.+X_.).!.l - o . X 0 Q &.+.( ) c z { j.g X X - r o.qXtXeXoXo.o.4.J.:X:X1XsXdXdXdXdXfXfXfXdXsXeX2X1X<X).i.K X . . =                                                                                                                                                                                                                                                             ",
"                                                                                                                                                                                                                                                                                                              + . . . . . . . . . O O @ 1 1 2 5 2 5 4 M D F [ { { { ' &.=.q.c.B.n.x.x.n.x.q.=.=.*.-.{ / / ) V z z z k f u u z B B B h 3 * @ @ o + + # O X . . . . . . . . . . . O O # @ 1 i g h h g t ; o * % % = 8 7 r 4.oX1X1X2X<X}.F.0.O.q $ X . . . o : t V A c *.c.x.`.'.W.W./. X;X;X;X;X;X3X3X3X.X`.E.N.z.q.*.) { [ ; . . . . . X ` ).S.R 7 . . e T.}._.(.M.q X . . X 9 ) +.+.' I d Q l.l.p X X 8 J 4.qXtXwX@Xo.o.A.K.>XrXrXgXgXgXzXkXZXZXZXZXZXZXZXfXfXsX<X7.w % X 8                                                                                                                                                                                                                                                             ",
"                                                                                                                                                                                                                                                                                                              . . . . . . . . . . O O @ 6 1 2 5 2 2 i C F $.$.) Q ( +.*.q.B.V.V.V.`.`.`.V.n.q.q.q.8.=.:.&.&.( ( ( ) c k z z z z B h i : * @ @ o + O O O X . . . . . . . . . . O O O O @ * 2 i h M g : * % : 9 9 c +.O.T A.P.P.P.oXP.J.F.u.+.0 X . . . . 2 u 9 v ( &.q.V.V.`.[.].].{. X;X X3X3X;X3X3X3X.XW.`.N.z.8.*.) { [ 1 . . . . . X _ (.S.R 8 X . e i.~.~.Q.w.8 . . . X 9 ) +.+.+.! I ( l.k.u $ $ w Y 4.>XwX>X1X5.E A.P.tXiXiXgXgXgXgXzXlXZXZXZXZXZXkXzXdXsX>Xp.Y z w                                                                                                                                                                                                                                                               ",
"                                                                                                                                                                                                                                                                                                            X . . . . . . . . O . O @ @ , 1 1 2 3 i M S [ $.{ A A $.&.;.q.c.B.B.B.V.V.V.V.B.q.q.q.l.l.l.z.n.B.V.V.V.c.l.;.-.-.-.%.[ S M y 1 @ o O O O . . . . . . . . . . . O O O O O O * 2 3 g m i ; * * j A c +.e.i.S.J.oXP.A.4.o.o.E Y k X . . . . . t S c ) ;.q.q.N.`.`.].].].].|.%X3X3X3X;X3X3X3X.X`.`.N.z.8.*.) $.[ 1 . . . . . X U R.S.,.L % . e t.~.G.t._ & . . . . > Q +.+.+.~ ~ +.;.-.a & $ q J E oXeX>X<X^.A.A.OXyXgXgXgXzXzXgXgXzXkXlXZXZXlXkXzXzXfXdX@X` v v                                                                                                                                                                                                                                                               ",
"                                                                                                                                                                                                                                                                                                            + . . . . . . . . O O # # @ @ , < 2 m C D D D S S A Q $.:.;.&.( +.+.+.=.6.6.q.q.q.q.q.q.l.c.V.`.`.`.[.[.V.V.n.c.l.j.k.-.%.S m i * + O O O . . . . . . . . . . . O O O O @ @ 1 i g M m 3 ; : ; f ) ) @.<.7.t.t.F.S.4.4.4.T d d 0 o . . . . X = V | *.z.z.e.B.E.W.].].].].|.%X3X3X;X;X;X3X3X.XW.'.N.w.7.+.) { [ 1 . . . . . X P S.S.7.=.u X e i.~.G.p._ 8 . . . . % c ' +.+.] ' +.*.&.l 8 q ! U J S.<XG.4.S.G.J.P.rXgXgXzXzXzXzXjXzXzXkXkXkXkXkXkXkXkXkXfX` e L                                                                                                                                                                                                                                                               ",
"                                                                                                                                                                                                                                                                                                            + . . . . . . . O O O # + @ @ , < 5 m M B B B B B V ^ { %.&.( Q Q ( ~ ~ _ +.+.*.=.8.q.q.l.n.V.`.`.[.[.`.`.N.n.n.x.;.;.:.%.S M m * + O O . . . . . . . . . . . . O O O O @ @ 1 1 4 N g 3 ; 2 : 9 ) *.' U Y T Y Y T Y O.=.I 9 % % X . . . : y B ( &.=.z.w.q.v.M.E.].'.`.'..X%X%X3X;X;X;X3X3X.XW.'.N.w.8.+.Q { } 1 . . . . . X J 5.S.r.8.u X l t.~.G.r.@.a X . . . $ k ) ' +.+.+.+.*.*.L e P 6.! 7 r ` R r T p.K.P.tXrXiXpXgXzXzXjXjXzXkXkXkXkXkXkXzXzXkXsXT r I                                                                                                                                                                                                                                                               ",
"                                                                                                                                                                                                                                                                                                          3 @ . . . . . O O O O O # @ @ @ , 1 4 N m M h x x B B S ^ ^ / ) Q Q ( $.$.$.( +.*.*.=.;.8.q.x.B.V.V.`.[.`.V.B.n.n.x.q.;.:.-.S B B 1 + O O . . . . . . . . . . . . O O O O @ @ @ @ @ 1 4 3 ; 2 : : [ k.{ u w d q w w 8 8 > % X . . . . . : B [ -.&.*.=.q.q.q.w.v.N.W.W.W.'.|. X X X;X;X3X3X3X].E.'.N.w.8.+.Q [ S * . . . . . X J 5.p.r.8.u X l i.R.G.r.@.V o . . . X 8 v ! ] +.+.+.+.*.! l Y e.! X X $ - - J d.4.U.I.tXtXrXyXiXgXjXjXzXkXkXkXkXzXzXzXzXfX8XT e U                                                                                                                                                                                                                                                               ",
"                                                                                                                                                                                                                                                                                                          1 + . . . . . . . O . O O # @ @ @ 1 i N M B h h h B B A D A ^ ^ A A ^ $.$.( Q $.&.=.=.=.8.8.l.c.B.B.V.V.V.N.B.n.v.x.w.q.k.;.^ B m * O O . . . . . . . . . . . . . X O O O O o o O @ o ; ; ; 1 * * i B h % $ o o X X X . . . . . . . . o u V [ -.:.=.=.q.q.q.w.w.M.E.E.W.`.|. X X;X;X;X;X3X3X[.E.E.B.q.=.' Q ^ D * . . . . . X J 5.5.r.*.0 X d i.~.G.2.! z X . . . X $ q ! @.6.*.+.' &.' L P e.*.$ . X X & d J E A.P.qXtXtXtXtXrXiXgXkXlXZXZXlXkXkXkXkXkXsXY e                                                                                                                                                                                                                                                                 ",
"                                                                                                                                                                                                                                                                                                          o . . . . . . O O O . O # # # @ , 1 4 h M B B B h h h h B B S A B z x A A A V ( &.:.=.=.;.;.l.8.=.=.q.z.c.n.n.n.c.x.z.l.;.-.A h 3 + . . . . . . . . . . . . . . . . X O O O o O + o o o 1 g * O . X X X o X X X X . . . . . . . . X o : h V ( -.&.&.*.=.6.q.x.v.v.N.E.N.E.|. X X X5X5X5X3X3X].N.B.v.8.=.&.) [ B o . . . . . X Y S.p.r.' = . e i.~.F.,.I h X . . . . X 9 ( q.q.6.@.' ' ' I d 9.w.! Q p % % k r R A.P.qXrXrXrXrXrXrXgXkXZXZXZXZXZXZXZXZXCX0XJ w                                                                                                                                                                                                                                                                 ",
"                                                                                                                                                                                                                                                                                                        X . . . . . . O O O O O # @ @ , , 1 5 i i M B D M t 3 3 y y h B B z f f f x z x ) &.&.&.&.&.:.:.+.~ I ' =.q.x.n.n.n.x.z.;.-.%.B y ; X . . . . . . . . . . . . . . . . . O O O O O + + + X ; M ; . . . X % t u 9 9 t * . . . . X + @ y h z z c ( ' ' +.*.=.=.q.x.n.n.B.B.M.E.|.%X X X5X5X3X3X|.`.M.v.z.8.=.-.( { h + . . . . . X U S.p.7._ & . w t.~.F.,.l 9 . . . . . . & ) l.z.6.*.' ) ' Q e ` b.].4Xc.= . 9 e R A.K.>XrXxXxXiXiXgXgXkXkXkXkXkXkXkXfXsX).` 7 w                                                                                                                                                                                                                                                                 ",
"                                                                                                                                                                                                                                                                                                        . . . . . . . O O O O # # @ , 1 1 5 N m i h h B g % % % = : 3 y g g j j B A x x A $.-.-.$.) ) ) Q Q Q ( *.=.8.x.x.c.c.l.:.$.[ g : * . . . . . . . . . . . . . . . . . . . . O O O O O X . o ; 9 k c d 7 7 c ) c c ^ h o . . X o * y C S S V c Q ( ' ] *.=.=.q.x.n.n.n.B.B.E.|.|.|. X5X5X3X|.|.`.v.n.q.=.=.&.-.-.h X . . . . . X U S.p.2._ & . e i.G.F.7.e X . . . . . . X q +.z.q.8.*.) ) v e Y r..X9XV.: . $ d T A.U.bXgXiXiXiXgXgXgXgXgXgXdXdXdXeX1XS.J 7 - w                                                                                                                                                                                                                                                                 ",
"                                                                                                                                                                                                                                                                                                      O . . . . . . . O O O O # @ @ @ * 1 4 m B h g h x f z x z f u 0 0 f x V A ^ S A V z S { / ^ A A / ^ Q ) ( ( +.*.=.l.l.j.-./ V B : * @ . . . . . . . . . . . . . . . . . . . . O O O O O X % 0 q U w.y.<.Y P _ ' L c A h X . . . @ 3 h D ^ ^ Q Q ( &.@.@.*.=.6.q.x.n.n.v.B.N.W.[.].]..X3X3X|.|.[.V.B.v.8.*.=.:.:.-.h O . . . . . . P i.p.,.+.9 X l s.G.G.u.q . . . . . . . . $ Q l.z.q.*.Q c k w d O.{.9XB.= . % c 3.J.OXtXgXiXiXiXpXgXgXgXgXgXgXgXdXsX1XT.K $ $ =                                                                                                                                                                                                                                                                 ",
"                                                                                                                                                                                                                                                                                                      + . . . . . . O O O O O # O O @ @ * 2 i m h g j j z $.:.&.) Q A b Q ) $.( $.( Q A z V A j 0 9 f S S ^ Q / ( ( { ( { $.$./ f t 3 + X . . . . . . . . . . . . . . . . . . . . . O O O X X & V ~ U #.i.i.p.r.7.w.6.( I k : X X . X * : g B S ) ) ) *.=.=.6.=.6.8.q.x.x.x.v.v.E.].[.].]..X3X X].`.`.B.x.w.=.+.&.-.:.%.i . . . . . . X P i.5.2.8.z % P F.G.G.y.q . . . . . . . . X k ;.z.z.=.) k 0 9 q P B.4Xl.& . % L 3.J.>XeXiXiXiXiXiXiXgXgXgXgXgXgXdXwX+Xi.l $ X $                                                                                                                                                                                                                                                                 ",
"                                                                                                                                                                                                                                                                                                      + . . . . . . O O O O O O O O + @ * 2 y u p h z x A ;.l.=.+.+.+.+.;.z.x.z.z.q.;.*.( Q x 9 & % = u h z z S [ { { { ^ { [ M 3 * * . . . . . . . . . . . . . . . . . . . . . . O O O X % $ w =.@.T ,.r.y.i.i.y.6.] I k ; X X X X + * 0 y u x Q ( ' *.=.8.8.8.8.q.w.x.w.w.w.v.N.'.].|..X X3X%X'.N.B.z.q.q.*.' &.$.$.[ i . . . . . . . P i.5.a.q.z & P S.G.R.u.d X . . . . . . . . % c &.l.l.-.p % % % & k ( k % . X d d.H.OXqXrXrXyXiXiXiXgXgXgXgXgXgXdXOXH.b.L $ % 9                                                                                                                                                                                                                                                                 ",
"                                                                                                                                                                                                                                                                                                    < + . . . . . . . O O O . . O O O + * y p h z S A Q ( =.q.=.=.1.6.6.w.v.v.v.v.b.n.n.x.l.:.) A h = % % $ % g ^ { { S h B y * o + + . . . . . . . . . . . . . . . . . . . . . . O O X & Q I _ w.O.T T O.O.T T P v q = $ . . X O * : y g h f z Q ( &.=.8.8.8.e.q.q.z.z.w.w.w.u.M.E.]. X3X3X3X%X`.B.x.q.8.8.=.:.;.{ V B 1 . . . . . . X Y i.p.a.=.t X P F.~.~.b.c X . . . . . . . . X $ 0 z V z ; . . . . X $ $ X . $ l ,.H.P.I.qXtXtXyXiXxXrXgXgXdXgXdXdX>X~.E.W $ 8                                                                                                                                                                                                                                                                   ",
"                                                                                                                                                                                                                                                                                                    O . . . . . . . . O O O O O O O + @ 2 i p Z ^ { | | &.=.7.q.e.6.0.0.u.M.M.M.M.E.E.E.N.n.n.c.c.j.p X X . . o 2 3 = % X o . . . . . . . . . . . . . . . . . . . . . . . . . . . O O X u n.B.M.i.2.,.T T P d r w 9 % X . . . # ; i M h h B V A Q ) ( =.8.q.q.q.w.w.z.w.w.v.u.w.M.|.3X4X3X3X%X[.B.w.q.=.=.;.;.;.j.^ h g @ . . . . . . X P i.p.r.+.= X P i.G.G.M.~ X . . . . . . . . . . . . X X . . . . . . X o o o : ) 1.S.oXP.>XtXtXrXiXrXrXrXdXdXdXdXsX1X!.<.8 $ =                                                                                                                                                                                                                                                                   ",
"                                                                                                                                                                                                                                                                                                  . . . . . . . . . O O O O O O O + * 2 i p z V [ &.-.*.*.6.7.e.e.7.y.!.Q.Q.(.(.{..X}.|.Q.M.N.V.V.c.V $ o o O . . . . . . . . . . . . . . . . . . . . . . . . . . . . . . . . . . O + % l v.i.i.i.t.r.3.T Y J e w : @ . . . O @ 4 M B z x S / ) ) Q Q +.8.q.q.w.z.z.w.7.e.v.u.1.w.[.%X%X|.[.[.V.B.c.z.8.=.:.&.-.{ V g y + . . . . . . X v 0.p.y.' % X P i.S.F.u.I % . . . . . . . . . . . . . . . . . . . . X o % % t ) ` 5.G.K.L.I.>XtXrXrXtXtXwXwXqX>XOX).3.e $ $ -                                                                                                                                                                                                                                                                   ",
"                                                                                                                                                                                                                                                                                                  O . . . . . . . . . . . O O O + < i i i h z ) &.*.*.*.=.6.7.0.0.0.i..X,X<X,X<X6X6X6X6X,X.X.X|.&X&Xz.z x M 4 @ X . . . . . . . . . . . . . . . . . . . . . . . . . . . . . . . . . + : k =.w.r.i.t.G.G.i.y.y.6.) y O . . o ; i h B B B A / ( ) Q v v ( =.q.l.z.z.z.q.@.8.v.w.@.e.B.N.`.V.V.V.V.B.c.x.q.:.| Q c Z h i 2 + . . . . . . X l O.a.y.' & $ Y S.G.F.7.v 9 o . . . . . . . . . . . . . . . . . . . . + + o % u l T 4.o.o.K.oX>XeXeXwXwXwXwX>XOXoXXX_ & - 7                                                                                                                                                                                                                                                                     ",
"                                                                                                                                                                                                                                                                                                  O . . . . . . . . . . . O O + @ i M m h z V ( &.*.*.6.7.7.e.0.0.0.y.(.,X<X<X<X<X6X6X0X6X5X5X7X4X4X[.*.&.{ A = X . . . . . . . . . . . . . . . . . . . . . . . . . . . . . . . . . + ; 0 z I ` 3.r.(.}.{.E.M.z.A % . . . ; N B B B A A A / ( ( ~ I Q ' =.8.q.q.w.q.6.@.7.z.q.+.=.q.q.z.q.=.=.=.=.=.=.&.&.) v u p i i 2 O . . . . . . X W @.2.u.*.= X Y i.S.S.r.U A h @ . . . . . . . . . . . . . . . . . . . + + o % = w K @.7.a.S.!.).).oX)._._.^.^.G.F.w.a $ u                                                                                                                                                                                                                                                                       ",
"                                                                                                                                                                                                                                                                                                @ O . . . . . . . . . . O O + @ 2 h h m V W Q ! ' _ ' 6.7.0.0.0.0.r.5.F.,X<X<X<X<X0X0X0X<X,X,X5X7X7X|.v.w.z.q.! v p % . . . . . . . . . . . . . . . . . . . . . . . . . . . . . . . O o * ; 8 e P O.!.;XQ.0.@.$.u . . . X 4 D D D B V V A A ) $.&.+.&.&.&.*.=.8.q.q.6.*.8.q.=.~ ) &.&.&.+.( +.( ( $.&.&.&.{ V f y i i 5 O . . . . . . . c ' ` y.*.9 $ Y t.S.S.0._ $.S @ . . . . . . . . . . . . . . . . . . . . o * % % & w k l a l K K K J H H J J J r e w - X 0                                                                                                                                                                                                                                                                       ",
"                                                                                                                                                                                                                                                                                                + . . . . . . . . . . . O O + < g h u a Q ( ! P _ ` @.1.1.6.7.2.a.2.3.t.}.}.}._.<X<X1X1X<X,X,X,X,X7X5X X X;X3X].`.V.| % . . . . . . . . . . . . . . . . . . . . . . . . . . . . . . . + o o & w k K =.v._ e 8 : X . . . @ M D F D D B B x x A ( &.*.=.*.&.&.*.=.8.8.8.8.=.;.:.Q Q / ( ( ( $.$.$.$.$.$.$.$.{ ^ B i 2 i 5 O . . . . . . . % 8 d e.=.t $ Y r.t.t.2.O.-.[ ; . . . . . . . . . . . . . . . . . . . . + * % $ $ - & & - $ $ X X X $ $ $ - $ $ $ $ X X 7                                                                                                                                                                                                                                                                       ",
"                                                                                                                                                                                                                                                                                                . . . . . . . . . . . . O O + < N z u x ) | ' _ 9.y.y.0.a.a.0.r.p.p.p.F.}.+X(.H.J._.+X<X<X<X<X<X<X,X,X,X,X,X5X X].`.&.0 : + . . . . . . . . . . . . . . . . . . . . . . . . . . . . . . . X $ 9 z k c v > X X . . . . # 1 N N N M m h g y u x { -.:.:.*.*.*.*.=.=.=.8.=.*.&.-.V Z S ^ ^ ^ [ [ [ [ [ / ^ A V ^ S i ; 2 1 . . . . . . . . . . & +.-.t $ U r.5.p.2.+.:./ ; . . . . . . . . . . . . . . . . . . . . . X $ = q k L L v l e q e v u % % * + + X $ 7 7                                                                                                                                                                                                                                                                         ",
"                                                                                                                                                                                                                                                                                              X . . . . . . . . . . . . O O + @ i z z W ) ' ` O.u.E.T.T.F.!.R.R./.(.(.(.(.{.(.R.G.H.H._.<X<X<X<X}._.(.(.}.,X;X;X X[.w.' { i O . . . . . . . . . . . . . . . . . . . . . . . X X X X . . . . . X * ; t t o X . . . . . O @ @ @ 6 @ @ @ @ * % 3 V / { &.&.&.&.*.&.&.*.*.*.-.{ ^ y = 2 t t t y i i i y y t q u B V g * * @ . . . . . . . . * = - l z & - _ p.p.t.0.+.( B o . . . . . . . . . . . . . . . . . . . . . o t Q &.=.6.7.7.6.@.*.8.l.) $ o + . . X > Q                                                                                                                                                                                                                                                                           ",
"                                                                                                                                                                                                                                                                                              O . . . . . . . . . . . O + + + * u z c Q _ ] T ` T.Q.R.!.F.R.{.}.(.(.R.F.t.t.(.}.}._.H.J.+X1X0X<X}.~.G.H.}.,X,X,X5X%XN.l.j.B o O . . . . . . . . . . . . . . . X $ % > 8 9 q q e w 9 & - $ X . . . X o X . . . . . . . o X X X X X X X . . . o = 9 p V ^ ( ( $.( ( { &.{ { / Z * X . X X o % * * * % % & = 8 u u t % + . . . . . . . . . * : & w = X & @.i.S.F.0._ Q g o . . . . . . . . . . . . . . . . . . . . . X u &.q.7.0.0.0.1.1.6.w.z.) X X . . . X &                                                                                                                                                                                                                                                                             ",
"                                                                                                                                                                                                                                                                                              + . . . . . . . . . O O + + * : u Z V Q ) +.@.` ,.Q.{./.G.G.R.}.}.(.(.F.5.3.5.~.,X,X,X}.+X<X1X0X1X+X~.~.(.}.+X,X,X5X%X`.z.;.A o + O O . . . + 2 y t : : > 9 9 w e L *.w.y.M.Q.Q.Q.Q.E.u.7.=.z X . . O O . . . : A A ) $.l.q.&.&.+.' ~ ) Q f : * * 2 M C S S S S S S ^ ^ ^ ^ S M * . . . . X X X X X $ $ - & & 7 7 & X . . . . . . . . . . X X 8 v : X 8 6.i.S.T.u.' x ; . . . . . . . . . . . . . . . . . . . . . . + % u _ 1.2.0.0.2.1.2.0.w.~ $ X . . . . -                                                                                                                                                                                                                                                                             ",
"                                                                                                                                                                                                                                                                                            ; O . . . . . . . . . O @ @ * * t z V Q ) +.*.#.1.0./..X(./.(..X}..X/.Q.T.i.y.t.Q. X X}.}.+X<X6X0X1X<X}.}.+X}.}. X}. X X`.w.:.^ % @ + O . . O 1 h V V V V v e l P Y ,.p.S.G.~._.).).+X@X).Q.V.-.* X O O O . . X B z.w.B.`.%X|.{.{.].{.].'.`.k.z : * 2 N N i i i p p g p g h j g : o o x ( +.+.#.6.O.K K P Y Y P K K l e 9 o . . . . . . . . . X 9 / y X 8 6.i.t.i.y.+.f X . . . . . . . . . . . . . . . . . . . . . . X X - l 1.1.1.0.7.1.<.2.e.( & + . . . X &                                                                                                                                                                                                                                                                             ",
"                                                                                                                                                                                                                                                                                            @ . . . . . . . . . . O @ @ * = t z Q ~ ' @.e.e.r.u.!././.s.y.e.e.=._ ~ Q I I _ #.e.v.M.E.]. X,X,X<X<X,X<X,X<X}.(.t.t.].E.6.&.A % @ + O . . + 2 p z V Q ' _ U ` ,.4.S.G.H.A.K.J.J.J.oXoX).Q.N.[ % X O O O . . X A x.0.y.T.{.}.}.}.}.).(..X|.q.q & o + + + X . . . . + X + o o X . . u 4XCXfXfXfXZXfX(.R.!.T.F.i.u.y.r.e.*.z * + . . . . . . . X u { i X = @.y.r.2.@.~ z % . . . . . . . . . . . . . . . . . . . . . . X $ 7 I <.O.O.9.1.#.` ` *.) = X . . o >                                                                                                                                                                                                                                                                               ",
"                                                                                                                                                                                                                                                                                          . . . . . . . . . . . . . + @ * : k Q ~ @.=.z.B.B.B.M.M.M.V.1.d & % X X . . . . . X X % & 0 k K K T t. X5X,X,X,X,X}.F.5.E.i._ $.f X o o O . . o 3 u v Q ! 6.y.i.Q.).}.+X@XoXoXoXoXoXoXoX@XR.7.) t X . O + O . . X L u.y.t.t.!.}.+X+X+X}.(.}.{.7.l l 8 X . X . . . . . . . . . . . . . 0 8XZXvXvXvXvXfXP.~.~.J.G.F.F.S.t.p.7.U 8 3 @ . . . . . . X u [ i + % I <.2.` U ! ) x 3 + . . . . . . . . . . . . . . . . . . . X 8 v _ 6.0.T P ! ! L v l k u % X : p                                                                                                                                                                                                                                                                                   ",
"                                                                                                                                                                                                                                                                                          . . . . . . . . . . . . . O @ * 0 c ' 6.6.q.6.*.>.>.=.8.q.l.) > X . . . . . . . . . . . . . X X X - K y.v.M.E..X3X5X.XR.E.0.U $.z o o @ O . . + : u c Q ! @.2.p.S.~._.).oXoXoX:X:X1X<X<X}.7.d = o X + + + + . . X L v.M.i.r.p.R.}.}._.~.~.(.(.!.y.z.! w w u w > $ % $ $ % o . . . . . 0 2XZXvXvXvXvXeXA.S.G.G.G.G.F.S.5.a.3.P 8 2 + . . . . . X o : D i X $ e U 9.O.! ! ( $.[ 2 . . . . . . . . . . . . . . . . . . X X e @.e.y.0.P r e w 7 = - $ % X X p                                                                                                                                                                                                                                                                                     ",
"                                                                                                                                                                                                                                                                                          . . . . . . . . . . . . . O @ y z L +.6.8.8.( q & & * : : 3 * X . . . . . . . . . . . . . . . . . X $ = = 8 e 6.%X4X X].W.6.+.:.A ; @ @ O . . + : u k Q _ ` 3.3.4.5.H.^.oXoXoXoXoX@X+X).Q.! = o o % % % % + . . X ) B.W.E.y.5.R.).~.H.H.~.).}.,X XQ.@.U 9.v.y.@.U v l v c h % . . . . q 2XZXvXvXvXvX:XE E 3.r.t.S.S.t.5.3.<.Y q t o . . . . . + * ; i 1 O X 9 L @.@._ ~ ' -.%.y . . . . . . . . . . . . . . . . . . X $ e @.0.u.2.P r w 7 = & $ X . . X 0                                                                                                                                                                                                                                                                                     ",
"                                                                                                                                                                                                                                                                                          . . . . . . . . . . . . . X ; x c I _ =.8.:.[ : X X . . . . . . . . . . . . . . . . X X X X X . . . . X X X X c c.n.w.w.v.w.q.;.( 0 * @ . . . X : 9 w L _ <.3.3.o.4.H.oXoX@X@XoXJ.S.S.t.v.L $ o % = u V z = . . $ ) n.N.T.r.i..X}.~.H.J.).+X+X,X5X!.T ` i.T.i.2.T T T ! ! Q : . . . . w 2XcXvXvXvXkX_.J P Y T d.3.4.5.p.2.<.I u t + . . . . . . + * * @ . X u ~ @.@.@.' ) { { y X . . . . . . . . . . . . . . . . . X - r ` 0.p.r.1.@.@.' ) z % . . . X 8                                                                                                                                                                                                                                                                                     ",
"                                                                                                                                                                                                                                                                                        ; O . . . . . . . . . . . + * 3 x I ! @.=.) z : + . . . . . . . . . . . . . . O + + o : : * : : = % X X o + + . X % X $ - e v ~ ;.$.f * O . . . X > = 8 l P 1.p.5.4.4.S._.oXoXoX~.S.4.,.3.q.Q o + % q ( C.c.S X . X Q z.u.y.2.i.{.}.}.+X<X<X+X}.,X5XT.T T r.t.t.t.F.s.t.7.6.;.u X . . . d 2XcXvXvXvXkX_.J d J R T ,.3.5.r.1.` l 8 = O . . . . . . o * * O . . 9 V ) *.6.] ) ) ^ p o . . . . . . . . . . . . . . . . . X - w O.5.r.y.i.b.b.B.c.$.* . . + $                                                                                                                                                                                                                                                                                       ",
"                                                                                                                                                                                                                                                                                        @ . . . . . . . . . . . . ; t u c Q ~ *.&.f X . . . . . . . . . . . . . + * 2 2 2 3 y M M p h B B u t t p 2 + X . . . . . X X 0 ) $.B g @ . . . X > 8 8 d P 1.i.F.p.4.5.S.A.A.5.5.t.3.,.@.=.B X o : k Q ;.j.p X . X c =.7.1.<.b.{.(.).<X0X<X+X}.,X5Xu.P P ` 2.F._.<X;X{.b.v.l.u X . . X K sXvXvXvXjXkX:Xd.T ` ,.3.5.r.p.2.T P q & o . . . . . . . * i 1 O . . X > Q =.8.' ) Q V h * X . . . . . . . . . . . . . . . . X - e 1.5.r.r.i.i.M.B.c.$.; O + o 9                                                                                                                                                                                                                                                                                       ",
"                                                                                                                                                                                                                                                                                      X . . . . . . . . . . . . . 2 i f V ) ~ &.( ; . . . . . . . . . . O O + @ ; i M M h g B S ^ S ^ [ { [ ) ^ / S i 3 * + O O X X . o f x B C 1 O . . X > 9 w d U 7.u.i.r.4.4.4.3.o.o.5.S.r.3._ V = . o t k z V z % . . o V *.=.<.3.b.Q.R.}.0X8X<X).).}.3Xw.l d J T y.!.G.F.i.1.@.( 0 X . . X Y sXhXaXaXaXhX1XF.!.i.t.p.r.r.i.1.J e q : o . . . . . . . 1 m 4 O . . . X u ( *.*.' ) V h 9 * + O . . . . . . . . . . . . . . o & l 0.5.5.p.i.s.i.y.q.Q * + + o 8                                                                                                                                                                                                                                                                                       ",
"                                                                                                                                                                                                                                                                                    . . . . . . . . . . . . . . O 3 h x A ) ) ) f o . . . . . . . . . . O @ 1 3 y M B B z z V / | { ( &.-.-.&.{ ^ ^ ^ S i @ O O O X . O o X ; 1 @ O . . X & 8 w d U 6.7.2.3.3.3.3.3.E o.H.}.Q.y.) u + . X : u z Z p * . . o V &.=.6.2.T.R.G.+X8X8X<X+X).}.3Xy.v e e l O.2.3.,.d.Y P c > X X . $ T eXuXuXaXaXgX2XJ.(.!.t.t.5.5.p.0.P e u t o X . . . . . . * M i + . . . . % q W &.*.' V t : = * @ O . . . . . . . . . . . . . X & K w.t.t.i.i.y.6.=.*.Q & o * $ =                                                                                                                                                                                                                                                                                       ",
"                                                                                                                                                                                                                                                                                    X . . . . . . . . . . . . . X 3 B V Q { $.k % . . . . . . . . . X X o 3 M B B B B z z z c ) *.&.| *.*.=.;.*.| ) } [ M ; @ + O O O O O . . . . X + o = 9 w q d U @.` ` ,.3.o.E E E 4.G.+X(.y.v % + X X = t h B h * . . % A &.=.6.2.s.R.G.<X8X8X8X<X}.,X5Xx.v u q w l T O.<.O.Y l v : X O o - T eXuXuXaXaXgX>XA.S.S.S.G.S.5.r.0.T K z g * X X . . . . . * m i o . . . . . % z ( &.( k $ % % * @ + . . . . . . . . . . . . . X - d 0.i.T.T.T.i.#.! ) c % X $ $ &                                                                                                                                                                                                                                                                                       ",
"                                                                                                                                                                                                                                                                                  + . . . . . . . . . . . . . . . > x c / / x o . . . . . . . . . . * i h B S S A V c v k k v ) &.&.' +.*.=.*.&.' ) Q ^ Z N i 1 @ . . . O . . . . X % 9 k c L U _ _ ,.,.,.o.3.o.3.5.S.G.).).s.9.u X o o % > u j B M * + . * Q &.=.9.7.T.R.~.<X9XsX8X0X<X,X7XM.v u 9 8 w K @.e.=.Y l k : + + o - E eXuXuXaXaXyX>XA.A.S.H._.~.t.5.2.` _ c h 2 o X . . . . . * m m * . . . . . % x A ) ) c q u y : : @ . . . . . . . . . . . . . X - r 2.T.T.Q.'.E.#.L c f % $ & -                                                                                                                                                                                                                                                                                         ",
"                                                                                                                                                                                                                                                                                  . . . . . . . . . . . O O + @ % 0 k k ) B ; . . . . . . . . . X + * D [ [ [ ^ V c c Q ( &.=.l.8.=.=.*.=.=.=.*.&.) l c B D F M 1 O . . . . . . . X % q L _ @.1.7.2.p.t.S.G.G.~.~._.+X<X<X Xr.] w X % : : 0 u h B i * + X > ) *.=.1.0.R.}.+X0XsXsX8X8X<X,X0XV.L t 9 9 u c I ' +.I v z : + + o - E uXpXaXaXaXgX>XA.S.S.H.).).S.r.3.O.@.L u 3 @ O . . . . . * M m * . . . . . + 3 c V c Q / [ ^ B M 3 + . . . . . . . . . . . . X 7 d u.R.F.T.].'.@.L c u % $ 0 a                                                                                                                                                                                                                                                                                         ",
"                                                                                                                                                                                                                                                                                X . . . . . . . . . . O O + * i z ( ( I A : X . . . . . . . . . + o * C [ ^ S A V c W &.c.C.C.c.l.8.8.7.6.8.q.q.q.*.c x A S F F 4 + . . . . . . . X & e U #.2.5.4.5.G._.oXoX<X<X<XoX+X<X5X5X8.q & X * t u f f y y : * @ X > Q *.=.1.a./.,X0XsXsXsXsX8X0X6X0XB.c t t y z j & % : : 0 y * O + % - E uXaXaXaXaXhX>XA.S.G.G._.(.S.r.3.,.6.I u y ; O . . . . . % h m ; . . . . . . + u x z A ( -./ V B t o . . . . . . . . . . . . > d T T.Q.i.i.E.V.@.Q V 0 X X f                                                                                                                                                                                                                                                                                           ",
"                                                                                                                                                                                                                                                                                . . . . . . . . . . O O O @ ; h V &.*.&.f X . . . . . . . . . . * 2 3 D [ ^ A ^ Q Q ' ;.c.c.z.l.;.=.=.=.6.6.w.z.x.8.Q A ^ A B M 4 @ . . . . . . . % 8 d _ <.5.5.o.5.K.J.J.J.oX:X<XoX+X}.i.q.v - 9 u 0 t h h 0 % % % * * X : ^ *.6.e.u./.,X0XsXsXsXsX8X8X6X7Xx.z t > 9 y : o X X X o * o O + * - o.dXaXaXaXaXhX1XS.S.S.G.G.R.S.r.2.1.6.L u y * . . . . . . o g h ; X . . . . . + = f z c ) | ) V x f : % o . . . . . . . . . X q I O.s.R.i.u.i.v.@.Q V 9 X $ k                                                                                                                                                                                                                                                                                           ",
"                                                                                                                                                                                                                                                                              . . . . . . . . . . . . O + @ y x Q ' &.{ * . . . . . . . . . . . * y i Z ^ ^ [ { { &.=.8.;.8.8.;.=.=.6.6.6.e.w.x.x.q.' Q A B h N 2 + . . . . . . . % u I @.2.t.G.K.J.oXoXoXoXoX1X<X+X5X'.L 9 & $ q ) x u h h : o + * * * . = ^ &.q.v.N.W.G.}.8X8X8X9X8X0X,X;Xq.z t 9 > : ; @ o + X X + O O + * - 3.hXvXvXaXaXhX>XA.t.i.t.t.t.S.t.r.7.@.k t 3 @ . . . . . . o g g ; + . . . . . X o 9 z c ) { ( ( ) A B B h : . . . . . . . . . e U d.t.T.T.u.0.e.=.) c : X $ a                                                                                                                                                                                                                                                                                           ",
"                                                                                                                                                                                                                                                                              . . . . . . . . . . . . O @ * h ^ ( &.-.S X . . . . . . . . . . . * i h Z ^ S / { -.&.*.*.*.&.*.*.=.=.8.8.7.q.z.x.x.l.*.) ^ x i g 2 + . . . . . . . % k ~ <.5.F.).:X1X1X1X1X1X1X1X<XQ.v.*.> X % 8 d ~ V 0 y h : o * 2 2 * . * V / +.q.B.B.y.(.0X6X0X9X8X6X;X].+.k u t 9 : : * * @ + X O X . O * - 4.vXvXvXvXaXhX:X5.0.7.2.2.2.r.i.i.u.=.e : ; o . . . . . . % g h : + . . . . . X X * f x Q ) ( ( ( ) ^ ^ ^ h X . . . . . . . X e T d.y.!.T.i.1.1.q.&.x 9 + X u                                                                                                                                                                                                                                                                                           ",
"                                                                                                                                                                                                                                                                            X . . . . . . . . . O O O + * y B ^ &.( / h . . . . . . . . . . . . * 2 2 M S V V Q ( &.&.&.+.~ +.>.=.=.=.=.6.8.z.x.x.l.*.( { B y i : + . . . . . . . % e ! <.a.F._.oX:X1X1X1X1X<X<X}.9.8 % . . 8 Q U _ c % % y : * 2 2 2 * . o i u q k U U T 3.t.i.T.(.{.{.].N.P e u u q 9 = * * * + + + X X X = 7 A.vXvXvXvXaXdX_.d.T U _ _ ` 2.i.M.B.=.0 o O . . . . . . . % g h : X . . . . . . X o : f x A Q Q Q Q Q S S h * + . . . . . . X e _ d.r.W.W.s.1.#.8.&.x : + X                                                                                                                                                                                                                                                                                             ",
"                                                                                                                                                                                                                                                                            X . . . . . . . X O O O O + 2 x x S $.A : * X . . . . . . . . . . . o * * y h z x V ) ( ( ' ( ( +.=.=.=.=.*.*.;.l.l.l.l.*.&.{ V u y ; @ O . . . . . . $ u I <.r.F.).:X<X<X<X<X<XoX).{.( . . . . q @.` ` v % . @ @ ; i i i * . + 2 y 0 q e d K Y T T T ,.,.1.7.8.L e l v l w & & = * o X X . X $ w r K.cXvXvXvXuX2XH.J d q q e d Y @.6.*.c % . . . . . . . . . % h B 3 o X . . . . . O . X : u f x c V Q ^ ^ D g 3 1 O . . . . . X l O.d.r.W./.M.0.=.6.&.z ; X X                                                                                                                                                                                                                                                                                             ",
"                                                                                                                                                                                                                                                                            O . . . . . . . X O O + + * y B D A ^ B % + . . . . . . . . . . . . O + + * : > 0 V / [ ( ) ( +.*.*.=.*.*.&.+.=.8.8.8.;.&.-.{ V h y : @ O O . . . X . X 8 k ~ @.w.'..X{.Q.Q././.T.v.n.A . . . $ l ,.3.3.c % X O + 2 h h g : . O * t z W L L @.9.2.1.3.,.@._ u u u l _ 0.7._ e q 0 9 : % X $ $ d ,.o.:XvXvXvXhX>X_.r.e = & $ - 7 8 > 9 > % . . . . . . . . . . % z B t o + O . . . . . . . X * : u f f z x B B g i 2 O . . . . . X v <.,.a.T./.E.e.#.=.( f = X $                                                                                                                                                                                                                                                                                             ",
"                                                                                                                                                                                                                                                                          @ . . . . . . . X O O + + * h B S S B g ; X . . . . . . . . . . . . . . O O o * ; : z ^ ( ) ) ( &.=.:.*.*.*.&.' +.&.&.&.' ( | { V x g : @ @ O . . X % $ $ % $ = $ = 8 q w 9 9 9 9 > > 9 % . . X q T 3.r.0.L % X + o 3 M M z : . . + % z ! U U 1.u.i.i.i.i.M.&.% . X w ,.R.(.M.T v u q u k k W Y u.,X:XuXkXhXgXuXP.H.1.d 9 0 0 f z u ; & : : * o . . . . . . . . o z B 3 @ o + . . . . . . . . . * 3 t t 0 q f f u i 2 . . . . . . X L 7.3.a.Q.|.].6.U ~ A 0 & % $                                                                                                                                                                                                                                                                                             ",
"                                                                                                                                                                                                                                                                          @ . . . . . . . . O O + + * B S S S h * . . . . . . . . . . . . . . . . . . + * : 0 z ^ ) ) ) ( &.=.*.*.*.*.&.' ~ ~ ~ ) Q ) ( / A B h 3 1 @ O . . % 0 u t % % X X X X X . . . . . . . . . . . = I ,.4.5.0.v % O o ; f Z V B 3 . . . & v ! _ O.0.i.S.F.F.F.M.&.% . . & ,._.}.~.r._ l e e v I *.#.t.1XeXuXgXhXyXeX1X}.6.v f u z V V x z z x B D g + . . . . . . . o p h : * @ O . . . . . . . . . + ; i y u u f f h h 3 . . . . . . X U w.0.i.|.7X%Xw.! L z 9 > = -                                                                                                                                                                                                                                                                                             ",
"                                                                                                                                                                                                                                                                          O . . . . . . O O O O + * 3 B D D D h o . . . . . . . . . . . . . . . . X X o ; 0 f V A ^ ) ) ( ' &.*.*.*.=.=.*.*.+.' ) ) ) ) ^ A B h 3 1 @ . . X > c W z > % o o @ o + o + + + O O . . . . X 0 ] 2.4.p.0.k X O o t z V V V y . . . = c ! O.7.i.S.F.F.G.F.M.*.% . . - O.+X<X+XR.r.U l d e e v T o.:XeX>XeXuXuXeX2X,X=.k u q k z c c Q A x B A M * . . . . . . . o y y : ; * + . . . . . . . . . . * 2 y g j B B B B i . . . X O . X ! y.i.T.{. X|.B.q.&.A 9 9 u w                                                                                                                                                                                                                                                                                             ",
"                                                                                                                                                                                                                                                                        1 . . . . . . . O O O o * 3 g x D C h 2 X . . . . . . . . . . . . . . . X + o ; t j B A A Q Q ) ) ) &.*.=.*.8.8.l.l.8.=.&.( ) ) ^ D C h 2 @ . . . X w W ] W 0 % % % * : y h N i 2 1 @ O + + X X k @.2.4.p.w.u . X o t c Q ) ) h X . + 9 z ! O.a.i.S.S.F.G.G.T.*.= . . X Y {.<XoX).F.,.Y K d e K 6.t.2XeXP.K.P.P.:X1X).T w 9 q k c ~ ' +.( Q x f y @ . . . . . . . o y y : : * + . . . . . . . . . . O o ; t g D D M B i X . . O O X $ _ y.i.E.Q.E.M.x.l.l.[ 9 > k                                                                                                                                                                                                                                                                                               ",
"                                                                                                                                                                                                                                                                        O . . . . . . O O # o @ 2 M B B S B o X . . . . . . . . . . . . . . . . @ 2 y f h x A A A Q Q ) ( ' *.=.8.8.8.8.z.z.q.=.&.( ) ( ^ B h i ; # . . . X k ' ' ! w & 7 w k Q { { [ S z y : * o o X & v @.3.3.r.6.t X X % u Q ) *.-.Z X . o t k U _ 1.p.t.t.S.G.!.T.*.& . . . - P 4.J.P._.F.r.` Y v v _ d.).<XK.K.P.P.P.P.t.J w 8 9 d ! *.6.6.*.( A u : @ . . . . . . . $ t t = : 2 @ . . . . . . . . . . . . X o 3 M M i 2 @ . . . O O + $ ~ w.i.Q.].E.B.6.+.{ M % $ q                                                                                                                                                                                                                                                                                               ",
"                                                                                                                                                                                                                                                                      . . . . . . . . O O # o ; h B A A A 3 . . . . . . . . . . . . . . . . . O @ g B B V A A Q Q Q ) ( &.@.*.8.q.q.q.q.w.z.8.+.+.&.( { S t * * o . . . . X k ] 9.` J r d U U _ ' ) W c z u > % % & & 8 K @.2.3.a.@.> X X % f Q +.=.&.p X X * u k P _ ,.2.r.5.S.G.R.T.*.& . . . X $ Y R.:X<X<X}.i.,.U v l r J T S.:X:X:XP.J.5.J d l d P O.1.7.7.@.' Q u ; o . . . . . . . $ t y = * : @ O . . . . . . . . . . . . . o * * o O . . . . . O X $ _ y.i.Q.].W.N.6.Q z ; . X q                                                                                                                                                                                                                                                                                               ",
"                                                                                                                                                                                                                                                                      . . . . . . . . O O # @ y M B V S B X . . . . . . . . . . . . . . . . O @ * g B S A Q Q Q Q ) ( &.=.*.*.8.q.q.q.q.z.z.q.*.+.&.&.-.S : % o X . . . . X e _ 7.3.d.,.2.3.T T P K l l l k q = & 8 w l U <.3.3.3._ % X X & v ~ *.q.*.u X o 3 j k I _ O.2.2.4.t.G.R.!.*.= . . . . X w O.t.H.oXoX).G.p.9.@.l 7 7 4.<X:X:X:X_.G.T Y 1.0.s.T.y.r.6.O._ Q u & o . . . . . . . $ y u ; * * + O . . . . . . . . . . . . . . . . . . . . . . . . X - ] u.i.Q.].E.w.~ c u X . $                                                                                                                                                                                                                                                                                                 ",
"                                                                                                                                                                                                                                                                    O . . . . . . . . # # @ ; g B B B S h X . . . . . . . . . . . . . . . . O @ * h D S ^ ) ( ( ( ( +.*.;.=.=.6.q.q.w.q.z.x.q.=.*.*.:.-.A 0 ; o X . . . . X k _ 1.3.4.5.p.5.3.,.T T _ ] ] ( Q u 8 q l U ` 1.2.2.2.! % . X > v _ 6.n.l.p X * y j k ! _ <.2.3.3.t.G.~.Q.*.= . . . . . . $ 8 T ).1X8X0X<X{.u.Y w - J H.J.P.:X:X}.t.3.u.F.}.(.t.5.3.T _ ! k 0 * . . . . . . . $ t u : : * + O . . . . . . . . . . . . . . . . . . . . . . . . X & _ y.T./.].N.@.l q t o . $                                                                                                                                                                                                                                                                                                 ",
"                                                                                                                                                                                                                                                                    . . . . . . . . O # # @ 4 m B B B B 3 . . . . . . . . . . . . . . . . . + @ ; h D ^ ) $.+.+.' +.+.*.8.;.*.=.6.7.q.q.w.x.w.q.8.=.=.&.V 0 : ; O . . . . % k _ <.,.3.4.p.p.4.3.,.O.@.6.8.=.( k w q L _ @.2.2.2.2.! X . X > c ! @.z.=.u o ; f f v ! _ #.2.2.3.S.~.~.Q.*.> . . . . . . . $ l i.{.).).~.G.5.,.Y r E J.J.J.J.J.~.t.r.t.G.<X+X5.2.2.T ` @.~ A 3 X . . . . . . % t u t 3 : + X . . . . . . . . . . . . . . . . . . . . . . . X $ 7 _ r.!.|..XM._ d 0 : X . X                                                                                                                                                                                                                                                                                                 ",
"                                                                                                                                                                                                                                                                    . . . . . . . O O O @ * g B B C B y o . . . . . . . . . . . . . . . . . @ 2 i B S / ( &.*.*.+.+.*.=.q.q.=.=.6.6.q.q.w.w.w.w.q.8.=.&.c q u : o . . . . X q I T T ,.4.p.5.3.E T T O.<.6.6.) q 8 e P _ ,.2.2.2.r.! X . o 9 v U U @.( u % : g f v ! _ O.2.2.4.F.~.~.Q.@.> X . . . . . . X $ 9 e J R 4.R.(.(..X{.).oXK.A.A.A.t.5.5.s.R.<X+X5.4.4.3.a.u.8.:.h + . . . . . . % t u y y : X . . . . . . . . . . . . . . . . . . . . . . . . o = w T y.Q.;X3Xv.I q 0 ; X . X                                                                                                                                                                                                                                                                                                 ",
"                                                                                                                                                                                                                                                                  + . . . . . . . O X + ; 2 h M B C 3 O . . . . . . . . . . . . . . . . . O * i h A ^ ( ' &.*.*.=.=.=.6.q.w.q.e.e.e.e.w.w.w.w.w.q.8.=.*.Q ^ S B 2 . . . . . 8 d J T T ,.4.5.3.T T T ` ` @.*.! w 8 e I ] ,.2.4.a.r.~ X . o 9 z L Y ~ ) f * 2 g f c ~ _ ,.2.5.5.G.~.~.!.+.= X . X X . . . . . . X - 8 Y y.T./.}.+XoXJ.K.A.K.K.H.A.H.H.J.<XoX5.4.3.4.F.Q.y.q.A o . . . . . . % t u y t : X . . . . . . . . . . . . . . . . . . . . . . . . $ u K 7.T./. X.Xu.L w 0 ; X . $                                                                                                                                                                                                                                                                                                 ",
"                                                                                                                                                                                                                                                                  O . . . . . . . X + @ 2 g B B h h 2 O . . . . . . . . . . . . . . . . O @ 1 g M D / { &.*.*.6.8.q.q.q.l.z.w.w.q.w.w.w.x.n.w.6.6.8.8.:.:.:.-.[ m # . . . X 8 e J J T E 4.4.3.,.E T T T ` ] L 8 7 d _ <.3.5.4.4.7.Q . . o t c I ! _ Q t o : u f c _ _ <.5.5.t.G.~.~.!.+.> + + @ ; ; % o X + O . X X $ 8 q J 3.H._.:X>X:X:X:XoX_._.J.J.oXoXS.4.o.4.~. XM.q.S o . . . . . . % t p y 3 * X . . . . . . . . . . . . . . . . . . . . . . . . $ v O.E..X/.R./.v.L 9 9 * X X $                                                                                                                                                                                                                                                                                                 ",
"                                                                                                                                                                                                                                                                + . . . . . . . . X * 2 y h B M y * * @ . . . . . . . . . . . . . . . O @ 1 4 m B ^ { -.*.=.8.8.z.z.l.l.l.z.x.x.c.c.n.B.V.V.q.+.+.*.=.;.;.k.j.%.D @ . . . X 0 l d P T E 3.4.3.3.3.,.,.d.O._ v & 8 l @.2.r.5.4.4.2.v . X * f V ~ _ +.Q : + * y f c _ ` 1.r.r.t.G.~.~.!.+.> o + ; M D M y y 4 * O . . . . X w O.M.}.<X<X<X:X:X:XoXoXoXoX:XoXJ.5.o.4.).,XT.q.S o . . . . . . % y u y : * o o + . . . . . . . . . . . . . . . . . . . . . . = ] y./..XQ.T.T.x.c 8 % X . X %                                                                                                                                                                                                                                                                                                 ",
"                                                                                                                                                                                                                                                                O . . . . . . . . o 3 h g h x h h o . . . . . . . . . . . . . . . . . O @ 1 N M B [ -.;.;.8.l.z.c.c.l.:.&.&.&.*.*.=.=.l.C.c.) l L ( &.:.;.:.-.%.D @ . . . X 0 l l P T ` 3.r.4.3.2.2.3.1.O._ I & 8 K <.y.t.t.r.4.3.e . X ; j Q ' @.8.( : . * t f L _ ` 1.5.5.S.G.~.~.R.#.8 o X * M [ S D B C i + O . . . + : k I ` ,.3.5.S.~.).oXoXoX:X:X<X+XA.o.o._.<X!.q.A o . . . . . X > p y t = * o * o X X . . . . . . . . . . . . . . . . . . . . u z.E./.(.Q.!.E.w.k & X . . X $                                                                                                                                                                                                                                                                                                 ",
"                                                                                                                                                                                                                                                              @ O . . . . . . . + * y h h M M M i + . . . . . . . . . . . . . . . . . . @ 1 4 3 3 y h B V Q Q ( -.{ V k e w 8 8 7 7 = 9 a k 7 = 8 u V Q / S A D 3 X . . . . % q k I ] @.w.M.b.y.u.i.r.0.1.@.) 8 w P <.p.t.t.p.4.<.u . . % z ) @.7.q.{ : . o : q L _ O.2.5.5.F.~.~.~.R.#.8 o X o y S [ S B M i 2 * + O . . O X X $ - 7 w Y s.(.+X<XoX<X<X<XoXA.E E J.<XT.q.^ o . . . . . o : h y : % % o ; @ O X . . . . . . . . . . . . . . . . . . . X f v.].(.(.Q.Q.E.*.0 o . . . $ %                                                                                                                                                                                                                                                                                                 ",
"                                                                                                                                                                                                                                                              @ . . . . . . . X ; 3 g x B B M N ; . . . . . . . . . O . . . . . . . . . . O O X . . X X X X X X o o $ - - & & - - - $ $ X $ & - - & > 8 ; % o X . . . . . . X % > q k v W ~ _ ] 7.w.7.<.@.' Q w w P ,.r.p.5.p.r.9.u . . % c ' 6.0.=.V * . + > q Q @.,.2.5.5.G.~.J.~.T._ > o . o y S [ $.{ ^ D M i 1 + . . . . . X X X X = v _ 2.t.G.~.).)._.H.o.o.H.;Xy.q.^ * . . . . X * y p y : % % * : 2 o O O O X X . . . . . . . . . . . . . . . X k y.!.(.R.R.W.M.I & o . . . :                                                                                                                                                                                                                                                                                                   ",
"                                                                                                                                                                                                                                                            + O . . . . . . . o g h h h h M C i @ . . . . . . . . . O . . . . . . . . . . . . . . . . + X . . . . . X & u v L ] *.~ Y l e k l v l k k u % + . . . . . . . . X . X X X X X X % = e l l l l e q w r Y ,.5.5.5.t.S.w.0 . . % c &.8.w.=.z o . X = q ~ 6.1.a.5.5.G.~.J.R.i.U > X . o h { { -.j.{ D Z M h 3 * * * o X . . . . . X $ 7 P 1.i.Q.(.}.}.~.S.G.s.6.;./ * . . . . X : i y t = $ % : i i @ O O X O X . . . . . . . . . . . . . . . X l u.s.!.R.!.E.u.l X + . . X 3                                                                                                                                                                                                                                                                                                   ",
"                                                                                                                                                                                                                                                            . . . . . . . . . * h M x h g i i < + . . . . . . . . . O . . . . . . . . . . . . o * o X + X X . . + + % e *.x.y.T.XX/.!.i.7.2.3.1.<.O.! c > % X X . . . . . . . . . . X . . X X ; h x k u w 8 8 e d T ,.4.5.5.t.!.x.t . . $ v *.8.7.*.Z o . X > a ' 7.7.r.r.5.H.~.~.R.i.U & X . o S k.-.-.-.[ S V Z D V V ^ [ h % . . . . . . . $ q Q _ #.3.2.i.!.F.r.T U &.S * . O . . O 2 y y 2 % X % y m g @ + O O O . . . . . . . . . . . . . . . . X K T.F.F.R.(..XV.v X . . . . :                                                                                                                                                                                                                                                                                                   ",
"                                                                                                                                                                                                                                                          . . . . . . . . . # 2 h h x x y * + . . . . . . . . . . . . . . . . . . . . . . . X q v w - $ X X X X X X & r 3.S.G.J.oXoXoXoX~.S.A.A.G.S.7._ e q w 8 % . . . . . . . . O @ @ @ * * : g V A c c b Q U Y T 2.t.S.p.S./.v.9 . . & Q *.6.6.*.B o . o 9 u ' q.0.0.r.t.G.~.~.R.M.~ & X X % ^ k.-.{ { [ S Z Z V / { :.j.{ u % % . . . . . . . X X X $ - r T d.d.K k A h o O + O O + 2 y t : % $ * g m i @ o O O O O . . . . . . . . . . . . . . . $ ! Q.!.F. X0X9X4X( X . . . . =                                                                                                                                                                                                                                                                                                   ",
"                                                                                                                                                                                                                                                        o . . . . . . . X o 2 g h h x h * X . . . . . . . . . . . . . . . . . . . . . . . . $ r ` R R J e 7 7 7 7 s r R 4.oX1XeXdXdXdXsXeX>X#XL.oX).S.4.T T T P w X . . . . . O + @ * ; 2 3 : : 0 u k x Q ) +.' _ O.r.G.G.S.G.XXv.9 . . 8 Q *.=.=.*.D * X o % = W *.6.2.4.t.F.G.F.t.0.L $ X X % A &.$.{ { [ ^ V V V ) | :.j.;.Q f 3 + . . . . . . . . . . X & b +.Q k u h 5 O O O @ ; 2 3 t t : = = 3 h m 3 o o # O O . . . . . . . . . . . . . . . . $ _ {.(.(.,X8X9X4X&.X O . . . &                                                                                                                                                                                                                                                                                                   ",
"                                                                                                                                                                                                                                                        X . . . . . . X O 2 M M M j M i + . . . . . . . . . . . . . . . . . . . . . . . . . 7 E oX1X1X+XT.a.2...` ` 4.H.OXxXzXlXlXlXlXzXzXdXwXOX#XOXoXJ.J.<X8X6XQ.L X . . . O @ @ * ; 3 i g f f f f f k c ~ +._ _ ,.p.!.G.S.G.{.z.9 . X 9 Q ' ' ~ Q M * X + o % 9 L #.6.2.2.5.2.,.T U e $ X X % x $.{ { { [ / S V V ) | :.k.k.-.A t % + O . . . . . . . . . X % : ; o X @ @ O O O @ 2 i 3 : 9 9 t t i h g : o o # O O . . . . . . . . . . . . . . . . $ Y {. X}.}.(.|.%XQ X O . . . %                                                                                                                                                                                                                                                                                                   ",
"                                                                                                                                                                                                                                                      X . . . . . . . . o B S D M M h ; . . . . . . . . . . . . . . . . . . . . . . . . . . - R OXeXsX1X#X^.G.S.S.S.^.>XrXjXjXlXlXlXlXzXgXgXwXP.OXsXdXzXZXZXZXZXZXQ.8 . . . @ 1 2 y : t h h j B B v e q l ! +._ T ,.r.S.H.A.G.{.q.= . X % u V c x f % X X X o % & e ' 8.q.w.w.0.@.U I q X . X ; x $.$.{ { / / Q W W ) | ;.8.k.;./ h : * + O . . . . . . . . . . . . . . X 5 1 . O o 1 y : : 9 9 t y g h g : o o # O O O . . . . . . . . . . . . . . X 7 ,. X,X}.(.T.T.[.A . O . . X                                                                                                                                                                                                                                                                                                     ",
"                                                                                                                                                                                                                                                      . . . . . . . . . i [ S B B M g ; . . . . . . . . . . . . . . . . . . . . . . . . . . - R #XwXtX=XOX#X^.^._.^.L.qXgXzXjXlXlXjXjXgXxXgXwXOXwXdXkXZXZXZXZXZXZXsXP $ X + @ : h B h h h z f f k q w w l U _ T T ,.a.p.S.H.H.Q.*.$ . . o 3 M z B h * . . . . X X > z A Q W c v k u z : X . + : c $.&.$.{ / ) Q ) ( ( &.8.k.k.:.| ^ h : o O . . . . . . . . . . . . X X * D M X X O @ : ; ; 9 9 t u p g f 3 ; o o O O O . . . . . . . . . . . . . . X l !.5X,X}.(.F.u.q.u . X . X &                                                                                                                                                                                                                                                                                                     ",
"                                                                                                                                                                                                                                                    + . . . . . . O + o M [ S B B M 4 @ . . . . . . . . . . . . . . . . . . . . . . . . . . - R OXwXtXqX=XOXOXOXwXwXwXrXzXjXjXlXlXjXzXpXxXgXwXOXOXsXkXZXZXZXZXZXZXZXr.d * o * ; B S V x z f f q w w w w l U _ _ ` <.a.p.S.H.H.!._ $ . . + @ 2 2 2 ; + . . . . . . X % % % X X X X X o X . . o t Q $.&.*.$.) A Q ( &.*.=.8.l.k.:.&.{ V t o O O . . . . . . . . X w d d d b / x X X X o ; ; : : : t y y y y y ; ; o o O O O . . . . . . . . . . . . . $ _ .X,X,X}.(.i.7._ = X X X 9 z                                                                                                                                                                                                                                                                                                     ",
"                                                                                                                                                                                                                                                  @ O . . . . . O O @ ; h D [ F C g ; @ . . . . . . . . . . . . . . . . . . . . . . . . . . - R #XwXtXqXwXqXOXOXwXeXwXxXjXjXjXlXlXjXjXgXiXgXwXOXOXwXkXZXZXZXZXZXZXZX_.@.= o * * i h z z z f f q d v I ~ _ #.#.O.O.1.r.p.S.H.G.S.L X . . . . . . . . . . . . . . . . . . . . . . . . O + O X = f Q +.*.*.&.Q c ~ +.=.6.q.8.q.l.l.l.-.^ t o O O X . . . . . . . & O.r.s.s.2.T w X X X + * * ; ; : t t y y 3 : ; @ o o O O O . . . . . . . . . . . . . $ #..X,X,X}.Q.p.7.@.8 X X X u                                                                                                                                                                                                                                                                                                       ",
"                                                                                                                                                                                                                                                  o . . . . O O @ @ ; i B B B B y 1 @ O . . . . . . . . . . . . . . . . . . . . . . . . . . 7 R #XqXqXqXqXwXOX#XOXwXwXxXjXjXjXjXjXjXjXzXgXgXwXOX#XI.rXkXlXcXZXZXZXkXJ.<.= + @ * * : t f f f f q d L +.6.7.7.6.<.1.7.r.t.S.H.G.i.v X . . . . . . . X . . . O O O O O + O O . . . . . O * * * 0 z ) *.*.+.( Q Q +.*.q.q.z.l.q.8.l.l.:.%.h o O O O . . . . . . . > 1.F.H.~.H.2.l * X # X X @ * ; : t t y : ; ; ; @ @ # O O O . . . . . . . . . . . . . $ O.(.}.,X}.R.5.1.*.9 X o % u                                                                                                                                                                                                                                                                                                       ",
"                                                                                                                                                                                                                                                X . . . . . O + * 2 y M B g 3 * ; ; @ O . . . . . . . . . . . O O . . . . . . . . . . . . . & R J.qXqXqXrXeXOXOXOXOXwXeXjXjXjXjXjXjXjXzXgXrXOX#XL.L.qXgXkXlXcXZXZXkXH.U = + O o o * ; 0 t 0 0 9 9 q v ~ ] _ ` O.<.2.a.5.S.G.G.y.e . . . . . . X O o @ @ @ O O O O O O O O O O O O . + 1 3 t f c ( *.=.*.+.=.8.q.q.z.z.x.w.w.8.=.l.8.j.S * O O O O X . . . . . & O.H.J.:X:X(.r.v * o O X o * ; : t t 3 : ; : ; @ @ # O O O O . . . . . . . . . . . . $ <.Q.).<X}.T.2.1.+.8 X X % 9                                                                                                                                                                                                                                                                                                       ",
"                                                                                                                                                                                                                                              . . . . . . . O * : h D B h y y 2 1 @ @ O . . . . . . . . . . . . . . . . . O . . . . . . . O & J J.qXqXtXxXdXOX#XOXOXOXqXgXjXjXjXjXjXjXzXgXwXK.J.L.U.bXgXjXlXcXcXZXkXS.P & O O O O + o ; 9 0 t : & 9 q k l v K Y T ` ,.4.p.S.t.7.u . . . . . O O O @ * 1 @ @ @ @ O + + + + @ + O O O + ; 3 0 c ! ' +.=.8.q.x.x.x.x.x.w.x.q.w.q.8.q.l.j.S ; O O O O O O O O . . $ d.H._.1X1X<X(.=.0 o X X o = ; : t y : : : : ; @ o # O O O . . . . . . . . . . . . . $ 1./.~.<X}.F.1.1.' > X X % 9                                                                                                                                                                                                                                                                                                       ",
"                                                                                                                                                                                                                                              X . . . . . . * y B { -.^ h t 3 3 1 @ O . . . . . . . . . . . . . . . . . O O . . . . . . . O & R L.wXtXtXxXkXwX#X#XOXOXwXzXlXjXjXjXjXjXzXzXwXU.D.D.U.I.gXjXlXcXlXZXdX5.P $ . O O O O O @ * : 3 ; * ; 9 u f k k L _ ` 9.y.b.E.b.=.t . . . . . O O @ @ < 1 @ @ @ @ o o o + @ @ @ @ @ @ o o % 8 ! =.*.@.=.q.x.z.z.x.x.v.v.x.w.w.q.q.q.8.k.S ; X O O @ @ O @ @ . . $ T F._.<X2X:X).M.k % O X + * : : t y : ; : : ; @ @ @ O O O . . . . . . . . . . . . . & 2.(.~.<X}.i.1.8.( = X X % 0                                                                                                                                                                                                                                                                                                       ",
"                                                                                                                                                                                                                                            + . . . . . . % g D ^ -.-.^ h : * 1 * @ O . . . . . . . . . . . . . . . . . . O O . . . . . . . $ J D.wXxXrXxXdXOXL.L.L.#XwXkXlXlXlXlXjXjXgXgXOXE 4.o.U.I.zXjXlXlXlXkXsX3.L $ . . . . . . . X X + O X X o * ; : : u z c L ! ] ' ) z @ . . . . O O @ @ @ @ @ @ @ @ @ O O O O + @ @ @ @ @ o * z ( 6.q.8.6.6.q.w.w.w.w.v.v.v.v.x.z.q.q.q.8.;.^ * X O O * 2 ; @ @ O O $ U M.).1X2X:XJ.F.! & + X X * ; : t t : ; ; ; ; @ @ @ O O O O . . . . . . . . . . . . & 0.R.H.,X}.i.<.6.) = X X %                                                                                                                                                                                                                                                                                                         ",
"                                                                                                                                                                                                                                            . . . . . . X 0 A / ( $.{ z 9 = * @ @ O . . . . . . . . . . . . . . . O O O . O . . . . . . . . X r A.wXxXrXwXwXOXK.D.K.L.wXkXlXlXlXlXjXjXgXrXJ.R R R E qXjXjXjXjXzXgX1XT a X . . . . . . . . . . . . . . . . . . + X X $ $ $ $ X X . . . . . O @ @ @ @ O O O O @ O O X X O O + O @ @ o o 9 $.z.w.w.w.q.q.q.w.u.w.v.v.v.v.v.v.z.z.q.8.8.:./ * . . X * i 4 5 ; O X X b u.!.+X:XP.K.H.O.8 . X + * ; : : : : ; ; ; ; ; @ @ # O O O . . . . . . . . . . . . 7 a.F.G.}.}.p._ Q u % X X $                                                                                                                                                                                                                                                                                                         ",
"                                                                                                                                                                                                                                          . . . . . . . $ f Q ( $.( A u = * @ + O O . . . . . . . . . . . . . . . O O O . O O . . . . . . . X r o.>XrXqX=XOX#XK.D.D.L.wXkXlXlXlXlXjXzXgXsXG.H r H U.qXzXjXzXgXxXdX@XJ 7 X . . . . . . . . . . . . . . . . . . . . . . . . . . . . . . . O O @ @ @ o O O # # + O + + o + O + O O o % & k 8.n.v.x.z.c.z.q.q.x.v.v.v.M.B.B.v.v.x.z.8.=.:.{ ; . . + ; N m g 2 o O X u ~ r.R.:XoXP._.r.k X X o % ; ; ; : ; ; ; @ ; 1 @ o O O O O . . . . . . . . . . . $ e r.F.S.}.{.0._ k % o X % 7                                                                                                                                                                                                                                                                                                         ",
"                                                                                                                                                                                                                                          . . . . . . X : x ) &.$.^ f y 3 * + . . . . . . . . . . . . . . . . . . X O O . . . . . . . . . . . 8 E L.tX=XOXI.L.K.D.D.L.wXkXZXlXlXlXjXjXgXsX~.r s r o.qXzXjXjXgXrXwX+XP = X . . . . . . . . . . . . . . . . . . . . . . . . . . . . . . O O @ @ @ @ @ @ @ o o o ; g y y 2 @ O o ; h ^ ' 6.v.M.v.w.q.x.l.6.=.e.x.v.B.B.N.N.B.v.n.v.q.=.;.{ ; . . + * M m i ; + + . X d 1.(.:X:X:X<XQ.! o . + o % ; : : : ; ; ; ; ; @ @ o O O O . . . . . . . . . . . 9 _ y.t.t..X{.7.' V % X % u                                                                                                                                                                                                                                                                                                           ",
"                                                                                                                                                                                                                                        ; + . . . . X 0 A ) ( ( ( A 0 3 2 @ . . . . . . . . . . . . . . . . . . . O O O O . . . . . . . . . . $ R K.wXwX=XOXL.K.D.D.K.OXzXZXlXlXlXjXjXgXsX~.r 7 H o.qXjXjXzXgXtXOX).I X . . . . . . . . . . . . . . . . . . . . . . . . . . . . . . O O @ @ @ @ @ * * * % o % h [ V M h @ X % A ;.c.N.N.N.M.M.n.q.l.l.q.6.q.z.v.b.N.N.B.B.M.v.n.q.8.k.{ : . . o : M M h t X + . X w 1.(.:X:XoX2X.X8.f X X X o * ; : : ; ; ; ; * @ @ @ # O O . . . . . . . . . . . k 6.r.t.t..X{.6.' V % X = V                                                                                                                                                                                                                                                                                                           ",
"                                                                                                                                                                                                                                        o X . . . X % z / Q ) ) x A f * * + . . . . . . . . . . . . . . . . O O . . O O O . . . . . . . . . . X r D.wXwXwXOXoXK.D.D.D.OXdXkXlXlXlXjXjXgXeX!.r 7 H U.qXzXzXzXxXqXoXT.e . . . . . . . . . . . . . . . . . . . . . . O O O O . . . . O + + o @ @ @ % * % % % $ > V :.[ B 3 o X & L q.v.N.E.T.M.M.n.:.Q &.l.z.x.n.v.M.N.N.N.N.M.M.v.x.q.l.&.0 X X o : B B B j ; % o X & T R.).:X:X<X}.N.+.% . . X o * ; ; ; * ; ; ; @ @ @ @ O O . . . . . . . . . . X k 0.2.4.t..X{.6.) z % X $ a                                                                                                                                                                                                                                                                                                           ",
"                                                                                                                                                                                                                                      O . . X X + + % f A x b ^ f u g @ O O . . . . O O . . . . O O O O . . O O O . O . . . . . . . . . . . . . 7 3.D.L.>X>XOXK.D.D.L.OXsXkXlXlXlXjXjXxXwXS.r 7 R K.tXpXzXgXrXwX~.v.u . . . . . O O X . . . . . . . . . . . . . . O O O @ @ + + + @ @ * * : t u z u u k k v b ' ;.^ h @ . o q l @.u.E.E.T.M.N.n.( 9 ) q.z.x.v.B.M.N.E.E.N.N.N.M.v.v.z.:.k X X X 3 D S ^ A f % + X - K F._.:X:X<X{.E.7.> . . X o * : : ; ; ; ; ; @ @ @ @ o O . . . . . . . . . . X k y.a.3.5..X{.@.Q u X X X 0                                                                                                                                                                                                                                                                                                           ",
"                                                                                                                                                                                                                                    @ X . . + @ o o : u f f V S f : ; o . O O . . O O O O O O O O O O O . . O O O . . . . . . . . . . . . . . . X r R 4.1XsX1XL.D.D.D.I.eXkXlXlXlXlXzXrXwXS.s s A.OXtXxXgXxXwXoXp.' t . . . . O O O O O . . . . . . . . . . . . . . O O @ @ @ * * ; 2 h B V Q ) ) ~ +.6.=.1.1.=.*.k % X . t ( _ <.y.M.E.T.E.N.n.{ 0 Q 8.x.v.n.B.B.N.E.E.W.E.E.E.M.v.x.k.Q % . X t S { { ) z ; X . % d r.).:X<X<X}.Q.u.h . . X o * : : : ; ; ; ; @ @ @ @ o O . . . . . . . . . . X k i.r.2.p.|.[.@.Q u X . X a                                                                                                                                                                                                                                                                                                           ",
"                                                                                                                                                                                                                                    o . . . @ 2 * * t f f x A S x : o O . O O O O O O O O O O O O O O O . . O O O . . . . . . . . . . . . . . . . $ s 3.1XsX1XL.D.D.U.L.wXzXkXlXlXlXzXrX=XD.H H D.OXqXxXxXwXL.R.] 9 + . . . O O O @ O O O O O O . . . . O O . . . . . O @ @ * * 2 3 p B Q Q ! ~ _ _ 1.0.0.0.0.6.*.u X X . f q.w.0.y.M.E.M.N.B.c.{ 0 Q 8.x.v.n.N.N.N.E.W.W.W.W.E.N.v.x.l.$.: . X y ^ $.{ ) V y o X X 8 0.(._.oXoX).Q.N.^ o . O o * ; : : : ; * @ @ @ @ @ @ O . . . . . . . . . X & I W.!.s.s..X]._ c y X . o p                                                                                                                                                                                                                                                                                                           ",
"                                                                                                                                                                                                                                  + . . . X * 2 : ; 3 y f h x x t * O O O O O . . . . . O O O O . . X X . . O O O O . . . . . . . . . . . . . . . X 7 T S.@XoX#XL.D.U.L.I.wXtXrXxXxXrXtXwXJ.R R U.L.=XwXwX#XE ` a X . . . O O O # @ @ O O O O O O O O . O O . . . . . O @ @ @ ; 2 y j / &.' ! _ _ O.6.r.r.r.w.@.' t . X . 9 q.v.w.u.M.M.N.B.n.l.( 8 ) l.x.v.N.N.N.E.W.`.`.`.`.E.N.b.n.c.:.f X X y [ $.$.) c f * X X 7 0.~._.oX_.~.(.].;.: + + + * : : : : ; @ o # # o o # O . . . . . . . . . * z @.{.;X X{.|.`.) z : X . $                                                                                                                                                                                                                                                                                                             ",
"                                                                                                                                                                                                                                X . . . . @ ; 3 3 t 3 t f f y ; * o . . O O O . . . O O . . O O . . X X X O O O O O . . . . . . . . . . . . . . . . X - d 4.).oX#XL.U.K.L.I.I.I.=X=XqXwXwX#XE E U.L.#X#X#XS.r 7 $ . . . . O O O @ @ @ O O O O O O O O O . O . . . . . O @ @ * ; y g x &.l.8.@.@.O.1.r.r.r.y.e.! k ; . . X 0 8.x.w.y.u.v.B.B.z.:.^ 0 &.x.n.B.N.N.N.E.W.'.'.'.'.W.E.N.B.n.l.B X X u [ :.&.$.A z 2 + X & @.(.+XoX^.~.(./.q.u + O o o : 3 : : ; * o O # o o # O . . . . . . . . . > L 9.{.5X,X X3X`.( B 2 X . $                                                                                                                                                                                                                                                                                                             ",
"                                                                                                                                                                                                                                . . . . . @ 2 3 y y t 3 3 2 ; * * + . . O O O O O O O O . . . . . O O O O O O O O O . . . . . . . . . . . . . . . . . . $ v y.S.J.D.U.K.L.L.I.=X=X=XwXwXwX#XU.U.D.L.D.R R P - X . . . . . O O O @ @ @ @ + # # @ @ O O O O O . . . . . O @ * * : g V Q ) ' +.*.@.@.7.r.r.0.u.6.e = % X X % f 8.w.w.w.w.v.n.z.| ) c f :.c.n.N.N.N.N.E.W.'.].].'.'.W.E.N.B.z.V X X 0 [ :.-.&.( B y X X - T /.+X+X).R.R.E.x.x + O O o : 3 : : ; ; o + o o o O O . . . . . . . . . 8 P 1.!..X{.Q.[.V.Q y @ . . $                                                                                                                                                                                                                                                                                                             ",
"                                                                                                                                                                                                                              X . . . . X o : 3 y y 3 : ; ; * * * + . . O O O O O O O O . . . . O O O O O O O O O O . . . . . . . . . . . . . . . . . . X % w T 5.A.D.L.I.I.I.OXOXOXI.I.L.L.L.D.D.A.R 7 - - . . . . . . . O O O @ @ @ @ @ @ @ @ @ @ O O O . . . . . . O @ * : t z Q ) ) I P _ @.1.0.r.r.O.6.| 8 X o X ; f c *.w.w.w.q.z.c.:.k 9 f c =.n.B.N.N.N.E.E.E.W.].].{.].Q.E.E.B.c.^ * o : / j.:.:.$.S t X X $ Y /.,X<X_.R.F.M.B.A @ O O + : 3 : : ; ; o + o + + O X . . . . . . . . . w _ 1.t.F.F.y.E.n.f X . . . %                                                                                                                                                                                                                                                                                                             ",
"                                                                                                                                                                                                                            + . . . @ * X o y y i y * o * 1 @ @ @ O O O O O O O O O . . O O O O O O O O O O O O O O O . . . . . . . . . . . . . . . . . . . X w T 3.A.D.J.^.D.D.D.D.D.D.D.#X#XJ.S.p.P $ X . . . . . . . O O O @ @ @ @ @ @ @ @ , @ @ @ @ O O O O . . . O + * y V / ( ' ' Y K U ` 9.w.y.0.T Q V % + o % A ;.=.=.q.w.q.q.=.l./ 9 $ q ! q.v.B.N.`.`.E.W.E.].{.{.|.].Q.Q.E.n.c.%.3 % : ^ j.:.:.:.{ t X . X e N.5X+X~.G.F.s.B.Q @ O O o : 3 : : : ; o + + o + O X . . . . . . . . . v 0.a.t.t.4.2.E.n.u . . . . %                                                                                                                                                                                                                                                                                                             ",
"                                                                                                                                                                                                                            X . . . 3 h * : g i y ; o . @ 1 @ @ @ . . O O O O O O O . . O O O O O O O O O O O O O O . . . . . . . . . . . . . . . . . . . . . X - w r P ` a.a.a.S.S.4.E E ....` U L 8 . . . . . . . O O O O O @ @ @ @ @ @ @ @ 1 < * @ @ @ O O O O . . O + * Z %.-.=.*.@._ U _ @.7.w.w.w.I w : . . % 9 :.c.z.=.6.q.q.@.Q ) u 9 k ! =.v.B.B.N.`.`.].'.].].{.{.|.{./.Q.E.n.c.j.g o ; A ;.=.8.l.:.p . . X & 6.{.^.G.!.!.!.u.Q * + + o ; 3 : ; ; ; * o o o o + O . . . . . . . . X ~ i.t.i.F.r.i..XV.f . . . . %                                                                                                                                                                                                                                                                                                             ",
"                                                                                                                                                                                                                          . . . . X t B g 3 y i 3 * O O * 1 @ + O . . . O O O O O . . . O O O O O O O O O O O O O . . . . . . . . . . . . . . . . . . . . . . . . X X $ - 9 8 w s s s 7 - - $ $ X X . . . . . . . O O O O + @ @ @ @ @ @ @ * 1 2 3 2 2 ; @ o O O O . . . o = V -.:.=.*.*.@._ @.1.0.w.w.q.x % % . X 9 k =.n.x.8.8.q.8.~ q 0 > 0 Q q.v.M.E.E.W.`.].].].].].].].].{.].Q.E.B.c.-.y o % V ;.8.z.z.j.B X . . $ L b.F.F.T.!.!.i.+.9 @ o + * ; ; * * * * @ @ o o o O . . . . . . . . X _ s.t.t.t.t.{.7X&Xz . . . . o                                                                                                                                                                                                                                                                                                             ",
"                                                                                                                                                                                                                          . . . X ; B B B h y y : * X + < @ O O . . . . . . O O . . . . O O O O O O O O O O O O O O . . . . . . . . . . . . . . . . . . . . . . . . . . . . X X X X X X . . . . . . . . . . . . O O O O @ @ @ @ @ @ @ @ 1 1 5 i h N i 2 @ + O . . . . . X : ^ { ( ~ ~ _ ` @.<.7.0.e.w.:.0 . X X & V ) *.x.z.8.8.8.:.x % & 9 c +.B.N.N.W.'.{.|.|.|..X|.{.].].].{.{.].V.B.c.^ : o % z 8.v.b.n.l.{ : . . X l 0.i.F.F.F.F.i.7.v % o + o * * ; ; * * * @ o o o . . . . . . . . . X _ T.t.4.4.5.{.4X%XB . . . X $                                                                                                                                                                                                                                                                                                             ",
"                                                                                                                                                                                                                        * X . . ; u x z x S M g 2 ; o @ @ O O O . O O O O O O . . . . . O O O O O O O O O O O O O O . . . . . . . . . . . . . . . . . . . . . . . . . . . . . . . . . . . . . . . . . . . . . O O O # @ @ @ @ @ @ @ @ * 2 2 i h M C m 5 @ o O . . . . X % V [ Q c L ! _ @.9.9.7.0.e.q.) o . . o z ( +.' 8.q.*.*.;.) ; X q ( q.x.V.].|.}.3X3X X X X|.{..X.X.X.X.X{.].`.B.l.S * X $ u l.n.`.N.x.j.m X . X 8 T 2.t.t.F.F.y.0.! 7 * o o * * * ; ; * * o o + O . . . . . . . . . $ @.Q.F.t.t.t./.5X&Xj . . . =                                                                                                                                                                                                                                                                                                               ",
"                                                                                                                                                                                                                      * + . . . y A ^ c ^ [ F h 2 ; o O O O O O . . O O O O O . O . . . O O O O O O O O # # @ O O O . . . . . . . . . . . . . . . . . . . . . . . . . . . . . . . . . . . . . . . . . . . . O O O O @ @ @ @ @ @ @ * * 1 3 3 g B D D M g 1 @ @ O X . X y z ) ( V q v ' ] @.9.9.1.1.6.*.h . . . ; / &.*._ ' *.' ) { V : ; b q.n.n.N.].;X7X0X7X3X;X X.X{.{..X}. X|.|.].`.N.z.S o X X u 8.E.'.E.n.z.[ @ . X $ P 2.t.i.F.t.5.r.7.x : * + @ * * ; : * * o + O . . . . . . . . . . $ @.Q.F.F.(.}..X].x.t . . o u                                                                                                                                                                                                                                                                                                               ",
"                                                                                                                                                                                                                      X . . . X B / Q c A A B 2 @ @ O O . O O O . . O O O O O . O O . . O O O O O O @ @ @ @ @ O O . . . . . . . . . . . . . . . . . . . . . . . . . . . . . . . . . . . . . . O O . . O O O O O O O @ @ @ 6 @ @ * * ; 2 y y g B S D C S M y * + + o t V V Q A z 8 v ' @.@.9.9.1.<.6.( y . . . % ) &.*.+.+.&.-.V z 0 j c +.w.x.v.M.!./. X5X7X5X X X|.{.{. X X X X|.].`.N.c./ o X X u z.`.`.N.b.l.[ * . . $ K 7.i.F.F.S.5.i.N.' z 2 + + * * : : * @ + O X . . . . . . . . . . $ ` !.F.F.}.5X;XM.*.: . . * Z                                                                                                                                                                                                                                                                                                               ",
"                                                                                                                                                                                                                    o . X . . > Q ( Q ) A h 3 * @ + . . . . . X . . O O O O O O O O O O O O O O @ @ @ @ @ @ @ O O . . . . . . . . . . . . . . . . . . . . . . . . . . . . . . . . . . . . . . . O O O O O O O + @ @ @ @ 1 1 ; @ * 1 2 2 y i h A S S D S B y = o * 9 B z k c z 0 & l ' *.6.9.9.6.1.=.Q 3 . . . o Q ' ' &.( $.-.x = $ A &.8.w.x.v.v.s.s.T.Q.|.;X3X X|.{.|.3X;X X X|.].`.N.c./ o X X u z.`.E.N.n.l.%.2 . . X q =.i.F.G.G.S.T.].v.} t + + * * : : * @ + + X . . . . . . . . . . $ _ s.t.t.(.5X5Xu.) 3 . . *                                                                                                                                                                                                                                                                                                                 ",
"                                                                                                                                                                                                                o O X . y g u c ) ( { $.V : @ @ + . . . . . . . X . . O O O O O O O O O # # # O @ @ @ @ @ @ @ O . . . . . . . . . . . . . . . . . . . . . . . . . . . . . . . . . . . . . . O . O O O O O O @ @ @ @ 1 1 1 1 6 ; ; 1 2 3 i g B S ^ ^ S D h p 8 = t x B 0 & & ; > 7 v ' *.6.9.7.*.*.' 0 * . . . % Q ( +.&.) ) S 0 & 9 ( l.z.w.w.u.i.i.i.i.s.T.].|. X|.|.|.%X%X X|.|.].W.N.n./ o X X u 8.E.E.N.n.8.%.M X . . = ! r.F.G.~.~.~.{.`.=.y o + * : 2 3 ; * o + O . . . . . . . . . . $ _ i.t.S.~.,X5Xv.f o . . =                                                                                                                                                                                                                                                                                                                 ",
"                                                                                                                                                                                                              o . . . X V $.{ ' ' ( ) V h : @ @ O . . . . . . . O O . O O O O O O # O O O O # # @ @ @ @ @ @ # O . . . . . . . . . . . . . . . . . . . . . . . . . . . . . . . . . . . . . . . . O O O O O @ @ , 1 1 1 1 ; ; ; 1 1 1 3 y i h B A ^ ^ ^ ^ V z u 0 k V B t & X % 0 z ) ' *.9.7.6.@.' c $ X . . . 0 ) ( ' &.) x f > & z ;.z.n.n.v.M.M.M.b.i.i.i.M.T.W.].[.|.%X%X|.|.|.].W.N.B.$.% o X u q.N.E.N.n.l.-.D o . . $ v 0.T.R.~.~.~.^.'.z.u o + * : 3 2 ; * o + + . . . . . . . . . . $ _ i.F.H.(.,X,Xx.9 . . . =                                                                                                                                                                                                                                                                                                                 ",
"                                                                                                                                                                                                            . . . . . $ ) =.*.*.&.{ z Z t 2 * @ O O . . O . . O O O O O O O O O # # # @ + @ @ @ @ @ @ @ @ @ O O . . . . . . . . . . . . . . . . . . . . . . . . . . . . . . . . O . . . . . O O O O O + @ , , 1 5 5 1 1 6 1 1 1 2 2 3 i h B V Q ) / / [ ^ c z k z B u 9 % % % z ( *.@.6.6.7.*.~ z % . . . % y c ( &.| { Q t ; 9 u ) 8.z.B.N.E.E.E.E.M.M.b.v.v.u.u.b.E.]..X.X{.].].].`.N.B.$.% o % u l.`.W.N.B.x.j.[ o . . X 8 #.i.R.~._.~.~.].x.t + + * 2 2 : ; * o o + O . . . . . . . . . $ @.Q.(._.}.,X,Xz.0 X . . $                                                                                                                                                                                                                                                                                                                 ",
"                                                                                                                                                                                                        . . . . . . X 9 +.l.=.&.-./ z u 3 * @ O O . . . O O O O O O O O O O O # @ # # @ @ @ @ @ @ @ , , @ @ O . . . . . . . . . . . . . . . . . . . . . . . . . . . . . . . . O O O O O O O O O O @ @ @ < 5 4 5 1 5 1 @ @ 1 5 2 2 2 3 g z V Q Q ( / / ( Q k c x x j > % = ; 9 c ' *.<.2.7.7.@.k = X . . o B %.$.{ { ( A z : : z ) ;.v.v.B.N.E.E.E.E.E.M.M.i.u.u.u.v.M.W.`.'.].].'.'.E.B.c.$.% X % q k.`.W.E.E.n.l.{ * . . X - U p.R._._._.^.XXz.9 X + * 1 2 : : * o + + X . . . . . . . . . % 7.{.}.}.;X,X5Xq.u @ . X &                                                                                                                                                                                                                                                                                                                 ",
"                                                                                                                                                                                                      O . . . . X : k I =.q.:.Q z u t * * @ @ O . . . . O O O O O O O O O O O # # # @ @ @ @ @ @ @ , , , @ # . . . . . . . . . . . . . . . . . . . . . . . . . . . . . . X X . . . . . O O O O @ @ @ , < 2 4 4 5 1 1 ; @ * 2 2 2 2 5 3 M V Q ) ) ( / / ( Q c V x x f & ; 0 u x Q _ @.3.2.7.7.' 9 X . . . ; %.j.:.&.$.Q f 9 % : A -.;.q.z.x.v.N.E.E.E.E.M.M.M.M.v.u.v.v.M.M.M.E.W.'.`.E.B.B.:.: . o > =.`.`.`.`.V.c.%.; . . X $ K y.(.)._.).).{.q.: X + * 1 2 2 : * o + X X . . . . . . . . . & 6.]. X,X}.5X5X=.9 * . %                                                                                                                                                                                                                                                                                                                   ",
"                                                                                                                                                                                                    . . . . . . % ) ;.6.8.*.$.f & : y : @ O O O . . O . O O O O O O O O O O O # # # @ @ , , , , , , , , @ O . . . . . . . . . . . . . . . . . . . . . O . . . . . . X X X O . O O O O O # @ @ , 1 , , 1 2 5 5 2 1 @ @ * 2 4 2 1 1 1 2 h V A ) ) / ^ ^ ) Q A x u f f 9 u x x Q ! _ <.1.2.r.9.) ; . . . . : $.;.;.:.&.k 9 % X : B ( &.' ' =.q.v.b.N.E.E.E.E.N.N.M.M.M.b.b.u.i.N.E.W.`.`.N.V.:.: . X = :.V.`.`.`.V.c.-.3 X . . X d u.).oX).).}.{.6.= X + @ 1 2 3 : @ o O X . . . . . . . . . X 8 T s..X X}.,X5X*.% o . %                                                                                                                                                                                                                                                                                                                   ",
"                                                                                                                                                                                                + X . . . . . . 9 &.q.q.=.Q c u : y y 2 @ O X . . . . O . O O O O O O O O O O # @ @ @ @ , , , , , , , @ @ O . . . . . . . . . . O . . O . . . . O O O O O O O O O O O O O O O O O O O # @ @ @ 1 4 5 5 1 2 5 1 2 1 @ o @ 3 i 2 1 2 * ; t f x V x V A A A x k q > & u f z A Q Q ! @.1.2.r.r.e.Q * . . . . 9 ( ;.8.8.&.q % o o y B A Q I I ~ +.6.w.M.E.`./.Q.W.W.E.E.W.E.E.M.v.b.M.N.E.`.V.V.$.& . X * -.V.`.`.V.B.q.$.M o . . X e u.}.oX_.).}.{.6.& . + @ 1 2 3 2 @ + O X . . . . . . . . . % k O.p.(.,X}.,X3X' X . . *                                                                                                                                                                                                                                                                                                                   ",
"                                                                                                                                                                                              X . . . . . . . $ c +.=.;.$.z f t 3 2 ; @ o X . . . . O O . O O O O O O O O O # # @ @ @ @ , , , , 1 1 1 @ O . . . . . . . . . . . O O O O O O O O O O O O O O O O O O O O O O O O O # @ @ @ @ @ < 4 5 4 5 2 5 1 1 * @ @ 1 4 i 3 1 1 * ; ; 9 u u k z A A f 0 9 > & $ 9 u c Q Q ! ~ #.1.0.0.0.q.x . . . . X z &.8.7.6.&.k & % * t M B V c v L ! @.w.M.E.].].].{..X]./.].].'.M.v.v.M.M.E.V.N.C.:.t . X * -.V.`.`.V.V.l.:.S * . . . 7 y.}.oX_.).}.{.] % . O @ 1 2 3 ; @ O O . . . . . . . . . . > ) 0.p.(.,X,X7X5X' X . . %                                                                                                                                                                                                                                                                                                                   ",
"                                                                                                                                                                                            o . . . . . 3 y & e @.~ L Q V f y y 4 ; o O . . . . . . X X . O O O O O O O O O @ @ @ @ , , , , 1 1 1 1 1 @ O . . . . . . . . . . . O O O O O O O O O O O O O O O O O O O O O O O # O # # @ @ < 1 1 4 5 2 2 2 2 * @ @ 1 5 5 3 3 2 1 1 1 ; * 9 0 q V ) ( ^ u 9 q 9 & = k c c L Q ~ _ #.6.0.w.6.:.z X . . X > Q *.6.7.q.8.Q u : ; y z B x z k l L _ q.v.V.].].{..X|..X.X.X{.].`.E.v.y.u.M.N.B.B.l.x . X * -.N.`.`.`.V.c.l.%.2 O . . - 7.}.oX_.)._./.U $ . O @ 1 2 2 ; @ O O . . . . . . . . . X 0 +.0.t.(.}.,X7X3X) X . . %                                                                                                                                                                                                                                                                                                                   ",
"                                                                                                                                                                                        . X X . . . . o ^ j.' 6.w._ c k j 3 2 5 2 @ X . . . . . . X X X O O O O O O O O # @ @ @ @ @ , , 1 1 1 1 1 1 1 @ O . . . . . . . . . . X O O O O O O O O O O O O O O O O O O O @ # # # # # @ # @ @ < 5 5 G 5 1 1 2 5 * @ ; 4 g g i 3 2 1 1 1 ; % y j z ) { / A u > 0 > 8 k Q Q ! ! ~ ] @.@.7.w.7.I A y X . . ; z ) *.6.7.e.z.' x y 3 h B V V z f k l Q =.v.V.].]..X|..X.X;X;X X.X].].N.u.w.v.n.n.c.c.S X X * { B.`.`.`.`.V.c.j.2 O . . $ @.}.oX_._._.R.I $ . O @ 1 2 2 * o O O . . . . . . . . X % 9 _ 1.t.~.(.}.;X[.Q X . . %                                                                                                                                                                                                                                                                                                                   ",
"                                                                                                                                                                                      X . . X . . . . ; ( q.q.e.z.*.) B h 3 1 1 @ + X . . . . . . . O O O O O O O O # # @ @ @ @ , , , 1 1 1 1 1 1 1 1 @ O . . . . . . . . . O X O O O O O O O O O O O O + + O O O O O O O O o # @ @ @ @ , 1 5 5 5 5 1 1 2 2 * 2 3 i h h g i 2 ; ; 2 3 3 h x k c ) A B t & 9 > 9 c Q Q ~ ~ +.@.7.6.7.q.+.8 % X . . . 3 A &.*.=.6.w.q.( x 3 3 B Z A V z k e l L ' z.`.].]..X|..X X;X3X;X|..X[.`.v.w.w.x.z.c.c.%.3 X * V x.`.`.`.[.V.C.k.i @ O X $ _ {.+X_._.~.!.~ % . O @ < 1 2 * o O X . . . . . . . . + % q O.2.t.R.~.(.Q.v.c X O . %                                                                                                                                                                                                                                                                                                                   ",
"                                                                                                                                                                                    o . . . . . . . % 0 Q *.@.+.+.( ) h g 4 1 @ @ O O . . . . . . . . O O O O O O O # @ @ @ @ @ , 6 1 1 5 5 1 1 1 1 @ O O . . . . . . . . . O O O O O O O O O + @ @ O + @ o O O O O O O O O o o @ @ @ , 1 5 4 5 2 1 1 2 2 1 ; y g i g h g y : ; 2 i N i g z f q z z f t ; 9 u k Q ) ! _ _ *.6.7.7.7.8.Q $ . . . . . g [ &.=.=.=.=.+.c g 3 3 M B V S B z z l v ' q.V.].]..X|. X;X;X;X;X X|.|.].E.u.w.w.q.l.l.$.f @ o k q.`.`.'.[.`.V.k.B @ O O X U Q.}.)._.~.!.*.: . + < 1 1 1 * o O X . . . . . . . . X = l 1.a.t.R.~.R.i.<.w X O X *                                                                                                                                                                                                                                                                                                                   ",
"                                                                                                                                                                                  . X . . . . . X ; z b ~ ! ! Q Q c x g 4 2 ; @ O O O . . . . . . . O O O O O O O O @ @ @ @ , , , 1 1 5 5 5 5 1 1 @ @ O . . . . . . . . . O O X O O O O @ @ @ @ @ @ # # @ @ O O O O O O # # o o @ @ 1 1 5 4 4 5 5 1 1 2 1 ; : y g g h h p t : ; 3 4 m g u z f k k h g t > t x V Q ) ~ _ _ *.6.7.9.=.=.z + . . . . X j [ &.:.=.+.Q c q t y i g x V ^ S S W c L ] w.`.].].{. X;X;X;X;X;X;X;X X].`.M.v.w.*.>.$.x ; o + q 6.E.`.'.[.`.V.c.D @ . . X L Q.}.)._.~.W.q.h + + < 1 ; ; @ o X X . . . . . . . . X > c 0.y.s.R.~.R.s.1.8 . O X %                                                                                                                                                                                                                                                                                                                   ",
"                                                                                                                                                                                % . . . . . X * x A ( ~ I v v c k u y 4 1 @ @ O O O O . . . . . . . O O # O O o @ @ @ @ @ @ , , 1 1 5 5 5 5 1 1 1 @ O . . . . . . X X O O O O O O O O @ 1 1 1 6 @ @ @ @ @ @ O O + + O + # # o @ @ @ 5 4 i 4 5 1 1 1 1 2 3 3 t h B B j u t : : 2 i 3 y y f V c c z u t t > u c Q Q ) U U _ ] @.*.*.*.&.y . . . . . X x [ $.:.:.Q w q 9 ; y i g h V [ %.{ ( ) Q *.v.'.].].{. X;X,X,X5X,X3X3X;X.X].W.M.x.6.+.Q u o o + = ! B.'.[.[.&XV.C.C O . . . l W.}.(.(.(.!.x.[ ; @ @ ; * * @ o X . . . . . . . . . X & c u.s.!.~.~.R.(.B.q . O X o                                                                                                                                                                                                                                                                                                                   ",
"                                                                                                                                                                              @ + . . . . X % x :.*.~ ( Q k k z u i i 1 @ O O O O . O O O O O O O O O # O o O @ @ @ @ @ @ , 6 1 5 5 1 1 1 1 1 1 @ O . . . . . . . X O @ # O # # @ @ 1 1 5 4 1 * @ @ @ # @ O O O + + @ @ @ @ @ @ @ ; 1 5 4 2 1 1 2 2 2 2 y g h B B V z u t t y y 2 2 : y z S Q c k u > > t f c Q ! ! I U U U ! @.@.&.$.3 . . . . X o B [ $.$.$.^ 9 t t : y i y g B ^ -.-.{ ( ' 6.v.`.].].{..X X5X7X,X;X5X5X;X|.].W.M.v.q.*.( f o o o & Y v.'.[.[.&XV.C.B @ O . . q s..X(._.(.E.x.^ * + @ * * @ @ # X . . . . . . . . . X $ I M.s.F.G.~.(..X`.k X . . $                                                                                                                                                                                                                                                                                                                   ",
"                                                                                                                                                                            . . . . X X = z c ) ;.=.( Q c k f y 3 3 1 @ O O O O O O O O O O O O O O # # O o O @ @ @ @ @ , 6 1 1 1 2 1 1 1 < * @ O . . . X X X . O o o @ @ @ @ @ 1 5 4 1 4 4 1 @ @ @ @ # # O O O + @ @ @ O @ ; @ 1 1 5 5 5 1 1 1 2 2 i h M B V V V A V j y i i y * X * u z A Q c f u 9 u z k L ! ~ ~ ~ U Y Y U ] +.( S 2 . . . + % ; x S S A A k 9 t i 3 3 3 y f x ) -.:.:.=.=.e.u.N.W./.]..X X5X7X7X5X7X7X5X;X|.].`.B.w.;.$.B % o o - l v.`.[.[.[.[.c.Z @ O . . & 0..X(.~.R.N.z.^ % + @ * * * @ o O . . . . . . . . . X $ ! N.y.5.F.R.R.W.V.f . . X                                                                                                                                                                                                                                                                                                                     ",
"                                                                                                                                                                        + O . . X X $ $ c x.8.*.=.=.( Q f u h 3 2 ; @ O O . O O O O O . O O O O O O O O @ o # @ @ @ @ @ , 1 1 1 2 2 2 2 1 * @ + X . . . O + + o ; 2 * ; ; 1 ; 5 4 N N 3 1 1 * @ @ @ @ @ # @ @ @ @ @ @ @ @ @ 6 1 4 4 4 4 1 1 1 2 2 3 g B S Q Q A Q ^ A j t y h y % % t k z V V x z u 9 q k k I ~ _ _ _ _ U U ! ( ( B y @ . . + * : : g D S A f 9 : 3 i i 3 3 y u z ) &.;.z.z.x.v.v.N.W.Q.].|.;X7X0X9X8X0X7X7X3X X|.[.N.z.q.:.A ; o o - e w.`.[.[.[.V.c.S % . . . % O.{.(.R.!.M.z.^ % + + * * * @ o O . . . . . . . . . X $ ! E.M.t.F.Q.s.6.:.: . . @                                                                                                                                                                                                                                                                                                                     ",
"                                                                                                                                                                      * + . . . o & k l ~ z.z.*.&.( ) S h t i 2 ; * @ O . . . . . . . . O O O O O O O @ # # # # @ @ @ * 1 1 2 2 2 2 2 2 1 @ . . . . . X X o 2 2 3 y g g g N g m M m N 1 * * * @ @ @ @ @ o @ @ @ @ @ < 1 1 1 5 N N 4 4 2 1 1 2 2 3 g B S / ) Q Q ) A k f t y h t ; f S V x c x z x u - & w v ! _ _ +.@.] U I Q ~ Q 0 o . . O ; 2 3 3 g B D h : ; : 2 3 i y y y f z Q &.q.x.x.v.v.M.N.E./.{.|.5X7X8X9X8X0X0X7X5X X X[.V.x.q.:.A > % + $ e 8.`.'.'.`.N.c./ ; . . X $ U /.(.~.!.M.z.V * O @ @ ; * o o O . . . . . . . . . o - ! E.M.i.T./.i.U A ; . . *                                                                                                                                                                                                                                                                                                                     ",
"                                                                                                                                                                    O O . . . X t W &.*.6.w.8.=.( V z p y 3 2 @ + + O O . O . . . . . O O O O O O O O @ # # # # @ @ @ < 1 2 2 2 5 2 2 1 * + . . . . X X O o 4 g i g h g M m M B M g 2 ; * * @ @ @ @ @ @ @ @ @ * * 1 4 N N g g g G 5 2 1 ; ; ; 2 y z S A Q Q Q ) ) ^ B h y 3 y t t x S A c x B z z 9 X $ w c ! _ @.@.#.@.U I L Q x o . . . @ 2 3 y 2 3 g g : o % ; 2 4 i i y y f x Q ~ *.z.x.v.v.M.E.E.Q.{. X7X8X9X9X8X0X7X7X5X X|.|.`.n.w.*.c > o X $ q *.N.`.`.N.N.c.$.f + . . X Y R.(.~.T.u.*.z * O @ @ @ @ o # O . . . . . . . . X % & ~ M.u.r.s./.e.d * X . O i                                                                                                                                                                                                                                                                                                                     ",
"                                                                                                                                                                  . . . . . . % ) 8.e.e.e.q.=.&.V z p t 2 2 ; + X X O O . . . . . . . O O O O O O O O @ # # # @ @ @ < 1 2 5 5 5 5 2 1 < @ O . . . . X o @ ; 3 h g h x h g B B x B y * * o * * * * * @ @ * * 2 2 2 4 N N i g N i 4 5 2 1 ; ; 1 y y z A c c Q Q Q A S S D g ; : f h x V V A A ^ u : % X > k c ! +.*.6.@.+.U I v z 0 X . . X @ 2 4 i 2 : : * o o @ ; 2 i i i i y f x A ( =.z.x.v.v.M.N.E.Q.{.|.5X7X9X0X0X6X5X,X5X X.X[.`.n.x.=.c > X . X > ) v.M.E.N.N.x.&.S * . . X Y T.R.G.F.y.+.z o . o @ * @ o # O . . . . . . . . X > 8 ~ M.r.2.y.E.6.0 X . . O                                                                                                                                                                                                                                                                                                                       ",
"                                                                                                                                                                @ . . . . X X 9 &.q.e.0.7.8.=.( V z i y 2 * + X X . . O O O . . . . . O . O O O @ @ # # # @ @ @ @ @ 1 1 4 4 4 4 2 2 * @ @ O . . . . O ; i h M B h j h h u B B u y 3 ; * * * * * ; 1 2 2 2 2 i i i i i i 4 4 i 4 4 2 1 1 4 4 g g g x A c c ) ( Q z u h j y ; 3 B S A c c Q / [ y X X $ u ) ) ' +.*.*.*.] ! I c u * X . . O @ 1 3 3 3 : ; o o @ @ 1 3 i N m g i j x A $.:.q.q.x.v.M.N.E.Q.{..X;X5X5X5X,X X}.}.}. X{.'.`.V.N.z.-.A ; . X - v 7.i.N.N.M.z.&.$.3 . . X K F.G.t.t.u.8.z X . O @ @ @ o o X X . . . . . . . % k d O.M.y.y.s.].q.; . . . O                                                                                                                                                                                                                                                                                                                       ",
"                                                                                                                                                              . X . . . X > u Q =.q.6.@.] ' ) ^ M y 2 ; * + X . . . . . . . . . . . . . . O O O @ @ # @ @ @ @ @ @ , 1 2 2 2 2 2 2 1 * @ + O . . . + * g m C D B x B B B B h g f : : : ; ; : : 2 2 2 2 4 i i i g N N i i 4 4 4 4 4 2 2 4 g g h z j z c c c ) ^ A h : : ; ; : y B D A A A A x y : X X % z ( +.~ ~ ~ ~ _ ' Q Q x > o . X X o * 1 2 2 2 ; * @ @ @ 1 4 i N m M h g h B A ) ( *.8.x.v.B.N.W.Q.]..X;X,X,X,X}.}.}.}. X}.|.].E.N.V.n.l.j.z X X - v 6.u.N.N.M.x.:.$.g X . X l t.s.s.s.b.q.V X . . o @ @ o o O X X . . . . . . 9 ) Y 7.Q.Q.!.].4Xx.* . . . X                                                                                                                                                                                                                                                                                                                       ",
"                                                                                                                                                            . . . . . . % z Q ' =.=.@.! I c c j y ; @ + O X . . O O . . . . . . . O . . . O O O @ @ @ @ @ @ @ @ , 1 1 2 2 2 1 * * * @ @ O . . . X + 2 M B B Z B B B D B B y t t : : : 3 3 2 2 2 3 i i i g g g N N g i i i i i i i i i i g g h x x x v c Q Q V z 0 : : : y f x B D A A A z > % % o X > Q ( ' ! L K P ! ~ Q Q f * X . X O o * ; ; ; * * * * * ; 2 g m M B M m M B B A c Q ( *.w.n.B.N.W.Q.{. X5X,X,X,X}.}.}.}. X}..X].`.N.N.n.z.j.S = X = K 7.v.N.N.M.x.;.-.h X . X l r.s.!.!.M.x.) $ . . o @ @ o o O O X . . . . . X q ! Y r.{.{.{.{.4Xz.% . . . X                                                                                                                                                                                                                                                                                                                       ",
"                                                                                                                                                        X . . . . . X $ q Q +._ *.*.' L k z h t ; @ O O O . . X O O . . . . . . . O O O O O O O @ @ @ @ @ @ @ @ , 1 1 1 1 ; @ @ @ @ @ o O . . . o 2 N B B B B B x B D B j y : : 3 : 0 y i i y i i i i g g h h N N g g i i N i i N m m m h M x z c A Q ) / V z u : : ; f B D D B B x A A f & % o + o 9 ^ ) ) I L L I ! ) A x > o . . O + @ 1 1 1 1 1 1 1 1 1 2 i m B C C C C D C B B x c ) *.8.x.B.N.W.].{. X5X5X,X,X}.}.{.}.{..X{.].'.E.B.v.z.j.[ g 0 q ! e.M.M.M.B.n.8.$.h o . X k y.E.R.R.E.n.| % . . + @ @ o O O X X X . . . . X q ! Y 7./.Q.Q.].%X=.o . . . $                                                                                                                                                                                                                                                                                                                       ",
"                                                                                                                                                      % . . . . X % c v L _ ] ] _ ' Q u 9 t 3 2 @ O O O O O O O O O O . . . O . . O O O O # o @ # # @ @ @ @ @ @ @ 1 1 1 * * @ + o o o + X . . o 2 m B B Z V V V B B B h 3 3 : : : : t i i i i i i g g h h h h h N N N g g g N N N N h h B S Q ) ) ( ' -.( x f t t 0 ; h S A D B B f j z h : * + o % u V Q ! ! ~ ~ ~ ) ) A h % O . O O @ @ 1 2 2 2 2 2 2 2 5 i i m B C C D D D B h f z x ) &.=.z.n.N.W.].]..X,X5X,X,X X}.(.(.(..X{.{.'.`.N.v.l.k.$.x t k +.v.M.N.M.v.v.q.$.B @ . . u e.Q.R.Q.].`.*.> . X o @ @ o # O O X . . . . . X k +.` r.R.F.T./.|.:.o . . o =                                                                                                                                                                                                                                                                                                                       ",
"                                                                                                                                                    = % . . . ; t u ) ~ ~ _ _ _ _ Q f > ; ; ; @ @ O O O O O O O O O . O O O O . . O O O O # @ @ @ @ @ @ @ @ 6 @ @ * * * * * @ + + + X . . . X 5 m h B B B B V V V D B t % 3 : : 3 : t y p h h N h h h h h h g h h N h h i N M N i y y f x Q ) +.+.&.&.| ^ z g g p y y B A B D S V f > ; y 3 * + * > f c Q ! ~ ~ ~ ~ Q ) D g + O . O @ @ @ 1 2 2 2 2 2 2 2 2 4 i N M M C D D B h u t h f c ( +.8.v.N.`.].Q.{.;X5X,X,X X}.{.{.(.{.{.{.'.`.`.n.8.;.-.B 0 u +.w.M.N.B.v.x.q.$.h + . O 0 +./.(./.].'.z.z X + o @ @ o # O X . . . . . . X k @.1.M.T.i.s.M.B.Q X . . *                                                                                                                                                                                                                                                                                                                         ",
"                                                                                                                                                  = % X . X % A &.' ~ +.~ _ _ ~ ) A u : * * @ @ @ O O O O O O . . . . . . O . . O O O O # @ @ @ @ @ @ , , 6 1 * * * * @ @ @ @ @ + X . . X O ; g B h M M B Z V V V B h 3 ; : : : t y y g h h h M h h h g g p p h h h N M M B M h y : t u c ) ' +.+.+.( ) x h i N m N M B B h y i B C t X o * + o : u k v U _ _ ! ! ) Q V f * O O . O @ @ 6 1 2 2 1 2 1 2 2 5 4 i h M M C D D B B g u h f z Q ) *.q.n.E.'.E.{. X;X;X;X X X}.{.{.{.{.{.].'.`.N.8.' ^ j 0 u +.w.n.N.B.B.x.8.$.h X . . : U E.(.(.{.[.V.B . + o o o o O X . . . . . . . X q O.r.Q.Q.F.s.0.I & . . . =                                                                                                                                                                                                                                                                                                                         ",
"                                                                                                                                                & $ X X X 9 V &.+.+.~ +.~ ~ ~ Q Q B y y ; @ @ # O O O O O O O . . . . . . . . O O O O # @ @ @ @ @ @ , , 6 1 1 1 * @ @ @ @ @ @ o O . . . o 2 g h h h h M B B B z B V j : : 3 3 3 t y g h M M B M h h h g g p p h h M M M B B M h t 0 k c Q ( ~ _ +.' ( ^ h y 2 N N G m i 2 ; o + : D D t o X X > z A ) ) _ ] ] _ ~ ) V : o . X . . O @ 6 1 1 4 2 1 2 1 2 i i i i h M M B C C C B h h h h z A ) +.=.x.B.W.'.].{. X X X X X}.{.{.{.{.{.].'.`.V.c.&.B t : t ( q.c.B.B.B.x.8.( t X . . $ P i.R.(.{.|.`.^ . + o o o + X X . . . . . . . X 8 Y p.(./.Q.E.w.b o . . . :                                                                                                                                                                                                                                                                                                                         ",
"                                                                                                                                              o X X X X = ^ ( ( ' ~ I ! ~ ~ Q c x y 2 3 ; o # O O O O O O O O O . . . . . O O O O O O # @ @ @ @ @ @ 6 6 6 1 1 6 @ @ @ @ @ @ @ o X X . . @ 4 g g h h h h x B B B B V x : ; : t f f f h h z B B M M h h i i i p g g h B B C M t t u x Q ) ' ' _ ~ ~ ) Q B p t o ; 1 < * @ @ @ o + o g D h 9 = > q c ) *.@.@.@.+._ ) Q 0 X X . . . . # @ 6 1 1 5 1 1 2 5 5 3 4 i i g m M B B B B M h h x j x A ) ) *.q.v.N.'.].{.|. X X X}.}..X.X{.{.{.].].'.'.V.:.V & % t { l.c.n.B.B.c.;.[ : X . . X e 0.R.~.(.{.V.{ X X o o o O X . . . . . . . . $ 8 J i.(.R.Q.].B.Q % . . . =                                                                                                                                                                                                                                                                                                                         ",
"                                                                                                                                            % X X X X $ u $.&.' ' I v I Q Q V j g t * o + X O O O O O O O O O O . . O O O O O O O O O @ @ @ @ @ @ @ 6 1 1 1 6 @ @ + + @ @ @ @ o X X @ o ; y f g h h h h z x x B B B D h : : g B x x x x z z B x M M h i i i p p g g M D F h * 9 h Q ( ' +.] _ ~ ! L z u 3 * O O @ + @ @ @ @ ; 2 * ; i z x z k d I @.6.7.1.@.@.' ) Q = . . . . . . O @ , 1 1 1 1 1 1 1 1 1 2 3 i h m M B B M M M h h x h B A Q ) ' 8.z.B.`.[.|..X|.|.}.}.}.}.|..X.X{.].{.].[.[.z.k % o 3 { l.c.c.C.C.c.j.[ ; . X . X 8 ,.F.R./.].`.-.+ . X o o + . . . . . . . . X > d T i.R.t.t.W.N.Q % . . . =                                                                                                                                                                                                                                                                                                                         ",
"                                                                                                                                          & X . X % t p z ) ) ' ( ) c c c x t 3 3 2 @ # X X X O O O O O . . O . . . . . O O O O O # @ o @ @ @ @ @ @ 1 1 1 1 @ @ o + o @ * o @ o O X 5 g y g g g h h h z z x z x h g h y u y h D D B B z z h h h h h i i i i i h g y h C F B : u z ) ( +.+.+.' ( ) c 0 : * + O O O @ @ @ @ @ i m 3 * ; z ) Q L L _ =.7.6.6.6.@.' ) A * . . . . . . O @ @ @ 1 1 1 1 1 ; ; ; 1 2 y i g h M M M N h g h h h B S Q ) ( =.z.n.N.`.].|.|.|.|. X X}.}..X{.{.{.{.|.[.'.x.z X @ 2 [ k.c.c.c.C.c.j.[ ; . X . X & T s.R././.`.:.o . X o o X . . . . . . . . X q K T i.R.5.3.s.V.A o . . X                                                                                                                                                                                                                                                                                                                           ",
"                                                                                                                                        % o % X X : S / V Q Q W Q V c z f y 3 ; ; * @ O X . . O O O O O . . . . . . . . O O O O # # # # o o o @ @ ; 1 1 1 1 * @ o o o ; ; @ @ + X X 3 g : : f h h j h z x x x x h 3 * % t y f B D B x x h h h h h g i i i i i i g h h M B h y g j A ) $.&.( ) ( V u % * o O O O O @ @ 1 1 < 2 g M h g z W Q ! U _ 6.6.9.1.=.+.( ) V % . . . . . O O @ @ @ ; ; ; 1 ; ; 6 ; ; : 3 i i h h h h i i y g h h x V V ^ ( :.l.v.N.`.`.].]..X}. X X}.}.|.|.{.{.{.{.].`.z.x o @ 1 S j.c.c.c.l.l.-.F ; . X . X & _ M.R././.`.;.* . + o o X . . . . . . . . % e P R r.R.F.!.W.V.A X . . o                                                                                                                                                                                                                                                                                                                           ",
"                                                                                                                                      : X . o * : g D S V V c c A x z u u y 2 ; ; @ @ O O O O O O O O O . . . O O O O O O O O O # # # o o o o o @ ; 1 2 2 1 ; * @ * * ; ; * @ O X X 4 g : : h h h h h z j z z B h : ; : g y 0 g x h h h h g i y i i i i g g h g g h h y y g h h f f x Q ( ) V V p = @ + O O O O @ @ @ 1 1 @ * g F [ [ z c ! ! _ #.6.6.1.#.@.&.Q z t X . . . . . . O @ @ @ 6 ; ; ; @ @ 6 * ; ; : 3 y i i g i i i y y g g j z x A ( &.8.z.B.N.E.`.].{.}. X X X}. X|.{..X.X.X{.].x.x + @ 1 M { k.k.;.:.-.$.S 1 . . . X 8 O.M.T.!./.'.q.* . + o o X . . . . . . . . $ v U R r.R./.;X[.c.x X . . %                                                                                                                                                                                                                                                                                                                           ",
"                                                                                                                                  @ * * . . + 2 g h B z z z z V x f f u f g ; @ @ O O O . . . O O O O . . . O O O O O O O O O O # # # o @ o o @ @ ; 2 2 2 ; * * * * ; * * * @ . . X 3 y u h x x x h h z j z M B M : ; 3 M g t u f g g g u y t u y y i i h M B h h M g : : g B h j u u z ^ S h y : * @ + O O O O @ @ @ @ @ O * i S F ^ k k I _ O.<.1.1.@.@.+.( f % X . . . . . . . O # @ @ @ @ @ @ @ @ @ @ * ; ; 2 2 i i i i i i y y g g g f z A Q ( :.z.v.B.N.`.].].|. X X}.}.}.|.|.|..X.X.X].v.c @ + * y S %.-.{ ) / [ S 3 X . X $ 8 @.M.s.!./.'.q.> . + o + X . . . . . . . . $ I @.` r.F./..Xv.~ t X . . *                                                                                                                                                                                                                                                                                                                           ",
"                                                                                                                                * . . . . @ ; g h h z z z z x x j u t t 2 1 # # O . . O O O O O O O O O O O O O O O O O O O O # @ @ o o @ @ @ * ; 1 2 2 2 * @ @ * * 2 1 < @ O X . X : g A V x x x x B B B B B M h * : i h M i u y y y g y y y y i i i i h M M h h g y : : y g h B B j h B B y * * @ @ + + O O O @ @ @ @ @ 1 i M D h z k L _ ` @.1.1.1.@.+.&.V % . . . . . . . . . O # @ @ @ @ @ @ @ @ @ @ * ; ; 1 2 i i i i i i y y y f g f f k c ) &.q.x.n.N.`.'.'.{. X X}.|.|.|.|.|..X}. X{.B.V + + @ 3 Z S ^ S A V B B y o X X $ 8 O.M.s.T.!.W.q.p o o + O . . . . . . . . . $ L <.7.r.t.s.M.+.8 o X . . :                                                                                                                                                                                                                                                                                                                           ",
"                                                                                                                            o % + . . . o 2 3 g h h x B V B x x g y 3 3 1 @ . . O . . . O O . O O O O O O O O O O O O O # # # # # o @ @ @ @ o * 2 2 2 2 ; * o o * * 2 2 1 @ O . . + h [ ^ ^ x x x x B B B h m m i o 4 M g h h g g i y y y y t y y i h h M B h g f h f y y h h B B D B B M y * * @ @ @ @ + O O O @ @ @ 1 N C C C B u f v _ @.#.#.1.1.1.=.&.-.u . . . . . . . . X O O # # @ @ @ @ @ @ @ @ @ * * ; 1 2 i i i i i g i i y y g f f f z Q { :.z.v.B.N.W.W.Q.{.|.|.|.|.|.|.|.|. X X|.N.Q o + @ 3 h B D B B h y t t * + X $ 8 _ v.M.!.!.N.=.u o o O O . . . . . . . . . X Q e.r.r.t.i.v.Q & X . . + y                                                                                                                                                                                                                                                                                                                           ",
"                                                                                                                          X X X . . . o : t y g h h z x B z y : y 2 ; 1 ; # . . . . . . . . . O O O O O . . O O O O # # # # # # # o o @ @ * ; 2 y y 3 2 ; * o * : 2 * 1 1 + . . . X g [ / A x x x B B B B h h i 2 ; 3 B h g h g g g i y y i i y i h M B B B h t 0 g h y h B h M B Z B B i : * * @ @ + O O O O + @ O + 2 C F C m h f z Q *.6.1.<.<.9.=.+.( ^ : . . . . . . . . X O O O + @ @ @ @ @ @ @ @ * * * * ; 3 i h B M M B h g y y f f f f f A ( | *.q.v.B.E.`.Q.].]..X}. X X|.|. X X X X`.~ X O @ 3 h z M j u t : : : ; o : = 8 ' M.E.Q.].W.7.q X X + O . . . . . . . . . % +.z.r.5.5.p.v.Q % . . . o                                                                                                                                                                                                                                                                                                                             ",
"                                                                                                                          X . X X + X * f g g h h j j x h f t : 4 1 @ @ @ O . . . . . O . . . O O O O O O . O O O O # # # # # # o o o @ * : 3 y g i y 3 : * * * : 2 * < < + . . . . o y B x x x B V V B B B y ; X % i M M h h h g g i i y i i i h M B B B g : : u j j g B B M h M M h i 2 * @ @ @ O O O O O + + @ @ 1 g C F g 3 u c W _ 6.7.1.<.<.6.=.+.A g + . . . . . . . . + o * o * * * * * * o o % * * % % * 0 f h B D S V B h g g g g g f f x Q ) ' =.z.v.N.`.Q.Q.Q.{.|. X X}.|. X X X X[.+.X + @ : i p y 9 > ; ; ; : ; % t 9 w +.E.Q.Q.{.].u.l $ X X X . . . . . . . . . % &.z.r.a.2.i.].+.o . . . +                                                                                                                                                                                                                                                                                                                             ",
"                                                                                                                        y o . X o : ; t x M h h h B B B f t 3 3 i 2 @ O O . . . . . X O O O O O O O O O O O O O # # # # # # # o o o @ @ ; 3 g h h f y t : ; : : : 2 2 1 < + . . . . . . * u x B V A A B B h t % X % g B M h h M h g i i i i i h M B B B B g : t g B x x B B h h h i y 2 * @ + + O O O O O O + @ 3 m N C D m 3 ; k ' ' @.7.7.1.<.<.@.*.) z 3 X . . . . . . . . @ 3 y y t t t t 9 3 9 t u f f f f f c V V ^ / ( Q c v z k k k f k k c Q Q ~ *.q.x.b.'.].Q.].{..X}.}. X X X;X;X;X%Xq.& + + + * * * * % * * ; : ; * t 9 q O.E.Q.Q.{.{.b.I - X O X . . . . . . . . . o ) 7.r.r.r.i.%X;.% . . . X                                                                                                                                                                                                                                                                                                                             ",
"                                                                                                                        i o . . ; h h h h M h x h B D j y y y 1 ; @ @ O O . . . . . O O O O O O O O O O O O # # @ # # # # # # o o o @ ; : y h j f f u t : ; * * ; 2 2 1 @ O . . . . . . X 0 B V V A A B x B g ; X o y B B M B B h h g p g h M B B B B B h h u t u x x B B B M h i 4 2 * @ + O + O O O O + @ @ @ i M M C C i : > V *.*.<.7.7.1.<.<.*.( u % o . . . . . . . . . * t h x B B V A A S ^ ^ / / ( $.$.&.:.;.:.*.*.*.=.=.#.+._ U v c Q Q ) ~ ) ' *.q.w.u.E.].].{.|.}. X}. X,X,X3X3X3X3Xx.9 X + . . . . X X o @ * ; @ ; 3 & w T T.{.{.(.(.N.+.= X X X . . . . . . . . . X v @.y.y.y.i.].;.% . . X +                                                                                                                                                                                                                                                                                                                             ",
"                                                                                                                      * * + X o y B D B h h g h x f f : : : ; @ o O O O . . . O . . O O O X O O O O O O O # # @ @ @ @ @ @ # # @ * ; : y y h j f f f u u : ; * * * * * @ @ O . . . . . . . : V V c V c z f B x u % % u B B B B z h h h M h M B B B B z g f z z j j B B B M M M h y * @ O O O O O # # # @ @ * ; 5 i m M M i : = q ) *.9.3.<.1.2.1.<.*.( t . . . . . . . . . . + 2 y z x Q ( { $.$.( { ( ( $.$.&.*.=.q.x.x.w.e.v.V.N.E.`.N.w.#.#.=.6.8.6.*.@.=.6.0.y.b.Q.{.|. X X X X}.,X5X5X5X5X4XB.q X . . . . . . X X + + o X o o $ 7 T T.).).{.{.Q.6.8 X X . . . . . . . . . . X l #.0.y.r.i.[.l.; . . X *                                                                                                                                                                                                                                                                                                                             ",
"                                                                                                                    o . . X * 2 M C C B i y y 3 y ; % % o o + O O O O O . . O O . . O O O O O O O O @ @ @ @ @ @ @ @ @ @ @ @ @ * : 3 y f h z f f f f u u 0 ; * * * * * @ O . . . . . . . . * V V c c k k f x f f k k c V V V z z z z B B B B B B h j h u z B V V B B Z Z M m m i 2 @ O O O O O O # # @ @ * 1 3 g i y y y y * 0 c ' <.9.,.3.7.7.9.*.=.{ y . . . . . . . . O O * i h B c Q ( &.&.&.-.&.&.+.( +.+.*.=.8.q.y.u.v.N.`.W..X3X X].T.i.w.w.u.y.e.e.6.1.0.M.T.'.|.%X X X X.X}.,X5X5X5X3X3X[.~ $ . . . . . . . X O X X . X X X & U Q.}.).(.(.Q.8.8 X X . . . . . . . . . . X k _ <.a.r.i.3Xc.* . . o ;                                                                                                                                                                                                                                                                                                                             ",
"                                                                                                                    % . . % i m M M B M h y 3 ; ; @ o o X X O X X O O O . . . O O O O O O O . . . O @ 1 1 1 1 * @ @ @ @ @ @ 1 2 y g g g f f u u f f f f : ; * * * @ @ @ O . . . . . . . . o f A Q L v L I Q ! ~ ! ~ ~ Q L W V V Z Z B Z B B z f u z x x V V A S S D B M g m 2 * @ + O O O O O @ @ @ 6 1 4 i i g t : ; t z h z ) @.#.<.,.2.7.7.*.*.| S ; . . . . . O O O O @ 1 4 g B V Q Q ) &.-.&.&.&.( ( +.+.+.*.6.9.6.w.M.E.W.W.].|.{.{.].].Q.Q.].'.W.N.M.i.T.{.{..X X5X5X,X;X}.;X,X5X5X7X7X3X[.n.z X . . . . . . X + + X . . X o - U Q. X}.R.G.T.<.8 X O . . . . . . . . . . X k U O.1.2.i.4Xc.* . . o                                                                                                                                                                                                                                                                                                                               ",
"                                                                                                                    % . X 3 C C m i i 3 3 3 2 ; ; @ @ O X X X X X O O O . . . O O O O O O O O . O O @ 1 1 1 1 * * * * * < 2 4 i g h h h u u u e f f f g 3 * * * @ @ + O . . . . . . . . . . % A ) Q U _ @._ 6.7.6.6.@._ ! Q ) ) Q V V V B B j f f z A A c c A ^ S D B g 3 2 @ @ + + O O O O O @ @ @ 1 4 i N h g t ; & 0 B A Q ' @.O.` <.7.w.6._ ) A y X . . . . X O O + + @ * 2 i B V V W Q ( ( ( { ( ~ ~ ~ ( _ ] @.@.1.7.y.u.b.M.E.E.T.R.(.(.(.{.{.}.}. X}.}.{.}.}. X,X5X7X6X6X5X6X6X6X6X7X6X5X%XV.{ ; + . . . . . O O O X X X X o $ K T. X}.R.F.i._ 8 o O . . . . . . . . . . X l _ <.7.1.i.3Xl.* X . %                                                                                                                                                                                                                                                                                                                               ",
"                                                                                                                  % X . + i C C i 2 2 3 2 2 1 1 * @ + X X X . X . X . . . O O . O O O O X . . . O @ @ @ @ @ @ @ @ @ @ * 1 2 3 i u h f u u u q e f f f : 2 ; ; 1 1 @ O . . . . . . . . . . . X u Q I _ O.O.,.0.u.y.0.7.1.@.&.&.| ( ) ) Q V V x x V A ^ A x c A A A B h y ; @ + + O O O O O @ @ 1 5 1 5 i N h h j u : f z V ) ) @.@.,.3.7.w.w._ l k t * . . . . . O O O @ @ @ @ ; i h z B V W ) ) ) ( ) ~ ~ ) ) ~ _ +.=.6.6.7.7.0.u.b.T.T.T.R.R.(.).).}.}.,X,X<X0X<X,X,X,X6X0X0X8X8X6X<X<X6X6X6X5X3X`.' t * . . . . X + + X . X + X o $ v i. X}.R.F.r.! & + O . . . . . . . . . . X k _ 9.0.2.M.4Xk.@ X X ;                                                                                                                                                                                                                                                                                                                               ",
"                                                                                                                + X . . + 5 m N 1 ; 2 2 2 1 1 * @ o X X . X . . . X . O . . O . O O O O O O O O @ @ o o @ @ @ @ @ @ * < 1 2 2 t u u u q q u e k f f y % ; 1 1 1 @ O . . . . . . . . . . . . . X w K ` 7.r.i.F.F.t.p.y.y.u.q.6.*.&.&.' ) Q Q ) ( ( ( ) c c c c z h h 3 ; @ @ + O O O O @ @ @ 1 5 4 i N g g g y u z z / { ) ) ] #.O.2.0.y.u.8.L 8 % o X . . . . . . . . . . O O O o * % : p p a v c Q Q Q Q ) ) ~ ~ +.=.6.1.<.<.<.7.r.y.i.F.F.F.!.(.).).).).+X<X0X0X1X0X0X8X9X9X9X9X8X0X1X<X<X,X,X XW.=.V 3 y i 2 + X + + X X X X X X $ e 2.{.(.R.F.y.+.> + O . . . . . . . . . . % d P 1.0.7.v.V.^ o O X                                                                                                                                                                                                                                                                                                                                 ",
"                                                                                                                X . . . o ; 5 2 ; 1 2 5 2 1 1 @ o O . . . . . O . . O O O O O . O O O @ @ @ @ 1 ; @ @ o @ + @ @ @ @ * 1 2 2 : 9 0 q q q q u a z f f y ; @ 1 1 @ O . . . . . . . . . . . . . . . 8 _ 0.u.F.F.G.F.F.s.s.i.i.w.6.*.*.&.+.] ' ' ' ' &.' ~ Q Q Q z f y y ; * @ @ O O O O + @ @ * 2 4 i N N N h y u h c ) ( &.' ! _ O.3.2.y.u.w.*.q % X X . . . . . . . . . . . . O X O + O X X X $ % % * ; : 0 f c Q ~ +.*.=.*.#.O.O.2.0.r.r.i.t.t.S.!.^.(.(.~.).+X<X<X<X8XsX8X8X9X9X9X9X8X0X0X6X<X,X}.T.8.{ S F S y $ X o X X X . . X X X w _ !.R.F.F.v.=.0 + O X . . . . . . . . . % l Y 1.0.7.6.Q ; . . +                                                                                                                                                                                                                                                                                                                                 ",
"                                                                                                                X X . . o * ; ; 1 2 5 5 1 * @ O O O . . . O O O O O O O O O O O O O O @ 1 2 2 1 1 * @ @ @ @ @ @ @ @ * 1 2 : > > 0 q q q u f k k f f y ; 6 6 @ O . . . . . . . . . . . . . . . . > _ y.u.F.F.F.H.!.R.E.N.u.6.@.+.+.+.+.+.+.@.@.@.*.*.*.*.&.{ A j t 3 1 * * @ @ O O @ @ @ 1 2 2 i g N N h h z V ) ( :.*.*.' U _ <.2.a.y.w.6.&.0 X . . . . . . . . . . . . . . . . O O O . . . X X . . . . . X % > 0 k c Q ' @.O.O.1.7.7.7.0.a.2.4.r.t.F.!.R.~.(.+X<X<X8XsXsX8X9X9X9X9X8X0X0X0X6X,X{.T.v.( S [ V z t 9 > % X X X . X X X 8 Y y.F.F.i.v.*.w X X . . . . . . . . . . = Q ] 1.0.7.=.k . . . +                                                                                                                                                                                                                                                                                                                                 ",
"                                                                                                                X X . . + @ @ @ @ * ; ; @ @ O O O . O O O O O O O O O O O O O O O + @ @ 1 1 1 1 @ @ @ * * * @ @ @ @ * * * % = 9 0 u u k k z k f u : ; 1 @ O . . . . . . . . . . . . . . . . . . X 7 _ w.i.G.H.H.R.R.Q.M.0.#.+.' ] ] ] +.@.#.#.#.#.=.*.=.:.$.{ B y y 1 < * * @ @ @ * 1 1 2 4 i i h m h h x ( &.:.=.8.8.*._ T _ 1.7.y.u.7.+.( : . . . . . . . . . . . . . . . . . . X . . . . . . . . . . . . . . X % & 9 d v P ! @.6.e.7.6.1.,.1.0.0.r.i.T.R.G.~.,X<X8XsXsX9X9X9X9X8X0X0X6X<X<X<X XW.v.L z D Z x c V z = X + + X . X X & P 2.p.t.r.9.' w o . . . . . . . . . . . > ) @.1.0.w.q.z . . . X                                                                                                                                                                                                                                                                                                                                 ",
"                                                                                                                o X . . . + + + O O o + O O O O . O O O O O O O O O O O O O O O O @ @ @ @ @ @ @ @ @ @ 1 1 1 < @ @ @ * * * * > 0 q u k k x x f j y % * 1 @ . . . . . . . . . . . . . . . . . . . . X $ Y t.~._.~.R.R.!.r.1.@._ _ _ _ _ _ O.#.O.@.@.@.+.+.( $.[ B g 2 1 < * * * 2 2 2 2 2 3 i g h h h u z -.:.*.=.6.8.7.@.` ` ` <.y.v.v.8.&.^ ; . . . . . . . . . . . . . . . . . X X . . X . . . . . . . . . . . X X X $ - & 8 e v ! ' +.@.+.O.6.e.e.0.y.T.R.F.R.}.<X0X9X9XsX9X9X9X8X6X<X<X,X,X5X;XQ.v.U c V l L W ) / z % + . O . X X & l <.p.y.2.3.' w $ O . . . . . . . . . . 9 ) @.1.0.w.8.u . . . X                                                                                                                                                                                                                                                                                                                                 ",
"                                                                                                                  X X . . . . X X X X X X O O O O O O O # @ O O o o o o O O O O O @ @ @ @ @ @ @ @ @ 1 1 2 2 < @ @ @ * * 3 t t u u k z z z z g g y * + @ o . . O . . . . . . . . . . . . . . . . . . X 7 T G.~.R.R.R.T.0.<.@._ ~ ~ _ _ _ O.O.@.@._ +._ ~ Q ^ B g 3 * @ @ @ * 2 2 2 2 2 3 i N m M h f f c ;.l.=.@.9.7.7.6.<.O.#.1.y.v.v.&./ h o . . . . . . . . . . . . X X X O @ @ o o o o o X + o o + X X X X X X o o o X X X $ - - 8 k L c Q +.=.*.=.6.u.s.s.!.(.}.,X8X8X9X9X9X9X8X6X,X,X_.(.}.{./.E.<.P v l U _ ' { S 2 + . . . . . % k @.y.u.a.1.' u % O . . . . . . . . . . 9 ! _ #.0.e.=.u . . . +                                                                                                                                                                                                                                                                                                                                 ",
"                                                                                                                  X X . . . . . X X X X X O O O O O O O @ @ # @ @ @ @ @ @ @ O O O # @ @ @ @ @ @ < 1 6 1 1 1 * @ @ @ % ; y t u u k x x x z g f : : * O . . . . . . . . . . . . . . . . . . . . . . . . X e r.F.G.R.R.T.p.1.@._ _ ~ _ ' ] _ _ ' ) L W W z k j t : ; @ @ * * 1 i 2 2 3 4 i h M M M B B A Q =.z.q.<.1.7.7.7.1.O.<.6.7.*.:.Q h o . . . . . . . . . . . . O o o * @ ; : : ; ; ; ; ; ; ; ; * * % * * & & % & ; % % X $ X X $ > 9 > 8 u f q k v K U ` O.r.s.R.;X0X8X8X8X8X0X6X,X}.).R.R.R.Q./.y.T Y U _ @.&.{ S t + . . . . . + 0 L <.r.r.7.' v = O . . . . . . . . . X 9 L _ O.w.n.n.z X . X o                                                                                                                                                                                                                                                                                                                                 ",
"                                                                                                                  X X . . . . . . . . . . X O . . . O # @ @ @ 1 1 1 1 1 1 @ @ O @ @ @ @ @ @ 1 6 1 1 @ @ @ @ + + o o % ; : 0 u k x V B x x f 0 : % @ O . . . . . . . . . . . . . . . . . . . . . . . . . $ P a.F.G.R.Q.T.1.T T _ ] ' @._ ! ! L c z x x z f t * * ; ; : t y y i i i i i m M B B h j A -.&.' *.6.1.2.7.7.7.7.<.<.6.e.Q c t * . . . . . . . . . . . . O + @ ; : 2 3 t y y y u f f t 9 0 3 : t t 0 0 0 q u f f u u u t 0 = > 9 8 = > & X $ & $ - > 8 e P d.r.{.,X,X0X8X0X,X(.).(.R.R.R./..XQ.u.u.0.O._ ' ) m t + . . . . . X : e _ 0.y.y.*.W t O . . . . . . . . X = q l U ` 7.N.V.B . . . o                                                                                                                                                                                                                                                                                                                                 ",
"                                                                                                                  $ X X + + O X O X + o X O O X . O # @ * 1 5 5 2 2 2 1 1 < + + 1 2 2 1 1 1 1 1 1 @ @ @ @ O + O @ o : y 0 f z x V V B x x y : * + . . . . . . . . . . . . . . . . . . . . . . . . . . . . w 6.T.H.G.^.Q.2.T T O.@.*.@.! U v k Z z z M h y : * ; : t y y p g i g g h h M C M h z V ( k.=.] U _ ,.2.2.7.7.7.7.<.6.*.u % X . . . . . . . . . . . . . O @ 1 3 3 3 t y y u f h z z f u u y u f f f k l c c c c c V Q Q Q c k k e k z u 9 8 9 $ X $ $ - 7 w d 1.p./. X5X6X}.R.R.R.R.R.R.~.(.Q.M.N.u.1.] ! V p 3 + . . . . . . * w U 7.y.y.9.Q p X . . . . . . . . + u v d P P T n.V.z . . . o                                                                                                                                                                                                                                                                                                                                 ",
"                                                                                                                                        @ X X X . # @ 1 4 4 4 5 2 1 * @ * * @ + @ 1 2 5 5 1 1 1 1 @ @ @ O O + o o o : x f k x c A V B h g ; * @ + . . . . . . . . . . . . . . . . . . . . . . . . . . . . 0 B.{.R.H.(.Q.5.T d.1.6.6.@.! L l a Z Z M M i y : ; t y g g g h h h h h h h M M g 0 z | *.l.8.@.U ` ,.2.3.7.a.7.2.7.6.) & . . . . . . . . . . . . . . O @ * 2 3 y t u u u f k z x x k k f f f f k k v I ! ! ! Q ! ! ~ ~ _ +.+.' _ ' ' ) Q L k w 8 = - $ $ $ & q d #.M./..X(.R.R.R.~.R.G.R.Q.N.y.x.w.6.+.) V p 2 + . . . . . . X 8 Y 1.y.i.9.! a X . . . . . . . X % z ) K J r Y w.z.0 . . . X                                                                                                                                                                                                                                                                                                                                 ",
"                                                                                                                                        @ X X X . o ; 5 4 5 2 2 1 @ o @ @ @ @ @ @ * * 1 1 1 1 1 @ @ + + X . O + o : h S z z x x B B B h y ; o X O . . . . . . . . . . . . . . . . . . . . . . . . . . . . o ~ 0.t.F.R.(.F.3.5.t.r.0.#.U P l a Z Z M g 3 y t 3 i g g h h h h h h h h g i p f k c =.8.z.q.@._ @.,.2.2.7.2.3.1.7.;.Q X . . . . . . . . . . . . . . O @ 1 2 y y t q u f k k x c c z k f f f k k v I ~ @.@.@.+.+.@.@.@.@.1.9.7.9.<.6.6.9.*.' L c v e 8 $ X X $ X & l #.M.M.s.F.R.(.~.R.!.E.v.=.( &.=.&.A f u 3 + . . . . . O X 8 U <.r.u.7.! e $ . . . . . . . . % c ' _ U J I ! k X . . . X                                                                                                                                                                                                                                                                                                                                 ",
"                                                                                                                                        O . . . . o @ ; 1 < < * + O O O O + @ 1 1 * < @ @ @ @ @ + O O O . . . o : h B V x x x x x h i 3 3 ; X X O O . . . . . . . . . . . . . . . . . . . . . . . . . . . . X & T T.(.}._.R.}.}.F.5.3.O.` _ ! ^ ^ V h h z B B B B x B z h h h h h h y 9 u f Q ( q.x.e.6.<.<.7.7.2.2.2.,.,.9.=.;.A X . . . . . . . . . . . . . O X o * 2 3 t t u f u f k k x x v k k f u k l v I _ @.7.7.7.7.7.9.1.1.2.7.7.a.a.r.y.y.r.7.7.6.*.@.! l 0 % X X . . & b +.#.7.M.]./.Q.M.y.7._ q v ( &.c 0 : 3 o . . . . . . . - L @.0.u.w.' e $ . . . . . . . . % c *.<.#._ P q X . . . . $                                                                                                                                                                                                                                                                                                                                 ",
"                                                                                                                                        . . . . . X @ @ @ @ @ @ + + O + + @ @ 1 1 1 2 @ o @ @ + O O . . . . o 2 M D D B V V x x x i i 2 * @ . . O . . . . . . . . . . . . . . . . . . . . . . . . . . . . . . X l i./.~._._.<X:X~.t.r.r.3.<.@.' { ) ^ S S A V V V B B z h h h h h u y > u c ) *.e.w.1.1.3.,.7.7.2.2.7.<.T @.' ) 3 . . . . . . . . . . . . . . . O O @ ; 2 t t q u u k k k k k k k k k k k l l P _ 6.w.w.y.y.y.r.2.2.2.r.a.p.S.S.S.T.S.t.i.y.u.y.7.~ c 0 % X X . . % 0 0 q v U ` @.<.@._ k & 9 V { B 0 : : o . . . . . . . X k _ 7.y.7.@.l & . . . . . . . X $ l @.7.2.` P w X . . . + &                                                                                                                                                                                                                                                                                                                                 ",
"                                                                                                                                        . . . . . X o @ @ + + + + @ o @ * 1 1 @ @ @ * @ O O O X . . . . X + ; i M B B x B B x x g 3 2 ; o O X X O . . . . . . . . . . . . . . . . . . . . . . . . . . . . . . . $ e P T H._._._.~.(.(.T.p.2.9.@.+.' ( / / S A A V B z z h h h z h u k u e ( 8.w.0.<.,.,.,.2.a.7.7.9.9.<._ +.I f X . . . . . . . . . . . . . . . O O @ * 2 y t q q q k k k k k k l l k k k l l P T <.w.y.v.i.i.y.r.r.r.t.t.S.!.R.~.Q.~.R.T.T.b.b.w.@.U l 8 % X . . . X X X X $ 7 s r a e 8 - 7 f ^ z : * @ O . . . . . . . X q _ y.u.u.6.L 8 X . . . . . . o 8 l #.r.r.7.~ 9 . . . . o                                                                                                                                                                                                                                                                                                                                   ",
"                                                                                                                                        . . . . . + @ @ + O O O O @ @ @ @ ; @ X O . . X X . . . . . . . X @ 2 i C D h h g g y 3 : * o + X X . . . . . . . . . . . . . . . . . . . . . . . . . . . . . . . . . . X X 7 Y ~.+X_._.oX<X<X(.F.r.7.1.@.+.' ( ( Q Q Q V z z p p h z Z M z Q Q ) *.e.v.u.7.7.<.1.0.r.7.7.7.@.~ ! ) 0 X . . . . . . . . . . . . . . . . X O O @ * 2 t 0 q u k z k k k k l v l l l l l P U @.7.w.y.u.u.i.i.i.S.F.!.~.).).).}.}.).XXQ.T.b.y.7.@.! k 9 X . . . . . . X X $ - 7 w e u 8 0 z Z h * O O X . . . . . . . X w _ u.T.E.x.~ 0 X . . . . . . % q K O.p.i.0.*.x X . . . *                                                                                                                                                                                                                                                                                                                                   ",
"                                                                                                                                        . . . . O @ @ @ X X . . O O + + O X . . . . . . . . . . . . . . . o 1 g M B i y y * % o + + . . . . . . . . . . . . . . . . . . . . . . . . . . . . . . . . . . . . . . . X - _ {._.J.oX:X<X,X^.!.Q.T.0.<.@.] ' ) Q W W c z u p p u z V ) ( &.*.*.=.w.w.w.0.0.1.1.0.w.w.z.z.*.L k f % . . . . . . . . . . . . . . . . . . O . + o * : 9 9 u z x z l l k l l v l l l v P U ` 6.6.0.y.y.i.i.S.F.R.(.).+X@X@X<X@X+X).(.Q.T.b.u.w.6.+.c q > % o X X . . X X $ - 7 u k u z B z y * X . . . . . . . . . X 9 _ b.E.E.N.8.x o . . . . . X * k U T a.t.r.z.( X . . . *                                                                                                                                                                                                                                                                                                                                   ",
"                                                                                                                                        X . . . + * @ + O . . . . . . . . . . . . . . . . . . . . . . . . X @ i g 3 ; ; 2 @ O . X O . . . . . . . . . . . . . . . . . . . . . . . . . . . . . . . . . . . . . . . X % P i.G.A.J.oXoX_.~.(.).(.T.y.7.1.@.~ ) L W c k u u u k W ( &.=.8.l.8.@.O.O.#.6.7.1.1.0.w.8.8.*.) z ; * X . . . . . . . . . . . . . . . . . . O . O + o * % = t h z k c c v v v l l l l v P ! _ @.9.7.0.y.i.F.F.G.^.}.+X,X<X6X6X6X,X+X).(.Q.T.M.b.v.q.*.) Q x u ; X . . X % $ $ $ 7 u Z V B y 2 @ X . . . . . . . . . X 8 ~ M.Q.W.`.n.j.3 . . . . . O * z ] ,.2.r.7.x.{ + . . . *                                                                                                                                                                                                                                                                                                                                   ",
"                                                                                                                                        X . . . o @ o O . . . . . . . + @ + O + + +   + O + + . . . . . . . O * * o + O X X . . . . O . . . . . . . . . . . . . . . . . . . . . . . . . . . . . . . . X . . . . . . X - r E 4.J.oXoX}.).}.).(.(.Q.T.v.7.@._ ! Q c u u k l Q ' @.*.8.q.q.q.*.Y Y O.<.<.1.1.9.q.*.Q ^ z t + . . . . . . . . . . . . . . . . . . . . O O O O X O + % : i h z z c c c v c v l l v L ! _ @.@.6.0.p.i.F.T.R.(.+X+X<X<X0X0X6X<X@X}.)./.Q.E.T.b.w.6.+.) ) x f : * % & q u w 0 0 z S D h 2 @ O . . . . . . . . . . O > Q v.{.].`.V.l.t . . . . . + * c *.7.3.3.,.q.&.o O . . *                                                                                                                                                                                                                                                                                                                                   ",
"                                                                                                                                        . . . . O X . . . . . . . . .                         + . . . . . . . O . . X O . . . O O O X . O . . . O . . . . . . . . . . . . . . . . . . . . . . . O O O O O O . . . . . X $ J 5._.oX+X).+X+X).~.(.(.Q.Q.b.7.@.@.' L e k v ! ~ @.@.6.e.e.e.e.7.T T #.,.,.1.2.9.=.) z Z y * . . . . . . . . . . . . . . . . . . . . X . O O . . . X o * : t u f k z x x k k l l L ! _ _ ] @.1.7.p.i.F.!.~.).+X,X<X<X<X<X<X@X@X}.).{.(.Q.T.b.y.6.+.( ) V x z k f k Q ^ W V z a z h g 1 O . . . . . . . . . . . O : I y.].{.].'.c.f X . . . . O * v *.O.T T T =.$.; @ O . :                                                                                                                                                                                                                                                                                                                                   ",
"                                                                                                                                        . . . . . . . . . . . .                                 . . . . . . . . . . X + + +         O . + + . . O . . . . . . . . . . . . . . . . . . . . . . . O O O O O O O O . . . . X w 1.(.~.~.~.}.@X+X_._.).(.(.T.u.0.0.7.~ l K U *.@.6.9.9.7.0.0.0.7.O.O.O.O.,.2.7.7.*.W 0 : * o . . . . . . . . . . . . . . . . . . . . O O O O . . . . X o % = 9 t u q u u q e e k L ! +.] _ @.#.1.0.i.T.R.^.).+X,X,X<X<X<X+X).+X}.).).{.Q.E.b.u.q.*.( Q x x c c Q ! ! ) ) ^ V z f t 5 @ X . . . . . . . . . . . O : I 0.Q./.W.'.B.A o . . . . o ; k U P Y T #.=.) f 3 + . :                                                                                                                                                                                                                                                                                                                                   ",
"                                                                                                                                          X . X + o @                                           O . . . . . . X O + o                         O O O O O . . . . . . . . . . . . . . . . . . . . O O O O O O O O . O . . X X w T 2.i.F.(.+X+X}.).).).(.R.i.i.u.0.<._ O.6.e.7.7.0.6.7.7.7.0.0.7.1.<.O.<.1.0.7.*.Q h o . O . . . . . . . . . . . . . . . . . . . . O O O O X X X X X X % % : t u 0 9 8 8 8 w q v ) &.+._ _ O.<.2.p.T.Q./.).}.+X<X<X<X<X+X+X+X}.).(.XX/.!.b.u.w.=.' c x x c ) +.+.] ' | ( ^ W x : o O . . . . . . . . . . . . O = l 1.!.R.E.`.V.[ * . . . . @ : k K J Y _ 6.*.( A B @ . :                                                                                                                                                                                                                                                                                                                                   ",
"                                                                                                                                                                                                    O O O O O o                                   O . . . . . . . . . . . . . . . . . . . . . X O O O O o o # O O O O O . X X & K 7.u.T.{.}.+X+X+X).(.R.R.Q.T.i.u.y.0.i.M.b.u.w.7.1.1.7.y.u.b.b.0.1.1.6.0.6.' Q B @ . . . . . . . . . . . . . . . . . . . . . + o + o o % % % % $ % % & > t u u 9 8 7 8 8 w k ) ~ _ _ _ O.<.2.0.y.T./.{.}.+X@X<X<X<X@X+X+X_._.^.^.Q.T.i.y.w.6.*.Q c x A ) +.+.@.*.*.*.| ( V 3 X . . . . . . . . . . . . . X ; l <.M.!.E.`.V.$.* . . . . o 0 k I Y _ @.=.&.Q B B * . :                                                                                                                                                                                                                                                                                                                                   ",
"                                                                                                                                                                                                                                                    . . . . . . . . . . . . . . . . . . . . . X O O O o o @ @ @ O O O O O . . . % { 8.9.r.T.{.}.).).(.~.^.).(.!.F.p.r.y.T.T.i.y.7.2.2.0.r.r.i.i.y.0.0.0.6.@.L z p + . . . . . . . . . . . . . . . . . . . . O @ ; : 3 t u u u u 0 0 0 0 q u e k k e q w w 8 w k L ! ~ ] @.@.O.<.2.y.T.]..X}.+X,X<X<X@X+X).~.~.~.~.R.T.i.u.e.@.+.( A c V Q ( +.*.*.8.8.&.( A t X X . . . . . . . . . . . . O > d O.s.!.E.`.V.&.% . . . X o > c +.@.6.6.=.) u : ; X . :                                                                                                                                                                                                                                                                                                                                   ",
"                                                                                                                                                                                                                                                        + . . . . . . . . . . . . . . . . . O O O O O O @ @ @ @ @ O O O O O . . + y W ! ` r.R.{.}.(.).).).}.).(.R.t.r.r.i.s.u.y.0.7.0.0.y.y.r.0.2.2.r.0.6._ a t * . . . . . . . . . . . . . . . . . . . . X o : y u k x V Q V V W W c c c L L ) ) ~ I P K v l l l d l Y O.@.O.O.<.1.r.i.R.{.+X,X<X,X+X).(.^.R.R.R.!.T.b.u.7._ ! Q v v c Q ~ ' *.=.8.=.| ) V 9 o X . . . . . . . . . . . . . = d O.s.!.E.E.V.:.9 . . . . X & c =.6.8.8.8.( q : * . X =                                                                                                                                                                                                                                                                                                                                   ",
"                                                                                                                                                                                                                                                            O O O . . . . . . . . . . . . . O O O O O + @ @ @ @ @ @ O O O O . . . o : u ) w.E.Q.(.}.,X,X,X+X}.(.^.R.i.t.t.p.u.y.0.7.0.0.r.r.r.r.0.0.r.7.#.! w % X . . . . . . . . . . . . . . . . . . . . X % u c v v Q ) ) ) ' ' ' ' ' ' ] ] *.6.7.7.e.e.7.@._ U P P Y T T ` #.<.@.@.<.0.i.Q.).+X+X).).(./.Q.R.!.T.T.b.u.9._ U v 8 0 k c ) ( *.*.8.8.&.) c : o X . . . . . . . . . . . . . o q ` i.!.E.E.`.l.f X . . . X $ v *.' ] +.*.) q ; o . X &                                                                                                                                                                                                                                                                                                                                   ",
"                                                                                                                                                                                                                                                              @ O . . . . . . . . . . . . . . O O + @ @ @ @       @ + O O O . . . . X % k *.y.y.5.!. X,X,X<X}.(.R.(./.F.5.2.p.y.0.7.7.0.r.r.r.p.r.r.p.7._ k $ . . . . . . . . . . . . . . . . . . . . . . o 8 k v L U ! _ ' ] +.+.@.@.@.@.<.6.6.0.y.u.u.u.u.i.u.r.2.2.,.O.T T T ` _ _ ` ` O.3.r.S.F.!./.^.Q.Q.!.T.T.i.i.7.@.U L e > 9 k L ! ~ ' *.*.*.' ^ z * + . . . . . . . . . . . . . . + e @.i.E.N.M.E.w.v $ + + O X X u c v L L L k 8 % o . X =                                                                                                                                                                                                                                                                                                                                   ",
"                                                                                                                                                                                                                                                              @ O . . . . . . . . . . . . . . O + @ @                   @ @ O . . . . . % z ~ T ,.F.(.+X,X<X+X(.R.(.}.^.a.,.r.y.0.7.7.0.r.r.r.i.y.r.r.7.~ q . . . . . . . . . . . . . . . . . . . . . . X & w l L U ! _ _ _ _ +.O.O.O.<.6.6.6.7.y.M.T.T.T.F.F.F.F.!.R.T.t.2.d.T T T _ _ U Y T T E E 3.p.S.T.T.T.T.b.i.r.7.` Y d 9 > 0 k Y Y _ ' *.*.' ( / p o . . . . . . . . . . . . . . . + q _ r.T.N.M.M.0.L = o + + X o 8 u e e k k e u t ; + X                                                                                                                                                                                                                                                                                                                                     ",
"                                                                                                                                                                                                                                                              @ . . . . . . . . . . . . . . . + @                           + . . . . . . X w P 1.i.(.}.,X<X+X).~.R.}.}.i.3.r.y.y.0.7.0.0.r.r.i.i.p.0.@.) 9 . . . . . . . . . . . . . . . . . . . X . . X 8 d l P _ _ _ _ _ _ O.O.O.O.<.7.2.2.7.y.M.Q.T.T.G.G.S.H.^.+X+X}.(.!.t.r.1._ U U Y T T R R R O.r.i.i.p.i.p.7.2.6.+.I 8 % : 0 f P U ! &.&.&.&.| { i + . . . . . . . . . . . . . . . + 0 L 7.T.T.M.M.u.] w X X O . X % = w w q z A x j 3 o o                                                                                                                                                                                                                                                                                                                                     ",
"                                                                                                                                                                                                                                                              O . . . . . . . . . . . . . O + o                               @ . . . . . . $ q ` 0.!.(.).}.+X+X).G.F.{.{.i.p.y.u.w.7.7.7.0.0.u.b.i.y.*.Q ; . . . . . . . . . . . . . . . . . . O O + X & q l L U _ _ _ _ T _ ` O.O.O.,.1.2.2.2.r.p.i.S.F.G.R.G.~._.+X<X<X<X+X).(.R.u.9.@.` T T T T T T O.7.r.p.y.r.7.1.9.=.Q & X o % & q L ( -.-.( ( ( S 3 X . . . . . . . . . . . . . . . + t Q 6.T.N.i.i.r.` a $ + O . . X $ = 8 q k z 9 % % o :                                                                                                                                                                                                                                                                                                                                     ",
"                                                                                                                                                                                                                                                              # . . . . . . . . . . . . . + o                                   + . . . . . . $ e Y a.F.J._.+X}.}.R.4.t./.T.i.i.u.7.1.1.2.0.0.u.i.y.=.' h X . . . . . . . . . . . . . . . . . X + o ; : q l I U _ _ _ _ T T T T T d.O.O.,.,.2.2.r.r.r.i.F.F.G.G.~.~.).+X<X<X<X<X,X,X}.].T.i.p.7.3.,.T T T T 1.r.y.u.y.1.1.*.c % X X X X ; h V [ [ B S V y o . . . . . . . . . . . . . . . . X t Q 0.M.M.r.a.a.@.v & % @ O + > 8 8 e c c q $ X o *                                                                                                                                                                                                                                                                                                                                       ",
"                                                                                                                                                                                                                                                              o . . . . . . . . . . . . + +                                       O . . O . X X & d O.s.H.J.}.+X}.(.5.5.T.T.T.b.r.1.1.1.1.7.0.y.0.6.I f ; . . . . . . . . . . . . . . . . . . O o : g V Q P ! _ _ ` ` ` ` T T ` O.O.O.d.d.d.,.2.2.2.r.t.F.F.F.G.~.~._.oX<X<X<X<X<X<X,X@X+X).(.Q.T.t.2.d.Y R ` 7.7.7.9.@.@.~ e X X X X X X o * i i ; : ; + . . . . . . . . . . . . . . . . . . ; Q 0.M.v.0.a.r.6.W = $ @ + * u z e L ) ( x & X o :                                                                                                                                                                                                                                                                                                                                       ",
"                                                                                                                                                                                                                                                              X . . . . . . . . . . . X +                                           O . O O O X $ q Y t.H.J._._.}.}.G.t.t.T.T.M.7.,.<.<.7.1.1.9.6.' f % X . . . . . . . . . . . . . . . . . . . o y S / ) ! _ ] ` ` ` O.O.` ` O.O.O.d.T T T T ,.3.2.a.p.t.t.S.S.S.G.~.+X<X<X<X<X<X<X<X<X<X<X<X,X}.(.Q.r.T T T O._ U Y Y ! L w $ X . . X . . . . . . . . . . . . . . . . . . . . . . . . . . . % Q 7.u.u.0.r.y.7.( 0 $ + @ : z v e v ) ) Q 9 o o 2                                                                                                                                                                                                                                                                                                                                       ",
"                                                                                                                                                                                                                                                              . . . . . . . . . . . X +                                             O O O + + + % 9 c y.G.R.~.~.(.(.R.F.S.T.T.i.r.,.O.1.9.<.@.] +.A ; X . . . . . . . . . . . . . . . . . . . . X : V ^ ) ] ` @.@.@.@.<.3.,.` ` O.O.T T T T d.,.,.2.r.i.i.S.S.S.G.~._.).+X<X<X<X<X<X1X2X1X1X<X<X+X}.{.T.r.,.` _ P l v v l q = $ X X . . . . . . . . . . . . . . . . . . . . . . . . . . . . . % v 6.i.u.y.i.u.w.*.z $ + @ t z e w e c Q Q 0 X X :                                                                                                                                                                                                                                                                                                                                       ",
"                                                                                                                                                                                                                                                                X . . . X X X . X X                                                     @ o O O o * 0 @.N.!.s.F.!.!.R.R.!.F.t.r.r.7.2.7.6.*.' Q c t X . . . . . . . . . . . . . . . . . . . . . . X 9 z ) ' ` @.6.6.6.9.1.3.@.@.O.O.T T T d.,.,.,.2.r.t.S.F.F.G.R.~.~._._.oX<X<X<X<X2X8X2X1X<X:X).).(.T.i.7.T Y d d l v v z 9 X X X . . . . . . . . . . . . . . . . . . . . . . . . . . . . . X w _ i.i.y.i.i.x.=.x $ . % u V l e q k Q c > X o t                                                                                                                                                                                                                                                                                                                                       ",
"                                                                                                                                                                                                                                                                  X X X X O + + o                                                         @ o O O o o 0 ) +.<.r.t.F.!.R.R.F.r.3.a.r.u.y.6.*.| c = X . . . . . . . . . . . . . . . . . . . . . . . . % = e l ! ' ' ] @.6.<.<.<.@.1.<.,.,.,.,.,.d.d.2.r.p.t.t.F.G.G.G.~._._.+X<X<X<X1X2X8X2X1X<X:XoX_.R.F.y.0.1.@._ ~ L c W V p % X X . . . . . . . . . . . . . . . . . . . . . . . . . . . . . X 8 Y r.u.7.r.r.v.8.v & . $ w c L L L c c k & o % t                                                                                                                                                                                                                                                                                                                                       ",
"                                                                                                                                                                                                                                                                      O @ o @                                                                 o @ * * $ % c ~ 6.u.F.!.!.!.F.r.3.a.y.M.v.*.) c 9 X . . . . . . . . . . . . . . . . . . . . . . . . . X X $ - w a a l L ! U ! +.+.+.O.6.1.2.1.,.,.3.5.p.p.p.t.S.F.G.H.J._.).+X<X<X<X1X1X1X1X<X<X<X:X).R.F.5.2.0.0.7.7.@.' ' W z t o X X . . . . . . . . . . . . . . . . . . . . . . . . . . . . X = P 2.w.7.y.r.y.8.L & X % w v L I Q Q A f $ o %                                                                                                                                                                                                                                                                                                                                         ",
"                                                                                                                                                                                                                                                                                                                                                    2 % : f d @.y.r.p.S.F.S.p.p.p.i.b.w.*.W = X . . . . . . . . . . . . . . X . . . . . . . . . . . . X X X $ $ & & 8 9 9 0 f k k k b I ~ ~ _ O.1.7.r.r.p.i.i.F.G.~.).}.+X:X<X<X2X2X2X2X1X1X<X<X:X).~.F.5.3.3.0.y.v.w.8.8.' c t X . . X . . . . . . . . . . . . . . . . . . . . . . . . . . . X & L @.6.7.b.b.v.8.c & X = u k L L Q Q ^ f % o %                                                                                                                                                                                                                                                                                                                                         ",
"                                                                                                                                                                                                                                                                                                                                                        3 g f I O.O.3.t.S.S.S.S.t.b.u.6.*.V % X . . . . . . . . . . . . . . . O O . . . . . . . . . . . X X X X + + + o o o o o % % % % % % & 8 w k v L I ~ O.<.u.]. X}.<X<X<X1X0X0X0X0X2X1X<X<X:X_.~.G.t.t.i.p.u.u.w.e.8.) k % X . . . . . . . . . . . . . . . . . . . . . . . . . . . . . . X % c +.*.q.v.b.z.*.z & $ = 0 u v L Q Q ) f % o &                                                                                                                                                                                                                                                                                                                                         ",
"                                                                                                                                                                                                                                                                                                                                                          y h 9 e Y ,.5.S.S.F.F.i.b.0._ | S % X . . . . . . . . . . . . . . O O + O O . . . . . . . . . X X X X X O O O X X X . X # X X . . . . . . X X X $ $ 7 e T 6.i.!.{././.|.3X7X0X6X6X<X,X}.).(.!.F.F.F.i.i.u.1.=.' d $ . . . . . . . . . . . . . . . . . O O . . . . . . . . . . . . . X o k Q ] 8.z.w.9.&.u % * o $ 9 k Q Q ) { x % % :                                                                                                                                                                                                                                                                                                                                         ",
"                                                                                                                                                                                                                                                                                                                                                              9 e ~ 1.5.t.t.F.i.r.7.] v Q z o . . . . . . . . . . . . . X O X O + O O . . . . . . . . . . . . X X . . . . X . . . . . . . . . . . . . . X . . X X $ 7 8 w q w d c ! #.u./..X.X.X.X(.Q.!.F.i.i.i.i.u.7.@.c 9 X . . . . . . . . . . . . . . . O O @ @ O O O o O O . . . . . . . X % : q I +.e.7.6.&.u & % X X 8 q v Q ( -.B % % :                                                                                                                                                                                                                                                                                                                                         ",
"                                                                                                                                                                                                                                                                                                                                                                u c ' 7.y.r.p.0._ I v 9 > % . . . . . . . . . . . . . . X O O O + + + O . . . . . . . . . . . X . X . . . . . . . . . . . . . . . . . . . . . X X X X % X X X o % & > 8 l U @.u.M.E.Q.T.T.i.i.t.p.y.e.*.L 9 o . . . . . . . . . . . . O O O O @             @ # X . . . . . . . + o & k ~ 9.7.*.) a & % X X = w l ) &.%.g . X :                                                                                                                                                                                                                                                                                                                                         ",
"                                                                                                                                                                                                                                                                                                                                                                  8 x +.7.6._ ! v k u % X . . . . . . . . . . . . . . . X X X O + + + O . . . . . . . . . . X X . X . . . . . . . . . . . . . . . . . . . . . X X o $ % o X o o o o % o X X - w e _ 0.b.M.b.i.u.r.y.7.=.V ; X . . . . . . . O + + + O o                       o O X . . . . . . X o : u Q *.6.+.L 8 % o X X = w k Q { %.y . X u                                                                                                                                                                                                                                                                                                                                         ",
"                                                                                                                                                                                                                                                                                                                                                                  & 9 k I ( v e w > & X X . . . . . . . . . . . . . . . . . X O O o + O . . . . . . . . . . . . . O X . O X . . . . . . . . . . . . . . X X X o * : t 9 ; * ; > % & % o X X X X $ & e P *.e.w.y.0.w.9.( V ; . . . . . X . . o                                 @ O O O . . . . . X @ t u ) =.*.) k = $ X X $ = w d L ) S 3 . X h V                                                                                                                                                                                                                                                                                                                                       ",
"                                                                                                                                                                                                                                                                                                                                                                    : % % > = % % % o + + + X . . . . . . . . . . . . . . . X X O o + + O . . . . . . . . X X . X O O O O . . . . . O . . . . . . X O o + + o % 9 p z z f f f k f k f 9 % X X . X . X $ 9 Q *.8.8.*.) c z % . . . . X X X                                     @ O O . . . . . . . O : z { :.&.) k % X X X % 8 k l v c z : . X ; u                                                                                                                                                                                                                                                                                                                                       ",
"                                                                                                                                                                                                                                                                                                                                                                      + + + + + + + + +             O O X . . . . X . . . . X X X O O o + . . . . . . . . . . X X O O O O O . . . O O O O O O O O o @ @ * * * 9 u z c Q Q Q Q Q Q Q Q z u ; % X . . . . X = u V ) Q V h 3 X . . . . . +                                       ; o O . . . . . . X O * z ( ' ) Q u $ X X o & u x v v c z % . X X =                                                                                                                                                                                                                                                                                                                                       ",
"                                                                                                                                                                                                                                                                                                                                                                        @ O O O + @                     o X X . . X . . . . . . . X X o o X . . . . . . . . . X X X O O O O . . O O O O O O + o @ @ 1 1 ; ; 9 u z L ! ' ' +.' ~ ' ' ) ) ) A h : o X . . . X X X X o * o . . . . . . . @                                       * o . . . . . . . X + % u V Q Q c 9 % X X % = k Q Q Q Q j X . X X %                                                                                                                                                                                                                                                                                                                                       ",
"                                                                                                                                                                                                                                                                                                                                                                          O . .                           # O X X X . . . . . . . X O o o O X . . . . . . . . X . O O O O O . . O O O o o @ @ * * 1 2 3 t 0 u z c ! _ @.@.+.] ] @.] _ ~ ) ) A z 3 * o + X X X X . . . . . . . . . . O                                         * o O . . . . . . X X X ; 0 u q 9 & % X X > 9 k ) ' ) ) f X . X o =                                                                                                                                                                                                                                                                                                                                       ",
"                                                                                                                                                                                                                                                                                                                                                                                                            @ O O X . . . . . . . X O o o o O . . . . . . . . . . . X O O O O O O O + o o * * ; : 3 y g f k c Q ! _ @.6.6.@.@.@.@.@.+.' ) ) ^ V h y t : * % o o . . . . . . . . . .                                             @ O . . . . . . X . o * ; ; & % % % X % 0 k v ) ' +.( f X . X 3                                                                                                                                                                                                                                                                                                                                         ",
"                                                                                                                                                                                                                                                                                                                                                                                                              @ @ X . . . . . . . X O o @ @ O . . . . . . . . . . X X X . O O O O # o o * * ; : : t f j x c Q ' +.@.9.0.0.6.1.<.@.*.@.+.( ) ^ A V Z h y : ; * o X . . . . . . . . O                                             o O . . . . . . . . o * * o o o % X % ; z c c ) +.*.$.f X . o                                                                                                                                                                                                                                                                                                                                           ",
"                                                                                                                                                                                                                                                                                                                                                                                                                @ o O O O . . . . X o @ * @ o . . . . . . . . . . O O O O O X X + o o o * * ; : t u f x A Q ' *.=.6.y.i.y.w.0.6.6.6.=.+.~ ) ) ) Q V z f y 3 ; @ O . . . . . . . .                                               @ O . . . . . . . X X @ o + . X X X o = u z c Q +.=.$.0 X . X                                                                                                                                                                                                                                                                                                                                           ",
"                                                                                                                                                                                                                                                                                                                                                                                                                  o O O O . . . . X o @ ; @ o . . . . . . . . . . O O O O O X X X + o % * ; : t u f x V Q ) +.6.w.v.M.M.M.y.0.1.1.6.6.@.~ ) ) ) Q V z u y i 2 @ O . . . . . . . X                                               ; o X . . . . . . X O O + O X X + X . X $ 9 z c ( &.( : X . o                                                                                                                                                                                                                                                                                                                                           ",
"                                                                                                                                                                                                                                                                                                                                                                                                                  o O O . . . . . . O @ * @ + . . . . . . . . . . O O O O O X X X o o * * ; : t f k v b ! +.=.w.B.N.N.M.b.w.1.6.7.7.7.*.' ) ~ ) Q W z u i i 1 @ . . . . . . . .                                                   @ + X . . . . X X O O O X X X X X . . . % 8 9 z V j % X X                                                                                                                                                                                                                                                                                                                                             ",
"                                                                                                                                                                                                                                                                                                                                                                                                                  @ . . . . . . . . X o @ o + . . . . . . . . . . . O O O O X X X o o % ; : t u z c b I ~ @.w.B.N.B.M.v.u.0.6.e.z.z.q.=.*.' ( ) ) Q x h g 3 < O . . . . . . . X                                                   * o X . X X X X O O O O O X X X . . . . X o X % % % X X $                                                                                                                                                                                                                                                                                                                                             ",
"                                                                                                                                                                                                                                                                                                                                                                                                                  @ O . . . . . . . X + o o + X . . . . . . . . . . X O O O X X O o @ * : t f f x A ) ~ +.6.w.v.v.n.M.v.w.0.0.e.z.z.q.=.@.' ' ( ) W z h g 2 @ O . . . . . . .                                                       @ X X X X X X X O O O . X . X . . . . + o + + X X X X                                                                                                                                                                                                                                                                                                                                               ",
"                                                                                                                                                                                                                                                                                                                                                                                                                  @ O . . . . . . . . X O + + X . . . . . . . . . . X O O O X X + o * : y g z z c Q ~ _ O.1.0.w.w.v.y.w.0.7.e.q.z.q.8.=.*.' ( ) Q V x h y * + . . . . . . .                                                           + X X X X X X X X X . . . X X X X X o o o o + X X %                                                                                                                                                                                                                                                                                                                                               ",
"                                                                                                                                                                                                                                                                                                                                                                                                                  @ + . . . . . . . . . X + X X . . . . . . . X X X X O O O O X + o * : u h x c Q ~ _ _ _ 1.7.6.9.w.e.0.7.7.q.z.z.q.6.*.&.' ( ) Q V B h 0 % X . . . . . . X                                                               @ O O O O X X X . . . X % : u u u : : * * o %                                                                                                                                                                                                                                                                                                                                                 ",
"                                                                                                                                                                                                                                                                                                                                                                                                                  @ O . . . . . . . . . . X O X . . . . . . . X X X X . . O O X o o * 3 u k c Q Q ~ @.@.<.6.0.6.<.7.7.e.6.6.8.8.q.8.=.*.*.&.' ) ) ^ V u % X . . . . . X o                                                                       @ @ + . . . X X & u c ) ~ V z u t % $                                                                                                                                                                                                                                                                                                                                                   ",
"                                                                                                                                                                                                                                                                                                                                                                                                                  @ X . . . . . . . . . . O O X . . . . . . . X . . . . . X X X o * : u z z c I ! +.6.q.w.y.y.7.9.6.1.@.@._ _ +.@.+.' ~ ) Q ) Q V c z 0 o X . . . . + *                                                                             @ X . . O % 0 c Q +.+.' c > * o X                                                                                                                                                                                                                                                                                                                                                   ",
"                                                                                                                                                                                                                                                                                                                                                                                                                  o X . . . . . . . . . . X X O . . . . . . . . . X . . . . X + o * t h z c W Q ~ =.q.v.b.v.u.u.w.0.6.#.@._ ] _ ~ ! L c c c L V V V j : X . . . . X ;                                                                                 O . . o ; f I +.=.@.=.c $ X X o                                                                                                                                                                                                                                                                                                                                                   ",
"                                                                                                                                                                                                                                                                                                                                                                                                                  o X . . . . . . . . . . X O O . . . . . . . . . . . . . X X o * * t p z c Q ) +.7.v.B.M.b.b.N.M.b.v.w.e.7.7.=.*.) L v c c l c V V g ; X . . . . X                                                                                   O . O * t k +.6.0.=.;.Q & $ o %                                                                                                                                                                                                                                                                                                                                                   ",
"                                                                                                                                                                                                                                                                                                                                                                                                                    + X . . . . . . . . . . O O . . . . . . . . . . . . . X O o * = t h z v L ! ] 9.y.v.v.u.M.N.N.N.N.b.v.w.q.8.8.*.' Q W c z z z h : % X . . . . o                                                                                   . . @ 3 f b O.1.0.6.6.( k > $ =                                                                                                                                                                                                                                                                                                                                                   ",
"                                                                                                                                                                                                                                                                                                                                                                                                                    o X . . . . . . . . . . O O . . . . . . . . . . . . X O O o * ; t z v v L U _ #.7.y.0.0.u.b.E.W.E.N.v.w.6.*.*.*.&.| ) ) Q V x u : % X . . . X                                                                                   @ . . * u z I O.1.0.w.=.*.( V 9 9                                                                                                                                                                                                                                                                                                                                                   ",
"                                                                                                                                                                                                                                                                                                                                                                                                                      O X . . . . . . . . . . . . . . . . . . . . . . . O O O o @ ; t z c v P ! _ ` 1.7.2.7.0.y.b.N.`.E.b.v.8.8.*.*.| ( ( ) ^ A x u : % X . . X %                                                                                   + . . % u l Y O.0.i.7._ ] &./ p t                                                                                                                                                                                                                                                                                                                                                   ",
"                                                                                                                                                                                                                                                                                                                                                                                                                      @ O X . . . . . . . . . . . . . . . . . . . . . . . O O o @ * t z v L U _ _ ` ,.<.O.,.,.,.1.0.b.b.v.q.6.*.*.| ! Q W V c V z f : o X . . %                                                                                     X . . % q l U 6.M.T.2.T _ &.) u t                                                                                                                                                                                                                                                                                                                                                   ",
"                                                                                                                                                                                                                                                                                                                                                                                                                        @ + X . . . . . . . . . . . . . . . . . . . . . . O + o * ; u z L U _ ` @.<.,.O.T T T T ,.0.v.v.0.6.6.*.' ' ! Q W V V A B u : o X X X *                                                                                   @ . . . % w d U y.W.Q.y.T _ ! c t t                                                                                                                                                                                                                                                                                                                                                   ",
"                                                                                                                                                                                                                                                                                                                                                                                                                          @ + O . . . . . . . . . . . . . . . . . . . . O O o * ; 9 k c I _ @.<.0.y.r.2.1.O.T d.,.1.y.0.@.@.*.*.' ' ! Q Q Q A ^ A h : o X X o                                                                                     + . . . % q l T u.E.Q.u.1._ v e 8 t                                                                                                                                                                                                                                                                                                                                                   ",
"                                                                                                                                                                                                                                                                                                                                                                                                                            @ + O . . . . . . . . . . . . . . . . . . . O O @ ; : u z Q ~ @.<.1.y.E.W.E.M.r.,.T T <.7.#._ ! ' _ U P K L c c c A V z : o . . X                                                                                     + . . . % q l T y.M.E.u.7.@.Q a = 9                                                                                                                                                                                                                                                                                                                                                   ",
"                                                                                                                                                                                                                                                                                                                                                                                                                              @ O . . . . . . . . . . . . . . . . . . . O O @ 1 y z V Q ' *.7.u.M.W.{.].Q.b.u.2.,.2.7.<.` ! ~ ~ Y K l L c c x z z t % X X .                                                                                     * O . . . % q v _ r.i.T.M.w.8.&.V = =                                                                                                                                                                                                                                                                                                                                                   ",
"                                                                                                                                                                                                                                                                                                                                                                                                                                + X . . . . . . . . . . . . . . . . . . O O @ 2 i x W ) ' =.w.M.N.Q.{.].Q.Q.T.T.T.T.T.b.y.6.*.] Y P K v l k f u 9 o X + o o                                                                                     @ . . . . % u v _ 0.i.u.b.e.*.:.[ : =                                                                                                                                                                                                                                                                                                                                                   ",
"                                                                                                                                                                                                                                                                                                                                                                                                                                  O O . . . . . . . . . . . . . . . . . O + @ : y x W Q ' 6.y.b.E.E.Q.(.(.{.Q.Q.(.{.].Q.b.w.7.@.! U L v k u q 0 ; o X o * :                                                                                     @ . . . . $ 0 e ! @.9.<.<.] W Q V : =                                                                                                                                                                                                                                                                                                                                                   ",
"                                                                                                                                                                                                                                                                                                                                                                                                                                    O O . . . . . . . . . . . . . . . . X + @ : u z L I U @.0.u.M.T.Q.{.{.{.{.{.{.{..X{.'.b.w.6.@.] ~ Q c z q > % o o * *                                                                                       @ . . . . X X $ 8 e e d e w & - % % %                                                                                                                                                                                                                                                                                                                                                   ",
"                                                                                                                                                                                                                                                                                                                                                                                                                                      O O . . . . . . . . . . . . . . . X O @ : 0 k L I ! O.7.u.s.T./.{.}.}.}.}.}.}.}.}.{.Q.M.e.=.+.( ) Q B t * o o o % ;                                                                                       + . . . . . . . $ 9 u 9 = & & $ $ $                                                                                                                                                                                                                                                                                                                                                     ",
"                                                                                                                                                                                                                                                                                                                                                                                                                                        + + O . . . . . . . . . . . . . . + @ : 0 k v ! ` <.0.i.M.T.Q.(.{.{.}.}.}.+X}.}.{.].N.w.6.+.) Q V z 9 * o o o ; :                                                                                       . . . . . . . X % 9 y t = t z u                                                                                                                                                                                                                                                                                                                                                         ",
"                                                                                                                                                                                                                                                                                                                                                                                                                                          @ o . . . . . . . . . . . . . . O * : u k v ! +.6.0.i.M.T.!.Q.{.{.}.}.}.}.}.}.|.|.`.v.8.*.( ^ c u : % o + o ;                                                                                         . . . . . . . . X X & & & t B                                                                                                                                                                                                                                                                                                                                                           ",
"                                                                                                                                                                                                                                                                                                                                                                                                                                            * O . . . . . . . . . . . . . X * 3 u k v I _ @.7.0.u.b.T.Q.(.{..X.X.X}.{.{.{.'.E.n.q.=.&.) z 9 % X X X o :                                                                                         . . . . . + * ; 9 u u z V V                                                                                                                                                                                                                                                                                                                                                             ",
"                                                                                                                                                                                                                                                                                                                                                                                                                                              o X . . . . . . . . . . . . X @ : u k l I ! @.6.7.y.y.i.T.T.Q.{.{..X(.Q.!.T.b.v.z.=.' Q V u * o X X + o                                                                                           . . . . X g S ^ ) ( ( | |                                                                                                                                                                                                                                                                                                                                                               ",
"                                                                                                                                                                                                                                                                                                                                                                                                                                              @ o X . . . . . . . . . . . . o : u z c I ~ +.#.<.1.7.0.b.M.M.T.E.'.Q.M.i.u.y.w.=.' Q z u ; o X . X + @                                                                                           . . . . % B $.( ( ~ ) '                                                                                                                                                                                                                                                                                                                                                                 ",
"                                                                                                                                                                                                                                                                                                                                                                                                                                                @ X . . . . . . . . . . . . o ; u k c c I _ T T T ` <.0.y.y.y.y.y.y.r.7.7.6.8.*.) V z : % X . . . #                                                                                             . . . . % x ( ' ~ ! ! '                                                                                                                                                                                                                                                                                                                                                                 ",
"                                                                                                                                                                                                                                                                                                                                                                                                                                                @ O . . . . . . . . . . . . X % 9 q q e d K P Y U _ @._ _ _ T U T U Y T Y P ! L v k 0 * X . . X o ;                                                                                             . . . . % V -.' ) ) )                                                                                                                                                                                                                                                                                                                                                                   ",
"                                                                                                                                                                                                                                                                                                                                                                                                                                                1 @ . . . . . . . . . . . X % & 9 q q q r d K J K ! _ P J P _ <.` T R R J r r w 7 & $ X . . . O @ @                                                                                             . . . . X u S Q Q Q Q                                                                                                                                                                                                                                                                                                                                                                   ",
"                                                                                                                                                                                                                                                                                                                                                                                                                                                2 @ . . . . . . . . . . . X % > 0 q d q w l Y K l Y P r J ` M.[.|.{.Q.u.T P U Y l q 8 = % . . . O @ 2                                                                                           . . . . X X % 0 z V                                                                                                                                                                                                                                                                                                                                                                     ",
"                                                                                                                                                                                                                                                                                                                                                                                                                                                1 @ . . . . . . . . . X X X X = w d l c U *.6.@.6.6.<.,.u.|.7X9X9X9X9X7X|.].|.].B.q.| V u = % + + @ 2 i y 3                                                                                     . . . . . X X $ > j                                                                                                                                                                                                                                                                                                                                                                     ",
"                                                                                                                                                                                                                                                                                                                                                                                                                                                * + . . . . . . . X o o % % = 8 q l L U _ @.O.<.0.B.]. X5X7X9X9XCXCXCX9X5X|.{.].N.z.*.^ p * % o . . @ : : * : 3 y g m                                                                           . . . . . . X X =                                                                                                                                                                                                                                                                                                                                                                       ",
"                                                                                                                                                                                                                                                                                                                                                                                                                                                @ . . . . . . . O o * ; 9 0 q q e K ! _ ` 7.b.W.].|.5X7X0X0X8X9X9X9X9X0X5X X{.T.9.@.Q z : X X . . . . o : : ; % * ; 1 1 1 1 1 ; * *                                                             . . . . . . X %                                                                                                                                                                                                                                                                                                                                                                         ",
"                                                                                                                                                                                                                                                                                                                                                                                                                                                @ . . . . . . . X o % ; 0 u k d d K _ O.1.i.{.5X7X7X8X8X0X0X6X6X6X6X7X7X,X}.Q.7.T P k 8 X . . . . . . . % & $ $ X X X X X X X X X X : f h D [                                                   + . X + o * =                                                                                                                                                                                                                                                                                                                                                                           ",
"                                                                                                                                                                                                                                                                                                                                                                                                                                                @ . . . . . . . X o * 9 q k v K K P T O.0.i..X7X6X6X6X6X6X<X6X6X,X,X,X X.XW.u.6.] ~ Q q $ X X X % ; 9 u c l e d k q u k k k u 0 0 & & f S [ %.[ S M                                               * * o % :                                                                                                                                                                                                                                                                                                                                                                             ",
"                                                                                                                                                                                                                                                                                                                                                                                                                                              @ + . . . . . . . X o ; u k c c K U T T ,.2.F.,X8X0X6X,X,X,X,X,X6X,X.X!.E.N.y._ U P L k 7 & 8 u A $.8.z.v.v.M.M.v.B.B.n.n.n.n.x.x.8.! e z x Z h g y ; : y                                             2 o % t                                                                                                                                                                                                                                                                                                                                                                             ",
"                                                                                                                                                                                                                                                                                                                                                                                                                                              * + . . . . . . . X o : j c b L P U T T ,.2.!.,X0X6X6X,X}.}.{.(.{.Q.y.,.` _ v w & 7 w d d K ' 8.x.M.E.].{.{..X(.Q.{.|.|.].'.`.`.N.b.u.6.' c e & $ X X X = y                                             o %                                                                                                                                                                                                                                                                                                                                                                               ",
"                                                                                                                                                                                                                                                                                                                                                                                                                                              * + . . . . . . . X o 9 x A Q ! _ _ ` ` ,.3.t.R.~.(.{././.T.5.2.d.T Y d r q 8 8 8 e L _ @.7.v.M.T.!.Q.(.(.}.+X@X,X,X X}..X|..X.X{.{./.E.B.z.8.~ L e 8 = $ 9 z                                                                                                                                                                                                                                                                                                                                                                                                                             ",
"                                                                                                                                                                                                                                                                                                                                                                                                                                              @ X . . . . . . . X o 0 x V Q ~ _ @.O.` O.,.2.t.t.F.F.s.u.2.T Y Y Y P l d q 9 d I ' 6.w.y.b.W.T.Q.}.+X<X,X,X0X8X8X0X6X6X6X7X7X5X7X0X7X5X%X%X[.`.V.v.6.] v k V D                                                                                                                                                                                                                                                                                                                                                                                                                           ",
"                                                                                                                                                                                                                                                                                                                                                                                                                                              @ . . . . . . . . X % 0 z c Q ! U _ O._ _ O.,.2.0.a.2.6.@.U l v Q ) c d k k L ' *.8.z.v.b.E.{.{. X6X6X6X6X0X8X9X9X8X8X8X8X8X0X6X0X0X6X6X5X5X3X%X|.[.E.w.] L e h h                                                                                                                                                                                                                                                                                                                                                                                                                         ",
"                                                                                                                                                                                                                                                                                                                                                                                                                                              1 X . . . . . . . . % 0 k c L I ~ _ _ T U _ U Y Y P P K d w & w 0 > = 7 q L +.=.7.e.y.b.T.Q.(.;X0X8X9X9X9X9XsX9X9X9X9X8X9X8X8X8X8X0X6X6X7X5X5X5X X{.F.0._ L e > : y                                                                                                                                                                                                                                                                                                                                                                                                                       ",
"                                                                                                                                                                                                                                                                                                                                                                                                                                            1 @ . . . . . . . X X % 0 k c I ! +._ _ _ ~ U K d w 7 & - $ $ X X $ $ 9 l I ' *.@.6.w.w.i.T.T.Q. X6X9X9X9X9X9X9X9XsXsX9X9X9X9X9X9X9X9X8X8X0X7X,X X}.{.Q.T.b.z.( u = :                                                                                                                                                                                                                                                                                                                                                                                                                       ",
"                                                                                                                                                                                                                                                                                                                                                                                                                                            @ . . . . . . . . X o : 0 k c I U _ _ U _ ! I k q 9 $ X . . . X & 0 c ! ' @.@.1.6.0.u.u.M.T.R.(.}. X5X7X0X8X9X9X9XsXsXsX9X9X9X9X9X9X9X8X9X8X8X0X5X X.X.X].E.n.8.( B 3 y                                                                                                                                                                                                                                                                                                                                                                                                                     ",
"                                                                                                                                                                                                                                                                                                                                                                                                                                            @ . . . . . . . X X % 0 q x Q U U T T U ! ~ ) c u ; o X . . % : x Q &.=.8.7.6.6.7.u.M.N.M.T.!.Q.Q.(.}. X;X5X7X0X0X9X8X8X8X8X8X8X8X9X9X9X9X9X8X0X7X,X|..X'.E.z.| ^ h 3 i                                                                                                                                                                                                                                                                                                                                                                                                                     ",
"                                                                                                                                                                                                                                                                                                                                                                                                                                            @ . . . . . . . X X ; t k c Q ~ _ O.O.O._ _ ~ L w & $ $ & : u V &.=.8.8.e.w.0.7.y.u.M.M.T.T.T.T.F.F.F.F.F.!.R.(.{.).).).}. X X X3X5X7X7X7X5X5X%X X{.].'.`.`.v.=.} p % * 3                                                                                                                                                                                                                                                                                                                                                                                                                   ",
"                                                                                                                                                                                                                                                                                                                                                                                                                                          @ O . . . . . . . X o : u k Q ! _ ` 1.w.6.@.@.+.! l q = & > q c ) 8.q.z.z.y.y.w.y.M.N.N.T.T.R.R.T.F.t.5.5.5.t.t.F.!.Q.Q.!.Q.E.E.M.M.M.b.b.T.E.E.E.E.E.E.N.b.n.n.z.:.S ; + @                                                                                                                                                                                                                                                                                                                                                                                                                   ",
"                                                                                                                                                                                                                                                                                                                                                                                                                                          + . . . . . . . . X % 9 f x Q _ @.6.w.M.v.6.@.@.@.' Q e w k c ! +.8.e.e.y.u.y.i.M.E.W.E.E.!.Q.Q.R.R.R.!.F.!.R.!.T.!.Q.E.E.E.b.0.<.O.O.` O.7.w.w.y.v.v.z.7.6.=.8.l.k.[ * . o 1                                                                                                                                                                                                                                                                                                                                                                                                                 ",
"                                                                                                                                                                                                                                                                                                                                                                                                                                          @ . . . . . . . . o % 0 f k L ' 6.7.y.M.b.7.<.7.7.@.' I v Q ~ +.6.e.y.w.w.y.y.u.M.T.Q.].{.{.{.{.(.(.(.(.{.}.}.{.{..X].E.u.<.U P K l d d l P U _ ] *.6.*.+.' ~ ) | %.B o . + *                                                                                                                                                                                                                                                                                                                                                                                                                 ",
"                                                                                                                                                                                                                                                                                                                                                                                                                                          @ . . . . . . . X o ; 0 f k L ~ *.6.r.u.u.,.O.6.6.=.@.' ' +.*.6.w.v.v.u.y.u.i.i.T.Q.Q.{..X}. X X X}.}. X X X X X{.T.y.8.*.U l d q w 8 8 8 w w w w k c V W Q W c V B g X . + 2                                                                                                                                                                                                                                                                                                                                                                                                                 ",
"                                                                                                                                                                                                                                                                                                                                                                                                                                          @ O . . . . . . X o ; 0 f v I ! +.1.0.0.6.` T _ ` @.*.@.@.6.w.w.v.u.u.u.u.i.i.s.Q.]./.{..X.X X X X X X X;X X X|.E.7.@.) Q l q 0 0 0 9 9 9 9 9 9 0 u z z p u f f h g : . . + 1                                                                                                                                                                                                                                                                                                                                                                                                                 ",
"                                                                                                                                                                                                                                                                                                                                                                                                                                          + . . . . . . . X o : 0 0 k b I ( @.@.<.O._ _ U U _ 6.7.7.e.y.u.y.y.r.p.y.i.i.i.R./.Q.(..X.X}.}.}..X|.|.|.[.E.w.@.L e w 9 8 = > : 9 t t : 9 9 : : 9 y t 9 9 : 3 : * + . . X *                                                                                                                                                                                                                                                                                                                                                                                                                 ",
"                                                                                                                                                                                                                                                                                                                                                                                                                                        @ O . . . . . . . X % : 0 q k c I ~ ' ' _ _ _ U U ! ] 7.w.y.u.u.u.u.u.y.i.i.i.i.s.F.!.!.Q./.{.{.].].].W.E.N.v.@.l e 8 $ $ $ $ % % % ; : : : t : : * * * * * * * 2 ; o + . . . @                                                                                                                                                                                                                                                                                                                                                                                                                 ",
"                                                                                                                                                                                                                                                                                                                                                                                                                                        + + . . . . . . . # ; : u f x x c Q Q ! ! ~ ~ ! I ! @.7.u.v.M.T.M.M.T.T.M.M.E.W.'.].].].].].].'.E.v.u.w.z.q.*.I q 9 % X X X X o X X o % % * ; * * @ o o o @ * ; ; @ + O O . .                                                                                                                                                                                                                                                                                                                                                                                                                   ",
"                                                                                                                                                                                                                                                                                                                                                                                                                                        + + X . . . . . . O ; 3 t y f u f z z x V ^ ^ V z Q ' 6.y.b.M.E.E.E.E.E.b.u.b.M.N.N.`.`.`.E.B.B.n.n.z.x.z.&.Q z u t * * * * * * * * ; ; ; ; ; ; ; * @ o @ @ * * * @ @ O O O @                                                                                                                                                                                                                                                                                                                                                                                                                   ",
"                                                                                                                                                                                                                                                                                                                                                                                                                                        @ + O . . . . . . . X % % o % X % > : : t y p u u z Q ' 6.7.w.u.u.y.y.w.e.6.6.@.O._ _ Y P J e e e k l c c u ; % o X X + * o @ * ; ; ; 2 3 4 4 4 3 1 @ + O O O O O O O O @ @                                                                                                                                                                                                                                                                                                                                                                                                                     ",
"                                                                                                                                                                                                                                                                                                                                                                                                                                        @ @ O . . . . . . . . . . . . . . . . X . . X o * : f W ( ) ] @.*.' ' ) ) ) ) ( ' ( ( Q k 8 & - - = = & % % o X X X X O X X X X X O + + + + o o + X X . . . . . . . . . O @                                                                                                                                                                                                                                                                                                                                                                                                                     ",
"                                                                                                                                                                                                                                                                                                                                                                                                                                          @ O O . . . . . . . . . . . . . . . . . . . . . . $ % 9 9 8 8 8 > 8 8 > > > 9 t t y 3 * $ X X X $ $ o o X X X . . X . . . . . . . O . . . . . . . . . . . . . . . . O @                                                                                                                                                                                                                                                                                                                                                                                                                       ",
"                                                                                                                                                                                                                                                                                                                                                                                                                                          @ @ O . . . . . . . . . . . . . . . . . . . . . . . . X . . . . . . . . . . . . . . . . . . . . . . . . . . . . . . . . . . . . . . . . . . . . . . . . . . . . . . @ @                                                                                                                                                                                                                                                                                                                                                                                                                       ",
"                                                                                                                                                                                                                                                                                                                                                                                                                                            @ O O O . . . . . . . . . . . . . . . . . . . . . . . . . . . . . . . . . . . . . . . . . . . . . . . . . . . . . . . . . . . . . . . . . . . . . . . . . . . . . O                                                                                                                                                                                                                                                                                                                                                                                                                         ",
"                                                                                                                                                                                                                                                                                                                                                                                                                                              @ @ O . . . . . . . . . . . . . . . . . . . . . . . . . . . . . . . . . . . . . . . . . . . . . . . . . . . . . . . . . . . . . . . . . . . . . . . . . . . . . o                                                                                                                                                                                                                                                                                                                                                                                                                         ",
"                                                                                                                                                                                                                                                                                                                                                                                                                                                @ @ O . . . . . . . . . . . . . . . . . . . . . . . . . . . . . . . . . . . . . . . . . . . . . . . . . . . . . . . . . . . . . . . . . . . . . . . . . X O #                                                                                                                                                                                                                                                                                                                                                                                                                           ",
"                                                                                                                                                                                                                                                                                                                                                                                                                                                  @ + O X . . . . . . . . . . . . . . . . . . . . . . . . . . . . . . . . . . . . . . . . . . . . . . . . . . . . . . . . . . . . . . . . . . . . . . X O *                                                                                                                                                                                                                                                                                                                                                                                                                             ",
"                                                                                                                                                                                                                                                                                                                                                                                                                                                    # X X X . . . . . . . . . . . . . . . . . . . . . . . . . . . . . . . . . . . . . . . . . . . . . . . . . . . . . . . . . . . . . . . . . . . . . X +                                                                                                                                                                                                                                                                                                                                                                                                                               ",
"                                                                                                                                                                                                                                                                                                                                                                                                                                                        X X X X X X X . . . . . . . . . . . . . . . . . . . . . . . . . . . . . . . . . . . . . . . . . . . . . . . . . . . . . . . . . . . . . . . . X                                                                                                                                                                                                                                                                                                                                                                                                                                 ",
"                                                                                                                                                                                                                                                                                                                                                                                                                                                                                                                                  o + + + X X X X X X X X + O X . . . . X X X X X . X X . . . . .                                                                                                                                                                                                                                                                                                                                                                                                                                       ",
"                                                                                                                                                                                                                                                                                                                                                                                                                                                                                                                                                                                                                                                                                                                                                                                                                                                                                                                                                                                                                                        ",
"                                                                                                                                                                                                                                                                                                                                                                                                                                                                                                                                                                                                                                                                                                                                                                                                                                                                                                                                                                                                                                        ",
"                                                                                                                                                                                                                                                                                                                                                                                                                                                                                                                                                                                                                                                                                                                                                                                                                                                                                                                                                                                                                                        ",
"                                                                                                                                                                                                                                                                                                                                                                                                                                                                                                                                                                                                                                                                                                                                                                                                                                                                                                                                                                                                                                        ",
"                                                                                                                                                                                                                                                                                                                                                                                                                                                                                                                                                                                                                                                                                                                                                                                                                                                                                                                                                                                                                                        ",
"                                                                                                                                                                                                                                                                                                                                                                                                                                                                                                                                                                                                                                                                                                                                                                                                                                                                                                                                                                                                                                        ",
"                                                                                                                                                                                                                                                                                                                                                                                                                                                                                                                                                                                                                                                                                                                                                                                                                                                                                                                                                                                                                                        ",
"                                                                                                                                                                                                                                                                                                                                                                                                                                                                                                                                                                                                                                                                                                                                                                                                                                                                                                                                                                                                                                        ",
"                                                                                                                                                                                                                                                                                                                                                                                                                                                                                                                                                                                                                                                                                                                                                                                                                                                                                                                                                                                                                                        ",
"                                                                                                                                                                                                                                                                                                                                                                                                                                                                                                                                                                                                                                                                                                                                                                                                                                                                                                                                                                                                                                        ",
"                                                                                                                                                                                                                                                                                                                                                                                                                                                                                                                                                                                                                                                                                                                                                                                                                                                                                                                                                                                                                                        ",
"                                                                                                                                                                                                                                                                                                                                                                                                                                                                                                                                                                                                                                                                                                                                                                                                                                                                                                                                                                                                                                        ",
"                                                                                                                                                                                                                                                                                                                                                                                                                                                                                                                                                                                                                                                                                                                                                                                                                                                                                                                                                                                                                                        ",
"                                                                                                                                                                                                                                                                                                                                                                                                                                                                                                                                                                                                                                                                                                                                                                                                                                                                                                                                                                                                                                        ",
"                                                                                                                                                                                                                                                                                                                                                                                                                                                                                                                                                                                                                                                                                                                                                                                                                                                                                                                                                                                                                                        ",
"                                                                                                                                                                                                                                                                                                                                                                                                                                                                                                                                                                                                                                                                                                                                                                                                                                                                                                                                                                                                                                        ",
"                                                                                                                                                                                                                                                                                                                                                                                                                                                                                                                                                                                                                                                                                                                                                                                                                                                                                                                                                                                                                                        ",
"                                                                                                                                                                                                                                                                                                                                                                                                                                                                                                                                                                                                                                                                                                                                                                                                                                                                                                                                                                                                                                        ",
"                                                                                                                                                                                                                                                                                                                                                                                                                                                                                                                                                                                                                                                                                                                                                                                                                                                                                                                                                                                                                                        ",
"                                                                                                                                                                                                                                                                                                                                                                                                                                                                                                                                                                                                                                                                                                                                                                                                                                                                                                                                                                                                                                        ",
"                                                                                                                                                                                                                                                                                                                                                                                                                                                                                                                                                                                                                                                                                                                                                                                                                                                                                                                                                                                                                                        ",
"                                                                                                                                                                                                                                                                                                                                                                                                                                                                                                                                                                                                                                                                                                                                                                                                                                                                                                                                                                                                                                        ",
"                                                                                                                                                                                                                                                                                                                                                                                                                                                                                                                                                                                                                                                                                                                                                                                                                                                                                                                                                                                                                                        "
};
