/* XPM */
static char *ba14c90dbe5b44fdc2de5a337b460ede4WB6eY2DL0OPVZ1I[] = {
/* columns rows colors chars-per-pixel */
"500 500 256 2 ",
"   c None",
".  c #030202",
"X  c #0A0503",
"o  c #0C0906",
"O  c #060608",
"+  c #090708",
"@  c #070809",
"#  c #0B0A0A",
"$  c #070807",
"%  c #120602",
"&  c #130A05",
"*  c #1B0C05",
"=  c #130D0A",
"-  c #1A0E0A",
";  c #190602",
":  c #15110D",
">  c #1B130C",
",  c #1C1207",
"<  c #0E0E11",
"1  c #130E11",
"2  c #141312",
"3  c #1B1513",
"4  c #1D1915",
"5  c #1D1B1A",
"6  c #191718",
"7  c #0E1111",
"8  c #230D04",
"9  c #231206",
"0  c #23150B",
"q  c #24190D",
"w  c #2B1B0C",
"e  c #2B1508",
"r  c #331C0C",
"t  c #371907",
"y  c #231B14",
"u  c #2B1D13",
"i  c #231D1B",
"p  c #261914",
"a  c #331C15",
"s  c #330C0A",
"d  c #39220D",
"f  c #2C2115",
"g  c #25211C",
"h  c #2B231C",
"j  c #2C261C",
"k  c #332314",
"l  c #3A2514",
"z  c #33251B",
"x  c #34291D",
"c  c #3B2B1C",
"v  c #3B2817",
"b  c #362917",
"n  c #311B25",
"m  c #252321",
"M  c #2C2522",
"N  c #2E2923",
"B  c #2E2B29",
"V  c #342B23",
"C  c #3A2D23",
"Z  c #342D29",
"A  c #352925",
"S  c #3D3125",
"D  c #3C332B",
"F  c #37312A",
"G  c #3D3631",
"H  c #47270B",
"J  c #422D1C",
"K  c #452B15",
"L  c #44311D",
"P  c #4B331C",
"I  c #4B3216",
"U  c #56381A",
"Y  c #562E0F",
"T  c #663A17",
"R  c #432C23",
"E  c #433324",
"W  c #4A3523",
"Q  c #4C3925",
"!  c #43352A",
"~  c #45392C",
"^  c #4C3B2C",
"/  c #493728",
"(  c #533C24",
")  c #523E2B",
"_  c #593D24",
"`  c #443B32",
"'  c #4B3E32",
"]  c #453935",
"[  c #543C33",
"{  c #522831",
"}  c #6C3430",
"|  c #491B1B",
" . c #68451C",
".. c #76491A",
"X. c #5C4225",
"o. c #55412D",
"O. c #5B442C",
"+. c #5A452A",
"@. c #4D4134",
"#. c #4C433A",
"$. c #544333",
"%. c #5A4632",
"&. c #5D4934",
"*. c #53453A",
"=. c #5C4B3B",
"-. c #56493A",
";. c #524532",
":. c #62462B",
">. c #644A2D",
",. c #6B4C2C",
"<. c #674625",
"1. c #744C28",
"2. c #74532D",
"3. c #7B552B",
"4. c #644C33",
"5. c #6A4E33",
"6. c #624E3B",
"7. c #664A36",
"8. c #6C5234",
"9. c #65513C",
"0. c #6B543B",
"q. c #6A553A",
"w. c #735534",
"e. c #7B5B34",
"r. c #72563A",
"t. c #745A3C",
"y. c #7B5C3B",
"u. c #785735",
"i. c #704F30",
"p. c #7D613C",
"a. c #5C411E",
"s. c #572B4A",
"d. c #6D354B",
"f. c #74386D",
"g. c #551D4B",
"h. c #594C42",
"j. c #5C5043",
"k. c #645342",
"l. c #6A5642",
"z. c #6D5A44",
"x. c #69594A",
"c. c #735C43",
"v. c #775E45",
"b. c #714B4D",
"n. c #7C6244",
"m. c #7C644B",
"M. c #76634A",
"N. c #7B6753",
"B. c #6E614D",
"V. c #7B4671",
"C. c #85592A",
"Z. c #835C33",
"A. c #855C37",
"S. c #91552F",
"D. c #83633C",
"F. c #8A643B",
"G. c #896639",
"H. c #966939",
"J. c #966831",
"K. c #A66A38",
"L. c #A9743A",
"P. c #B37237",
"I. c #8E541E",
"U. c #893B57",
"Y. c #8D4E4F",
"T. c #836543",
"R. c #8B6B44",
"E. c #846A4C",
"W. c #8B6D4B",
"Q. c #856747",
"!. c #936D43",
"~. c #966C47",
"^. c #8D714C",
"/. c #93734C",
"(. c #9A7549",
"). c #846C52",
"_. c #896E53",
"`. c #8C7254",
"'. c #8A7459",
"]. c #937553",
"[. c #9C7B53",
"{. c #957B5B",
"}. c #9B7D5B",
"|. c #957856",
" X c #956954",
".X c #A67948",
"XX c #B77A46",
"oX c #A37D54",
"OX c #AB6C4C",
"+X c #8D5072",
"@X c #957863",
"#X c #AB6466",
"$X c #C47B4D",
"%X c #A65B3A",
"&X c #9D815C",
"*X c #B8854B",
"=X c #A48255",
"-X c #A4845C",
";X c #AB8759",
":X c #B68956",
">X c #B8925B",
",X c #AC824C",
"<X c #9C8263",
"1X c #A38562",
"2X c #AB8B63",
"3X c #A78965",
"4X c #B38D64",
"5X c #B89468",
"6X c #B39671",
"7X c #C6884A",
"8X c #C78A56",
"9X c #C89559",
"0X c #D79957",
"qX c #D2904E",
"wX c #E19C58",
"eX c #DDA35A",
"rX c #D5A651",
"tX c #E2A45B",
"yX c #E5A65A",
"uX c #E9B659",
"iX c #C69866",
"pX c #CF976B",
"aX c #DAA666",
"sX c #CFA873",
"dX c #E7A965",
"fX c #EBB46B",
"gX c #F4B66B",
"hX c #EBB674",
"jX c #F6BA75",
"kX c #ECAC6C",
"lX c #E29D67",
"zX c #FBC27A",
"xX c #F2C76E",
"cX c #B8823D",
"vX c #93538D",
"bX c #B56FAB",
"nX c #A96892",
"mX c #C977AF",
"MX c #CF7AC5",
"NX c #8A3C81",
"BX c #D99CA0",
"VX c #F9C888",
"CX c #D691C9",
"ZX c #E598D1",
"AX c #EBACD8",
"SX c #F7B8EA",
"DX c #F4B0EC",
"FX c #DCA5CC",
"GX c #F8C7E9",
"HX c #FDCAF8",
"JX c #FED7FA",
"KX c #FBD3ED",
"LX c #FFE7FB",
"PX c #FEF1FB",
"IX c #F4C3DA",
"UX c #BB86A7",
/* pixels */
"                                                                                                                                                                                                                                                                                                                                                                                                                                                                                                                                                                                                                                                                                                                                                                                                                                                                                                                                                                                                                                        ",
"                                                                                                                                                                                                                                                                                                                                                                                                                                                                                                                                                                                                                                                                                                                                                                                                                                                                                                                                                                                                                                        ",
"                                                                                                                                                                                                                                                                                                                                                                                                                                                                                                                                                                                                                                                                                                                                                                                                                                                                                                                                                                                                                                        ",
"                                                                                                                                                                                                                                                                                                                                                                                                                                                                                                                                                                                                                                                                                                                                                                                                                                                                                                                                                                                                                                        ",
"                                                                                                                                                                                                                                                                                                                                                                                                                                                                                                                                                                                                                                                                                                                                                                                                                                                                                                                                                                                                                                        ",
"                                                                                                                                                                                                                                                                                                                                                                                                                                                                                                                                                                                                                                                                                                                                                                                                                                                                                                                                                                                                                                        ",
"                                                                                                                                                                                                                                                                                                                                                                                                                                                                                                                                                                                                                                                                                                                                                                                                                                                                                                                                                                                                                                        ",
"                                                                                                                                                                                                                                                                                                                                                                                                                                                                                                                                                                                                                                                                                                                                                                                                                                                                                                                                                                                                                                        ",
"                                                                                                                                                                                                                                                                                                                                                                                                                                                                                                                                                                                                                                                                                                                                                                                                                                                                                                                                                                                                                                        ",
"                                                                                                                                                                                                                                                                                                                                                                                                                                                                                                                                                                                                                                                                                                                                                                                                                                                                                                                                                                                                                                        ",
"                                                                                                                                                                                                                                                                                                                                                                                                                                                                                                                                                                                                                                                                                                                                                                                                                                                                                                                                                                                                                                        ",
"                                                                                                                                                                                                                                                                                                                                                                                                                                                                                                                                                                                                                                                                                                                                                                                                                                                                                                                                                                                                                                        ",
"                                                                                                                                                                                                                                                                                                                                                                                                                                                                                                                                                                                                                                                                                                                                                                                                                                                                                                                                                                                                                                        ",
"                                                                                                                                                                                                                                                                                                                                                                                                                                                                                                                                                                                                                                                                                                                                                                                                                                                                                                                                                                                                                                        ",
"                                                                                                                                                                                                                                                                                                                                                                                                                                                                                                                                                                                                                                                                                                                                                                                                                                                                                                                                                                                                                                        ",
"                                                                                                                                                                                                                                                                                                                                                                                                                                                                                                                                                                                                                                                                                                                                                                                                                                                                                                                                                                                                                                        ",
"                                                                                                                                                                                                                                                                                                                                                                                                                                                                                                                                                                                                                                                                                                                                                                                                                                                                                                                                                                                                                                        ",
"                                                                                                                                                                                                                                                                                                                                                                                                                                                                                                                                                                                                                                                                                                                                                                                                                                                                                                                                                                                                                                        ",
"                                                                                                                                                                                                                                                                                                                                                                                                                                                                                                                                                                                                                                                                                                                                                                                                                                                                                                                                                                                                                                        ",
"                                                                                                                                                                                                                                                                                                                                                                                                                                                                                                                                                                                                                                                                                                                                                                                                                                                                                                                                                                                                                                        ",
"                                                                                                                                                                                                                                                                                                                                                                                                                                                                                                                                                                                                                                                                                                                                                                                                                                                                                                                                                                                                                                        ",
"                                                                                                                                                                                                                                                                                                                                                                                                                                                                                                                                                                                                                                                                                                                                                                                                                                                                                                                                                                                                                                        ",
"                                                                                                                                                                                                                                                                                                                                                                                                                                                                                                                                                                                                                                                                                                                                                                                                                                                                                                                                                                                                                                        ",
"                                                                                                                                                                                                                                                                                                                                                                                                                                                                                                                                                                                                                                                                                                                                                                                                                                                                                                                                                                                                                                        ",
"                                                                                                                                                                                                                                                                                                                                                                                                                                                                                                                                                                                                                                                                                                                                                                                                                                                                                                                                                                                                                                        ",
"                                                                                                                                                                                                                                                                                                                                                                                                                                                                                                                                                                                                                                                                                                                                                                                                                                                                                                                                                                                                                                        ",
"                                                                                                                                                                                                                                                                                                                                                                                                                                                                                                                                                                                                                                                                                                                                                                                                                                                                                                                                                                                                                                        ",
"                                                                                                                                                                                                                                                                                                                                                                                                                                                                                                                          o o = = = = = = = = = = = = = = = = = = = = = 2                                                                                                                                                                                                                                                                                                                                                                                                                                                               ",
"                                                                                                                                                                                                                                                                                                                                                                                                                                                                                                          # = o + + . . . . . . . . . . . . . . . . . . . . . . . . . . . . . + + o # o o = = : 2 2 2 3                                                                                                                                                                                                                                                                                                                                                                                                                                 ",
"                                                                                                                                                                                                                                                                                                                                                                                                                                                                                                i = o + X . . . . . . . . . . . . . . . . . . . . . . . . . . . . . . . . . . . . . . . . . . . + + o 3 N                                                                                                                                                                                                                                                                                                                                                                                                                               ",
"                                                                                                                                                                                                                                                                                                                                                                                                                                                                                    o o = 2 3 2 o + + . . . . . . . . . . . . . . . . . . . . . . . . X X X X o + + + + X . . . X . . . . . . + + + o = y G G                                                                                                                                                                                                                                                                                                                                                                                                                           ",
"                                                                                                                                                                                                                                                                                                                                                                                                                                                                              = $ + + . . X . . . . . . . . . . . . . . . . . . . . . X + + o : 4 y y u f x S D D C C C V h p 0 y 3 > = o o o o + o o o o 2 > = o o o X o                                                                                                                                                                                                                                                                                                                                                                                                               ",
"                                                                                                                                                                                                                                                                                                                                                                                                                                                                      3 # + + . . . . . . . . . . . . . . . . . . . . . . . . . X X X & = = > p j V V C ! $.j.k.k.k.k.k.-./ E c v k u q > > > * * * * & & = = & & X X . . = 3 2 > 2 4                                                                                                                                                                                                                                                                                                                                                                                                   ",
"                                                                                                                                                                                                                                                                                                                                                                                                                                                              $ + + $ + . . . . . . . . X + o o # # + + + o o = 3 4 4 4 4 4 4 y i h h h j z x C C E ~ ~ ^ o.6.l.l.z.z.l.6.%.%.%.$.$.$.@.@.' ^ ^ ~ ~ ~ ~ ^ @.' ` ~ C A a 0 & o o . . X = i m                                                                                                                                                                                                                                                                                                                                                                                             ",
"                                                                                                                                                                                                                                                                                                                                                                                                                                                        + + + . . . . . X o = = o + o 2 4 i m g i i i i i i g V D D D D D D D D ! ` ] ' #.#.*.*.-.-.=.=.6.9.l.v.m.m.m.m.m.m.m.m.M.m.N.N.M.M.M.M.N.N.N.'.'.'.'.'.N.N.N.M.l.$.$.*.u % X . . . = N                                                                                                                   KXKXJXJXJXJXJXKXKX                                                                                                                                                                                                                                                    ",
"                                                                                                                                                                                                                                                                                                                                                                                                                                                  # o + . . . . . . + = 4 i g g i 4 i M N Z Z Z Z Z N N N V F D G D D D D F F D ~ ' #.#.*.-.-.=.=.=.6.6.k.l.c.v.n.n.n.m.m.m.Q.Q.).).).).).).).).)._._.'.'.'.'.'.'.).).E.N.M.B.x.c * % % X X + = > & & %                                                                                                   IXGXKXJXJXLXLXLXLXLXLXLXJXJXKXKX                                                                                                                                                                                                                                              ",
"                                                                                                                                                                                                                                                                                                                                                                                                                                              = . . . . . . . # $ o 2 i N V V V V N V Z Z Z Z Z Z Z Z F F D D D D D D D D F F D ~ ' #.*.-.-.=.=.k.k.k.l.z.c.c.v.m.n.m.Q.E.E.E.).'.'.'.'.{.{.|.|.'.'.{.{.{.{.{.{.{.|.{.`.`.`.'.m.6.) ^ ~ ~ x f f p & X X - `                                                                                         AXIXGXGXKXJXLXLXLXLXLXPXLXLXLXLXJXJXJXKX                                                                                                                                                                                                                                            ",
"                                                                                                                                                                                                                                                                                                                                                                                                                                          2 2 # . . . . . . # 3 3 4 m N Z A Z Z Z Z Z Z Z F F F D D D D G ` ! D D D D ! D F F ! ^ $.-.-.=.=.6.k.k.l.l.z.c.M.M.m.m.E.E.).'.'.`.'.{.{.{.{.}.<X<X<X@X}.@X<X<X<X<X<X<X<X1X<X<X<X<X<X@X'.'.'.'.N.N.B.k.' 0 X % u u p                                                                                   AXGXGXGXKXJXLXLXLXPXPXPXPXPXPXLXLXLXJXJXKXKXGX                                                                                                                                                                                                                                        ",
"                                                                                                                                                                                                                                                                                                                                                                                                                                    = o @ . . . . . . . # 1 5 B N Z Z Z V A Z Z Z V Z Z Z Z F F D D ` ! G D D D D D D ! ~ ! ~ ^ #.-.=.=.=.6.k.k.l.z.z.c.M.m.m.N.).).).'.'.{.{.{.{.{.{.{.}.<X<X<X<X<X<X<X<X<X<X<X<X1X1X3X1X1X1X<X<X{.{.{.{.|.'.`.'.B.J * * - 0 0 C                                                                               IXGXGXKXKXJXLXLXPXPXPXPXPXPXPXPXLXLXLXLXJXJXKXKX                                                                                                                                                                                                                                        ",
"                                                                                                                                                                                                                                                                                                                                                                                                                                2 o # # # @ . . . . . O 2 i m B Z Z Z Z A Z Z Z A V V V V Z Z F F D D D D D D D D D D ! ~ ` ' @.*.-.=.=.6.6.6.9.9.l.z.c.m.m.N.).).).'.'.{.{.{.{.{.{.{.{.}.<X<X<X<X<X<X<X<X<X1X1X1X1X1X3X1X1X1X1X&X&X}.&X}.}.{.].E.m.6._ O.%.W v ! *.S                                                                         AXIXIXGXKXKXJXLXLXPXPXPXPXPXPXPXPXLXLXLXLXJXJXJXKXKX                                                                                                                                                                                                                                      ",
"                                                                                                                                                                                                                                                                                                                                                                                                                          # . . # + # 4 m 6 # # # # # # 4 M B Z Z Z Z Z A A A V A V V V V V Z F F F D D D D D S F F F D ~ @.@.*.*.-.=.=.6.6.6.6.9.9.l.z.M.M.m.N.N.).'.'.'.{.{.}.{.}.{.{.{.{.{.{.}.}.}.}.<X1X1X1X1X1X1X1X1X1X1X1X<X&X&X<X<X&X&X[.`.E.Q.n.m.).5.Q / c 0 - A                                                                   FXAXIXIXGXGXKXLXLXLXLXLXLXLXLXLXLXLXLXLXLXLXJXJXJXJXJXGX                                                                                                                                                                                                                                    ",
"                                                                                                                                                                                                                                                                                                                                                                                                                        # + . + # o 2 5 m 5 # o # # # 2 i M Z Z Z Z Z Z Z V V V V V V V V V Z Z F F F D D S S S D D ! ` @.#.*.*.-.-.=.=.6.6.6.6.9.9.l.l.z.z.M.).).'.'.'.'.{.{.{.{.{.{.].`.`.`.].].|.{.}.<X1X1X1X1X1X1X1X1X1X1X1X1X<X<X1X<X&X&X&X[.].W.R.W.E.n.M.M.-.0 % i [                                                                 FXSXSXSXIXGXKXJXJXLXLXLXLXLXLXLXLXLXLXLXLXLXJXJXJXJXJXKX                                                                                                                                                                                                                                    ",
"                                                                                                                                                                                                                                                                                                                                                                                                                  + . . . . . # 4 6 5 g m 5 3 2 3 4 i m m B B Z V V V A A V V A A V V V V Z Z Z F F F D S S D ! ~ ' #.*.*.*.-.-.-.-.-.=.=.=.=.=.9.9.l.l.z.t.M.).'.'.'.'.'.'.{.{.{.{.{.{.].^.W.W.W.].|.}.-X-X-X1X1X1X3X1X1X1X1X1X1X1X1X1X1X&X}.}.]./././.].|.].)._.6.q o X = p                                                             FXAXAXAXAXSXGXKXKXKXJXJXJXJXJXJXJXJXJXJXJXJXJXJXJXJXJXJXJXGX                                                                                                                                                                                                                                  ",
"                                                                                                                                                                                                                                                                                                                                                                                                              2 + . . . . . . 1 i i m m m m i g g m M M M N N N V V N V A V A A A V V V Z F F F F F D D D D ! ~ @.-.-.-.-.-.-.-.-.-.-.=.&.=.6.6.9.9.l.z.z.z.c.N.N.).'.'.'.'.'.|.{.{.{.{.|.]./.].].|.}.1X1X-X-X1X1X1X1X1X1X1X1X1X1X1X1X<X<X|.E.T.Q.W.].|.&X}.].E.m.o.q o . . =                                                             FXSXAXAXAXSXSXGXGXKXKXJXJXJXJXKXKXHXGXHXKXKXKXJXJXJXJXJXJXGX                                                                                                                                                                                                                                  ",
"                                                                                                                                                                                                                                                                                                                                                                                                          # = # . . . . . # # 2 5 i m m m m i m m m M M N N N N N V V V A V V A V V C F D D ! ! ! ` ` ` ` @.@.@.*.-.-.-.-.-.-.-.-.-.-.=.=.6.6.6.9.0.l.z.c.c.M.M.n.n.E.).'.`.].].|.{.{.{.]./.|.}.&X-X1X3X1X2X2X2X2X2X2X2X2X1X1X1X-X}.{.'.m.v.q.q.m.).`.{.&X{.{.`.m.o.q o . . = A                                                           AXAXAXAXAXAXDXSXSXSXGXGXHXHXHXHXHXSXSXSXGXGXKXJXKXJXJXJXJXKX                                                                                                                                                                                                                                  ",
"                                                                                                                                                                                                                                                                                                                                                                                                    # . . . . . . . . + # 2 6 5 m m m m m i i m m m M N N N N N V V V V Z Z Z C C Z S ! ` ` ` ` ' #.*.*.*.-.-.-.-.-.-.=.=.-.-.-.%.*.-.=.=.6.6.=.6.0.l.z.c.c.M.n.t.n.E.).`.`.].].].{.}.}.|.].[.-X1X1X1X1X2X2X2X4X2X2X2X2X2X;X1X1X3X3X<Xl.J v c c / o.o.O.+.+.>.c.N.=.u o . . X X                                                         FXAXAXFXFXFXAXAXAXDXDXDXDXSXSXSXSXSXSXSXSXSXSXGXGXHXKXJXJXJXKX                                                                                                                                                                                                                                  ",
"                                                                                                                                                                                                                                                                                                                                                                                                # o + . . . . . . . # 2 3 4 5 5 m m 5 5 5 g m m m M N N N N N N V V Z Z Z C C F F C D ! ` ` ` ' ' *.*.*.-.-.-.-.-.=.9.k.k.-.-.*.$.$.$.%.%.=.=.=.6.9.0.0.t.t.n.n.E.E.`.{.{.{.{.].`.].&X1X&X&X-X1X2X2X2X2X2X4X4X4X2X2X2X2X2X-X-X1X|.m.c.c % . . . X X X X % ; 0 =.N.h.h o . . . X 1                                                       FXFXFXCXCXCXCXZXZXZXZXAXAXAXDXDXDXDXDXDXDXDXSXSXSXSXGXJXJXJXJX                                                                                                                                                                                                                                  ",
"                                                                                                                                                                                                                                                                                                                                                                                            + . . . . . . . . . # 2 2 5 5 i 5 i m i 5 5 m m m m m M M M N N N N V Z Z Z F F F F F F D ! ` ` ` ` ' #.*.-.-.-.-.=.-.=.k.x.k.$.^ $.' ^ $.$.*.%.=.=.6.6.0.c.n.E.^.`.].|.{.}.}.}.{.|.|.|.&X3X3X2X2X2X2X2X2X4X4X4X4X4X2X2X2X-X2X-X|.{.4.t , X . . . . . . . . . X * D ` h = $ . . . X >                                                     FXFXFXUXbXbXbXbXmXCXCXCXZXZXZXAXAXDXDXDXDXDXDXDXDXDXSXGXHXJXJXJX                                                                                                                                                                                                                                  ",
"                                                                                                                                                                                                                                                                                                                                                                                      # # + . . . . . . . . . # # 5 5 5 i 5 5 5 5 i g m m m m m m m m M N N N N N V Z F D D F F F F D ! ~ ` ' ' ` ' ' *.h.=.-.=.=.=.=.-.$.^ ~ ^ ^ ' $.$.$.$.%.=.6.6.0.n.E.`.|.{.}.&X&X&X&X&X&X&X&X&X3X2X4X4X2X2X2X4X4X4X4X2X2X4X2X2X3X].Q.`.).&.c * . . . . . . . . . . . . . X $ . . . . . . . 2                                                     CXCXCXUXbXbXnXbXbXMXCXCXZXAXDXDXDXDXDXDXDXDXDXDXDXDXDXSXHXHXHXGX                                                                                                                                                                                                                                  ",
"                                                                                                                                                                                                                                                                                                                                                                                    . . . . . . . . . . . . # 2 5 5 i i i i 5 5 5 i m m g i g m m m M m M m M M N N F D D D D D D ! D D ! ` ' ' @.^ ~ ~ -.=.=.=.k.=.$.~ ~ ~ E E ~ $.$.$.^ ^ ) %.&.q.v.m.E.`.|.[.}.&X&X&X&X1X1X1X3X3X2X4X4X4X4X4X4X4X2X2X2X2X2X1X3X6X6X'.L E ^ > X X . . . . . . . . . . . . . . . . . . . . . . 2                                                   vXvXvXvXnXnXnXnXbXCXCXZXAXDXSXSXSXSXSXDXDXDXDXDXDXDXDXDXDXSXSXSXAX                                                                                                                                                                                                                                  ",
"                                                                                                                                                                                                                                                                                                                                                                                + . . . . . . . . . . . . . # 2 5 g i i i g 5 5 g g g g i 5 5 5 5 4 4 4 4 4 4 5 i m Z F F D D D D ` ` ` ` ` ' @.#.#.~ ~ $.=.=.k.k.j.^ ! D D S C C ! ! ~ ~ ~ [ *.6.z.m.m.E.`.|.|.}.}.&X-X-X1X1X1X1X1X2X2X2X2X2X2X2X1X-X-X-X-X1X1X`.4.*.~ 0 % & + . . . . . . . . . . . . . . . . . . . . O O . . 3                                                 vXV.f.f.V.vXvXvXvXbXAXDXSXSXSXHXHXHXHXHXSXSXSXSXDXDXDXDXDXDXDXDXAXAX                                                                                                                                                                                                                                  ",
"                                                                                                                                                                                                                                                                                                                                                                              + . . . . . . . . . . . . . . # 2 5 m i i g g m m g g i i 5 5 4 3 2 7 # = = = = 2 2 4 g N V N Z Z A D ` ` ` ` ` ' ' ' ~ ~ -.j.j.k.k.k.^ D D F Z Z V V x D ` #.h.-.%.l.m.n.n.W.].].[.}.&X-X-X-X-X-X1X1X2X2X2X2X;X;X-X-X-X&X1X<X`.<XN.w X X . . . . . . . . . O . . . . . . . . . . . . . . O O . +                                                   vXf.f.f.V.vXvXvXnXCXSXSXHXHXHXHXHXHXHXHXHXHXHXHXSXDXDXDXDXDXDXAXDXAX                                                                                                                                                                                                                                  ",
"                                                                                                                                                                                                                                                                                                                                                                              . . . . . . . . . . . . . @ # # 2 5 5 g g m m m g g g i g i 4 3 2 2 # # # # # 2 2 2 3 5 g g g M V V C D ` D D ! ! ! ~ ~ @.=.=.=.j.k.j.~ F F Z V A Z V V Z G #.h.' [ 6.c.c.y.Q.`.].|.}.&X&X-X}.].[.-X2X2X2X;X;X-X-X-X-X}.E.n.t.Q E c X . . . . . . . . . O . . . # # # # . . . . . . . . . . O . +                                                 +XV.f.f.f.NXvXbXCXCXDXHXHXHXJXJXJXJXJXJXJXJXJXJXJXHXHXSXSXSXSXDXAXSXSX                                                                                                                                                                                                                                  ",
"                                                                                                                                                                                                                                                                                                                                                                            . . . . . . . . . . . . . . . # # 5 5 5 m m M M m m m m 5 5 5 2 # # < < < # # # 2 2 2 2 5 5 i g M N V V F D ! D D S S ^ -.-.-.-.-.=.j.h.D V Z Z Z Z Z V Z Z D ` #.~ ~ o.q.t.t.n.E.^.].].{.}.&X]././.=X2X;X;X;X;X;X-X1X<X{.t.v 9 X . . . . . . . . + = 2 3 4 2 : 3 m M M 4 + . . . . . . . . . O . o                                               V.f.f.f.f.f.NXvXCXSXSXHXHXJXJXJXJXJXJXJXJXJXJXJXJXJXJXHXHXHXHXSXAXDXSXHX                                                                                                                                                                                                                                  ",
"                                                                                                                                                                                                                                                                                                                                                                              . . . . . . . . . . O . . @ # 7 5 5 5 m m m g g 5 2 2 2 # # # # # # < < # # # 2 2 2 2 4 5 4 g g j M j Z D D D S S C ^ j.j.-.-.*.-.j.-.D Z F Z Z Z Z Z Z F G G ] ~ E ) 6.0.r.r.t.y.y.t.y.T.T.W.|.=X-X-X-X-X;X;X;X1X}.).$.f & X . . . . . X o : 4 g Z F V j g N Z Z Z N i o . . . . . . . . . . + &                                               V.s.f.f.f.NXvXvXCXSXHXJXJXJXJXJXJXJXJXLXJXJXLXJXJXJXJXHXHXHXSXSXDXSXSXSXDX                                                                                                                                                                                                                                ",
"                                                                                                                                                                                                                                                                                                                                                                              . . . . . . . . . . . O . . # 7 7 2 2 2 2 # # 7 # # # # # # # # # < < # # # < < < # 2 2 4 4 5 g g g h j Z Z V x x S ~ -.-.-.-.$.' *.*.F V V N V V V Z Z Z Z D ` ~ ~ $.&.9.0.8.5.>.>.,.8.r.y.W.&X-X-X-X=X=X;X;X2X}.c.c * X . . . . . X > p j D ` ' ' ` D C F D D D F F N i 4 5 m 3 + . . . . . =                                               V.d.s.f.f.f.vXvXnXCXSXHXJXJXJXJXJXJXJXJXLXLXLXLXJXJXJXJXJXHXHXHXHXHXHXAXCXFXZX                                                                                                                                                                                                                              ",
"                                                                                                                                                                                                                                                                                                                                                                              + . . . . . . . . . . . . O . $ . . . . . . . . . . . O . . . O O O O O O # # # # # 2 2 5 4 4 5 i g y i h j j x c ~ ! ^ *.*.-.-.! D D V N N M M N N N N N Z Z D ` ' *.%.4.5.5.5.>.>.8.t.y.Q.^.|.[.=X=XoX=X=X;X1X@X%.& + . . . . . o 0 S ` ' *.-.-.-.*.@.' ^ #.@.' ~ D F S Z Z Z 4 + . . . . . 3                                             +Xf.g.s.f.f.NXnXCXCXAXHXHXJXJXJXJXJXJXJXLXJXJXJXJXJXJXJXJXJXHXHXHXHXHXHXDXUXCXCX                                                                                                                                                                                                                              ",
"                                                                                                                                                                                                                                                                                                                                                                                o + . . . . . . . . . . . . . . . . . . . . . . . . . . . . . . . . . . . O # # < 7 2 2 5 5 5 i i y y u j x z S *.' ~ ' ' *.h.C h h g g m m m M N M m M N V C ` *.-.=.4.5.8.8.t.v.n.E.E.`.^./.[.[.oX=X-X-X/.>.W 0 X . . . . . 3 D ~ ~ [ $.-.-.-.-.&.%.$.*.*.*.$.^ ~ D D D Z N u & o # # + . :                                             d.g.g.s.f.f.vXbXDXDXDXHXHXJXJXJXJXJXJXJXJXJXJXJXJXJXJXJXHXHXHXHXHXHXHXHXSXCXbXmXCX                                                                                                                                                                                                                            ",
"                                                                                                                                                                                                                                                                                                                                                                                  : $ . . . . . . . . . . . . . . . . . . . . . . . . . . . . . . . . . . . . # # 7 2 2 5 5 5 i i i y h x V V D -.#.~ ~ ! ! ! j u i i i 5 m m m m m g m m N A D #.-.&.4.4.6.q.t.m.).).E.E.W./.[.oX=X-X1X1X'.v ; X . . . . . $ V #.$.$.%.%.%.=.6.=.&.&.%.%.$.$.$.o.^ ~ ! ! D D D V N N g = . =                                           V.s.g.g.g.f.+XvXCXSXSXDXHXJXJXJXJXJXJXJXJXJXJXJXJXJXJXHXHXHXHXHXHXHXHXHXHXSXCXCXbXbXUX                                                                                                                                                                                                                          ",
"                                                                                                                                                                                                                                                                                                                                                                                    # . . . . . . . . . . . . . . . . . . . . . . . . . . . . . . . . . . . . O # # 7 2 5 5 5 5 g g g j V F D ! ' ` ! D F V j i y 4 4 4 5 5 i i i i i i g N Z ! @.-.&.4.9.9.q.q.0.c.n.n.Q.W.].&X=X-X-X`.c.k.u X . . O . . . = z ~ *.-.-.%.&.=.4.9.9.&.o.) ) o.$.$.$.^ ^ ' ' @.' ` ` G Z 4 + >                                         d.s.g.g.g.g.f.NXvXCXSXSXDXSXHXHXHXJXJXJXJXJXJXJXJXHXHXHXHXHXHXHXHXHXHXHXHXHXSXZXAXCXbXUXCX                                                                                                                                                                                                                        ",
"                                                                                                                                                                                                                                                                                                                                                                                      . . . . . . . . . . . . . . . . . . . . . . . . . . . . . . . . . . . . . . @ # 2 6 5 5 5 g g j V V F D D D D D Z V V h i 4 5 5 2 5 5 5 5 5 4 i g g j F ` $.-.6.6.9.9.9.q.q.8.t.Q.E.^.[.-X-X-X}.5.q - o . . . . . . = y h S ' $.*.=.=.$.$.l.l.O.P W Q ) %.%.*.$.$.$.@.@.#.@.' ` F y & -                                         g.g.g.s.d.f.+XvXvXMXSXSXDXSXHXHXHXJXJXJXJXJXJXJXHXHXHXHXHXHXHXHXHXHXHXHXHXHXSXAXAXFXbXnXbX                                                                                                                                                                                                                        ",
"                                                                                                                                                                                                                                                                                                                                                                                      $ . . . . . . . . . . . . . . . . . . . . . . . . . . . . . . . . . . . . O . # 7 6 5 5 g g j Z F D D ! ! D F Z V V N g 4 5 2 2 2 2 2 3 3 2 3 4 i g j D @.-.=.4.6.9.9.9.q.0.q.n.E.^.|.&X3X1X`.'.k.& . . . . . X X . o : y h V S E / / J L 6.9.( K P ( o.%.%.%.*.*.$.$.$.#.*.#.] D V > -                                       b.{ g.f.+X+XvXbXMXbXMXDXSXDXSXHXHXHXHXJXJXJXJXJXJXHXHXHXHXHXHXJXJXHXJXJXHXJXHXSXAXDXCXvXvXnXbX                                                                                                                                                                                                                      ",
"                                                                                                                                                                                                                                                                                                                                                                                        # . . . . . . . . . . . . . . . . . . . . . . . . . . . . . . . . . . . . O @ 7 6 5 5 g N F D D ! ! ! ! D Z Z Z V j i 4 2 2 7 7 7 7 2 2 = : 2 4 h j F @.*.6.9.6.9.9.9.q.t.n.E.`.`.|.{.E.+.L E k X . . . * k q ; X X X = > h V z z k w a ^ o.L P O.0.l.6.%.*.*.$.$.$.$.$.-.*.#.' ! h 0 n                                     b.{ g.f.vXnXbXMXMXMXMXDXDXAXDXHXHXHXHXHXJXJXJXJXHXHXHXHXHXJXJXJXJXJXJXJXJXHXHXSXAXAXCXvXvXvXbX                                                                                                                                                                                                                      ",
"                                                                                                                                                                                                                                                                                                                                                                                            . . . . . . . . . . . . . . . . . . . . . . . . . . . . . . . . . . . . O # 2 5 5 g Z D ` ! ! D ! D F V V V x h 4 2 2 2 7 7 7 # 7 1 = = : 4 g j S ^ $.9.9.6.8.9.6.q.t.n.E.E.E.E.m.E % X X . . . . % e O.X.r 9 0 p y > > y f u q u k E / W %.v.).m.l.%.$.$.$.$.$.$.*.*.$.#.#.` A y u                                   s.s.{ g.+XnXnXmXMXMXMXMXDXDXAXAXSXHXHXHXHXJXJXJXHXHXHXHXHXHXJXJXJXJXJXJXJXJXHXHXSXDXAXCXvXvXvXUX                                                                                                                                                                                                                      ",
"                                                                                                                                                                                                                                                                                                                                                                                              + . . . . . . . . . . . . . . . . . . . . . . . . . . . . . . . . . . . O 7 5 g M F G D D ! D D F Z V V j h u 4 3 2 7 7 7 2 2 7 : : : 3 4 i j D ^ o.0.t.q.q.q.q.t.M.m.E.E.t.+.E > . . . . . > q e U y.D.u.2.t.v.&.* & & * * > f x ~ @.$.6.c.m.z.6.%.$.$.$.$.$.$.$.$.$.$.*.' C 0 p                                   { { { s.nXCXMXMXMXMXbXMXDXDXDXZXAXSXHXHXHXJXJXJXHXSXSXHXHXHXHXJXJXJXJXJXJXJXHXHXSXDXAXCXvXvXvXnXnX                                                                                                                                                                                                                    ",
"                                                                                                                                                                                                                                                                                                                                                                                                . . . . . . . . . . . . . . . . . . . . . . . . . . . . . . . . . . . . # 2 m Z D ` ! ! ! D F Z V N j j g 4 3 2 2 2 # : 2 2 7 : : 2 3 y h x E / O.t.c.t.q.q.q.c.n.m.).'.v.u X . . . . . X d +.<.u.~.(.(.(.(.(.y.H t e a u * q f x ! @.-.k.9.&.%.%.$.$.$.$.$.$.$.$.*.-.-.*.] k A                                   n { { d.bXZXZXCXMXMXbXMXDXSXDXAXAXSXHXHXHXHXJXJXHXSXSXHXHXJXJXJXJXJXHXHXHXHXHXHXSXDXAXCXvXvXvXvX+X                                                                                                                                                                                                                    ",
"                                                                                                                                                                                                                                                                                                                                                                                                  . . . . . . . . . . . . . . . . . . . . . . . . . . . . . . . . . . . . 3 N D D ` ~ ! D F F V j N j h y 3 2 2 2 2 2 : 2 2 2 3 3 3 4 f j C / Q O.0.c.t.t.q.q.c.c.c.q.z.-.> . . . . X * d U 1.3.Z.H.J.S.C.C.Z.C.1.w.5.0.( 8 ; & & , j D ^ o.$.%.=.=.%.$.o.o.$.*.-.-.=.=.-.#.! ] h.                                n A { +XbXZXCXCXMXMXbXMXDXDXDXAXDXHXHXHXHXJXJXJXJXHXHXHXHXHXHXHXHXHXHXHXHXHXHXHXSXDXAXCXvXvXvXvX+X                                                                                                                                                                                                                    ",
"                                                                                                                                                                                                                                                                                                                                                                                                    . . . . . . . . . . . . . . . . . . . . . . . . . . . . . . . . . + = g F D D ~ ! D D Z Z V j j j g 4 2 2 2 2 2 2 2 5 5 5 5 4 4 u j V D ~ Q o.q.t.t.t.q.q.t.t.c.&.C > . . . . . & d <.G.J.J.K.K.K.J.J.J.J.J.J.A.Z.A.<.t t e * & : > q x ! $.k.k.&.o.) o.*.-.-.-.-.=.h.*.' ' !                                 n n { Y.nXmXCXCXMXMXbXMXDXDXDXDXGXHXHXHXJXJXJXJXJXHXHXHXHXHXHXHXHXHXHXHXHXHXSXDXDXAXZXCXvXvXvX+X+XvX                                                                                                                                                                                                                  ",
"                                                                                                                                                                                                                                                                                                                                                                                                      . . . . . . . . . . . . . . . . . . . . . . . . . . . . . . . + o i F G G D D D D F Z V N N g g 5 3 2 2 2 2 2 5 5 m m m g y y h Z D ! / W ( 8.t.8.8.8.8.0.4.J u - . . . . . X e H ..J.J.K.L.L.L.L.K.J.J.J.H.H.J.S.C.Z.T.5.e ; & o o : u ~ 6.k.=.o.) ) $.$.$.[ ^ ' *.#.' ] A                               s.n n { Y.#XnXmXZXMXmXbXMXDXDXDXSXHXJXJXJXJXJXJXJXJXJXJXJXHXHXHXHXSXSXSXSXHXSXAXZXZXAXAXCXvXvX+XV.V.vX                                                                                                                                                                                                                  ",
"                                                                                                                                                                                                                                                                                                                                                                                                        . . . . . . . . . . . . . . . . . . . . . . . . . . . . . . # 4 N D G D D F F C Z V V N j i 5 4 3 2 2 2 2 5 5 5 m m m m y u j C ! / / W o.6.t.5.>.5.9.0.) * . . . . . X % 8 U ..J.L.P.P.P.P.P.P.L.L.K.J.J.J.S.S.H.:X;XA.H t 0 = $ . o z $.6.-.$.( Q ^ ^ W E c c ~ ` ! Z 0 p                             s.{ { } #X#X#XmXCXMXmXbXMXDXDXDXGXJXJXJXKXKXJXHXJXJXJXJXJXHXHXHXHXSXSXSXSXSXAXZXCXZXAXAXCXnX+XV.V.+XnX                                                                                                                                                                                                                  ",
"                                                                                                                                                                                                                                                                                                                                                                                                          . . . . . . . . . . . . . . . . . . . . . . . . . . . . . = g F G G D F F C Z V N j g g 4 4 4 4 3 3 3 3 4 5 m m M B N g j V D ~ @.o.o.%.6.8.5.5.5.6.o.0 X . . . X ; v :. .G..XXXqX0X0X0X0X9X9X9X9X9X8X7X7X*X*X*X7X*XH.Z.u.4.u o . + y S ~ ^ ^ Q Q ^ ^ W J c x D ` h 2 & %                             d.{ { Y.#X#X+XbXMXMXMXbXCXDXDXAXSXKXHXHXKXKXKXKXKXJXJXJXJXHXGXGXGXSXSXDXAXAXAXCXCXZXZXAXCXnX+XV.f.V.nX                                                                                                                                                                                                                  ",
"                                                                                                                                                                                                                                                                                                                                                                                                              . . . . . . . . . . . . . . . . . . . . . . . . . # # 2 M F G D F F F Z Z V N j g i 4 4 4 4 4 4 4 5 5 i m m m M N N V D ~ ' *.$.%.&.4.5.6.q.z.9.E X . . . . % t <.F.C.K.P.P.0XeXeXeXeXeXeXeXaXaXaXaXaX0XqXqXqX7X7XXX.Xy.r X . . = u f c / / Q ) ) ) / C C F G m o . X                           b.d.d.} Y.#X#X+XnXmXMXMXmXCXDXDXAXSXGXGXGXKXKXKXKXKXJXLXJXKXGXGXGXSXSXAXAXAXAXAXZXCXZXZXAXCXnXvXV.f.f.vXUX                                                                                                                                                                                                                ",
"                                                                                                                                                                                                                                                                                                                                                                                                              + . . . . . . . . . . . . . . . . . . . . . . . # 5 2 : g Z Z Z Z Z V V N M M g i 4 4 4 4 4 4 4 5 5 5 i g g m N Z F D ~ ~ o.$.o.O.+.O.4.8.0.z.-.C X . . X l I  .C.H.L.P.7X7X0XtXtXeXeXeXeXeXeXeXaXdXeX0XqXqXqXqXqX7X,X(.O.0 X X o = & 0 v / ^ Q ^ ) ^ C h g B i o . o                           b.d.d.d.Y.#X+XU.#XmXmXMXMXCXDXSXSXSXGXGXGXGXGXKXKXKXJXLXLXKXGXGXSXSXDXAXZXZXZXZXZXCXCXZXAXFXnX+Xf.f.f.V.nX                                                                                                                                                                                                                ",
"                                                                                                                                                                                                                                                                                                                                                                                                                . . . . . . . . . . . . . . . . . . . . . . O # 5 4 4 g N V j j N N N M j g g y 4 4 4 4 4 4 4 5 5 i 5 g g j Z F D D ~ ~ ^ o.o.+.+.O.5.5.6.-.x * X . . 0 t.(..X.XXX*X7XqX0XtXyXtXdXdXtXeXeXeXtXdXdXdXdXdXyXyXdXfXhXhXVX|.W 0 X + + X * k / ^ / / ^ ' z > 3 3 2 + . X                           d.d.d.Y.Y.Y.Y.d.#XBXBXCXmXCXDXSXSXGXGXGXGXGXGXGXKXKXJXLXLXKXGXGXGXSXAXZXCXCXCXZXCXCXCXZXAXCXvXf.f.f.f.f.nXnX                                                                                                                                                                                                              ",
"                                                                                                                                                                                                                                                                                                                                                                                                                . . . . . . . . . . . . . . . . . . . . . # # 6 i M N N N j j j j j j g g g i i 4 4 4 4 4 4 5 5 5 5 5 i g g V F D D ! ~ ^ o.O.+.O.4.5.%.E u & X X & * d R.oX.XXX*X*X7X0XeXdXtXyXdXdXdXtXtXtXtXdXyXdXdXdXfXfXgXjXjXjXhX(.U e X + o = > z ~ ^ ^ ~ E D u > 2 2 < + . X                         [ s.} Y.+XY.d.d.} #XBXBXBXmXmXDXSXSXGXGXGXGXGXGXGXGXKXKXLXLXJXJXHXGXSXAXZXCXCXCXCXCXCXmXZXAXCXvX+Xf.f.f.V.nXnX                                                                                                                                                                                                              ",
"                                                                                                                                                                                                                                                                                                                                                                                                                . . . . . . . . . . . . . . . . . . . . # 2 5 m M N Z V V j j j j j g g g g i i 5 5 5 5 4 4 5 5 5 5 5 g g j N Z F F D E ^ o.O.O.:.4.6.9.C X X X X ^ 0.i.!..X.X.X.XXX8X9XaXdXdXtXtXdXdXtXtXtXdXdXdXdXdXdXfXfXfXgXgXjXhX.X,.L 0 = : > p C ~ ~ ~ C h h y : = # # # . .                         [ s.} U.+X+XU.d.} U.#XBXBXmXmXCXAXDXSXGXGXGXGXGXGXGXKXKXJXJXJXJXHXGXSXAXZXCXCXZXZXZXZXCXCXZXCXvX+X+XV.f.f.V.f.                                                                                                                                                                                                              ",
"                                                                                                                                                                                                                                                                                                                                                                                                                . . . . . . . . . . . . . . . . . . . + 2 i m M B Z Z V N j j j j g g g g g g g i i 5 5 5 5 5 5 5 5 5 g g j N V x x c L W O.4.4.>.4.&.-.x . . . X 6.{.].(..X.X.X.X,X:XiXaXkXaXaXeXaXaXeXtXdXdXdXdXdXdXdXdXfXfXfXgXgXhX.X1.O.c h i h h z C E C x z g 4 : = # # # . +                         [ [ } d.Y.Y.d.d.} } Y.#X#XBXBXmXbXUXAXHXGXGXGXGXGXGXGXKXKXJXJXGXAXFXFXAXAXZXZXAXZXAXAXCXCXCXnX+X+X+X+X+Xd.s.g.                                                                                                                                                                                                              ",
"                                                                                                                                                                                                                                                                                                                                                                                                                . . . . . . . . . . . . . . . . . . + = 5 m N F Z Z Z V j j j h j g M N M j g g i i i 5 5 5 5 5 5 5 5 5 g g j j x C E Q ( +.5.8.q.q.W q & . . . X a _ i.D.Z.Z.Z.3.Z.Z.H.H..X:X9XaXaXaXaXdXdXdXdXdXdXdXdXdXfXfXgXgXgXfX.XT ( R N A Z u 0 u k C D A h 4 : = < # # . +                         { [ } d.Y.U.d.d.d.U.Y.OX#XBXBXmXnXbXFXGXGXGXKXGXGXGXGXGXKXJXJXSXUXnXmXZXAXZXZXZXmXCXZXbXvX+XV.f.+XnX#X+Xd.{ s.                                                                                                                                                                                                              ",
"                                                                                                                                                                                                                                                                                                                                                                                                                . . . . . . . . . . . . . . . . . + = i B Z D D F F Z N N j j j N N V Z Z N g g g g 5 5 5 5 5 5 m m i 5 i g j x S ~ o.o.+.+.5.0.c.M.$.& . . . . . X % t <.i.,.<.U  . . .T  .Z.Z.H.*X:X9XeXaXdXdXdXdXyXyXdXdXfXgXgXgXhXH.Y W c h F D y & 0 u C D V i 4 2 : 7 # # . +                         { { { } Y.Y.d.U.U.Y.Y.OXOXpXUXnXmXnXmXUXmXBXFXAXGXGXKXKXKXKXKXGXCXbXCXAXAXZXZXZXmXCXCXvXg.g.{ s.Y.#X+X+Xs.{ {                                                                                                                                                                                                               ",
"                                                                                                                                                                                                                                                                                                                                                                                                                . . . . . . . . . . . . . . . . o 3 g Z G D D F F F Z V N j j N V V Z Z V M g g g g 5 5 5 5 5 5 m m m g y u z S ~ o.o.O.+.>.8.z.%.$.! = . . . . . X X ; L 5.O.( P P U U U X.,.U Y 1.C..X8X9X0X0XeXeXeXtXyXfXgXgXgXfXhX~.Y W C j N N = o > h Z F V i 4 2 7 # # # . o                         R { { } Y.Y.U.U.U.Y.Y.OX$XpX#X#XnXnX#X#X#XnXBXIXKXKXKXGXGXGXGXSXAXFXAXAXAXZXZXCXUXFXCXnXs.s.{ { Y.#X#X+X{ n Z                                                                                                                                                                                                               ",
"                                                                                                                                                                                                                                                                                                                                                                                                                . . . . . . . . . . . . . . . . = g Z D F Z Z Z Z V V N V V Z Z Z Z V V M g g i i 5 5 5 5 5 5 5 m m m g f f x ~ o.o.O.O.>.5.5.%.w & o X . . + + X . X X * v l 0 & & * * 9 e e e r U D.[.oX,X:X*X9X0X0X0XyXgXgXgXgXhXhX~.I R A y = % X X > j Z Z N i 4 2 # # # + . X                         n R { } Y.Y.U.U.U.U.Y.#XpXBX#X#X#X#X#X#X#XBXBXIXIXGXIXAXSXSXSXSXSXAXAXAXAXZXZXbXvXbXUX+Xs.{ { } +X#X#XV.{ n n s.                                                                                                                                                                                                            ",
"                                                                                                                                                                                                                                                                                                                                                                                                                . . . . . . . . . . . . . . . + = i V Z A V j j h h j V F D D F F Z N M g i 5 5 i 5 5 5 5 5 5 5 5 g g j j k c o.%.%.4.4.8.q.o.u X . . . . = > - % X X . X - q & . . . . . . X X % 9 l U U <.Z.H..X7X7X7XeXgXgXgXgXfXsXy.r 0 3 o . . . . : N Z V h 3 4 2 # # # + + %                         n R { d.Y.#XY.U.U.U.Y.#XpXBX$XOX#X#XOX#XpXpXpXBXBXAXAXFXAXSXSXSXSXAXZXZXZXCXUX+Xg.d.b.{ | R { d. X#XY.b.d.n n s.                                                                                                                                                                                                            ",
"                                                                                                                                                                                                                                                                                                                                                                                                                . . . . . . . . . . . . . . . $ = 4 V Z V z x f f h j V F F F Z Z N M g i 5 5 5 5 5 5 5 4 4 6 2 6 4 y f f v E o.&.4.5.4.5.9.S o . . . . o z C k 0 * X . . o = + . . . . . . . . . . X X ; 8 t U C..XL.P.tXjXgXgXfX*XH.P % X . . . . . . : N Z V u 4 4 : # # . + o                           n A [ Y.Y.Y.Y.U.U.U.Y.OXOX8XpXlXpXOXS.OXpX$XOXOXBXFXAXAXAXAXFXFXCXCXCXCXCXUXnXd.{ d.Y.} { { { b.#X#XY.+Xb.n n s.                                                                                                                                                                                                            ",
"                                                                                                                                                                                                                                                                                                                                                                                                                . . . . . . . . . . . . . . . $ = g D D C V x V x V V V Z Z V V j g g i 5 5 5 4 5 5 5 5 4 3 2 3 4 4 g x S / o.&.5.0.r.5.) E > . . . . . - ^ $.( W a * X . + X . . . . . . . . . . . . + o X % e H H.*XcXyXgXgXgXhXJ. .W & . . . . . . . # y j N N i 4 = . . . =                             p a { } } Y.Y.U.U.U.Y.OX%XOX8XlXlXOXS.OXXXOXS.%XpXBXAXFXBXmXbXmXmXbXCXZXZXUXnXs.s.@XUX@XY.b.b.b.#X#X Xb.[ n n s.                                                                                                                                                                                                            ",
"                                                                                                                                                                                                                                                                                                                                                                                                                . . . . . . . . . . . . . . . # = g ` D F F F D D D Z V x N j h i i y 4 4 4 4 4 5 5 5 5 5 4 i M j V C S / o.&.5.8.r.c.l.R & . . . . . X 8 L O.:.O.K e 8 * % X . . . . . . . . . . . . . + . . ; s S.9X0XdXgXgXgXhXH.I z o . . . . . . . + = y j M g 5 # . . .                             n - - n | | Y.#XY.U.U.Y.#XOXOXXX8X8XOXS.S.S.S.I.S. X#XnXnX#XnXmXUXCXCXZXAXFXCXCXvXd.nXUX#XY.Y.b.} Y.@XY.{ n p n s.                                                                                                                                                                                                            ",
"                                                                                                                                                                                                                                                                                                                                                                                                                # . . . . . . . . . . . . . . + o i ` ` D D D D ~ D Z V j j u y y y y 4 3 3 4 4 4 4 5 5 m B Z D ! ` ~ / Q o.O.8.w.r.0.l.~ + . . . . . 8 r I <.<.,.<.U _ w.%.* X . . . + . . . . . . . . . X 9 e Y 8XaXdXgXgXgXgXhXe.9 X . . . . . . . . # 3 4 i i i 4 o . . .                             n - - p s | Y.#X#XU.U.Y.Y.Y.OX%XOX8X0XqX7XXXXX%XK.OX XY.Y.Y.#XnXBXCXCXCXFXCXCXFXUXd.Y. XY.} } r.} Y. XY.[ n n n                                                                                                                                                                                                               ",
"                                                                                                                                                                                                                                                                                                                                                                                                                = . . . . . . . . . . . . . . . + g #.] D ` ! V Z F Z V j g i y y 4 4 3 3 5 4 4 4 5 5 5 m B D ! ` #.~ / Q +.+.,.8.8.6.-.Z . . . . . X v U Y  .1.C.H..X.X5X1Xl X . . . . . . . . . . . . . * r.F.J.0XdXdXfXgXgXfXaX_ % . . . . . . . . . . # = 2 : = 2 $ . . +                             a - = - 8 | Y.#XY.} } } } } Y.S.S.8XdXkXkXkXgXdXlXpXpXOXS.S.Y.Y.#X+X+X+XnXnXbXCXnXd.{ } } } } 7.r.Y. X Xb.{ ! n                                                                                                                                                                                                               ",
"                                                                                                                                                                                                                                                                                                                                                                                                                o . . . . . . . . . . . . . . o = u D ` ` @.! z j V Z V N h u y 4 3 3 3 6 6 5 4 4 5 5 i g V D ~ ~ ^ ^ W ( +.,.i.8.8.&.D : . . . . X ; K <. .C.J.J..X9X9X0X:X2.l - X & u v 0 & X . . . . X 8 A.*XqXdXkXkXfXfXfXfXpXI X . . . . . . . . . . . + = # . o . . . +                             a - & = ; s { } { } } } { } d.} 1.K.7XwXyXyXwXqXXXOXOXOXK.H.Y.S.} } { } U.Y.+XnXb.{ { { } } } } Y. X XY.b.s.h.]                                                                                                                                                                                                               ",
"                                                                                                                                                                                                                                                                                                                                                                                                              + . . . . . . . . . . . . . # # 2 y i Z ` #.*.! j j V V N g i y y y 4 4 4 5 4 5 5 4 i i i h V D ~ ^ ^ W W ( >.8.8.8.q.W > . . . . X 9 8 I 1...J.L.K.7XdXdXkXhXiXoX) 8 d 5./. .d , . . . & l Y J.0XyXdXdXkXfXfXdXhXpXU X . . . . . . . . . . . . = # . + . . . +                             0 ; o + % - s s | Y.Y.} | { } } } T S.$XqXwXwX7XP.P.P.XXXXP.K.S.S.} } } Y.Y.Y.U.{ | } { } } } } Y.Y. XY.d.[ b.b.                                                                                                                                                                                                              ",
"                                                                                                                                                                                                                                                                                                                                                                                                              . . . . . . . . . . . . # 2 2 3 4 i V ' h.*.#.D j j j j g i i i y y 4 4 4 5 5 5 5 i i i h h x E / ^ Q ( +.+.8.t.t.q.9.c X . . . . * v t Y 1.I.J.XX*XqXdXdXdXfXhXsXe.t Y C.L.C.<.l X $ X l =XiXdXkXkXkXkXkXfXfXfXhXpXU X . . . . . . . . . . . . = # + + . . . o                               * % X + = 8 s | Y.Y.} | { } { { U } S.P.wXkXdXdXtXdXkXkXdXlXlX8XOXOXOXOXOXOXY.} T } } } } Y.b.Y.Y.Y.Y.d.[ N.                                                                                                                                                                                                                ",
"                                                                                                                                                                                                                                                                                                                                                                                                              . . . . . . . . . . . # 2 4 4 4 4 y D h.h.#.D V h i i i i i 4 4 4 4 4 3 4 5 i i m M N V C c C ^ o.) _ O.0.r.8.t.t.9.$.k X . . X * J :.T 1.J.J.L.9X0X0XdXdXdXdXdXaXXXJ.,X*X7X*X.X<.* & ; K 5XhXkXkXkXkXkXgXkXfXfXhXsXU X . . . . . . . . . . . . . + . + . . . o                                 > X X X & 8 R d.b.} | { } { { | Y T I.pXgXgXjXjXjXjXjXjXjXVXkXpX8X8X$X$X$XpXOXC.} } } Y.Y.Y.Y.Y.Y.b.} { N.                                                                                                                                                                                                                ",
"                                                                                                                                                                                                                                                                                                                                                                                                            + . . . . . . . . . . # # = 2 3 3 4 y j D D h u u y 4 4 y i i 4 4 4 4 3 3 5 i g m M V F D ~ ^ ) %.4.>.:.8.y.n.t.8.t.o.e & . . . % 9 ( ,. .C.L.L.7X0X0XtXdXkXdXdXdXdXaXaXaXeX0X0X>X1.e e s Y iXdXdXkXkXkXkXgXgXgXgXkXsXP . . . . . . . . . . . . . . . . . . . . o                                 y + X . X % a R { [ { } b.} { | | Y T OX0X0XqXwXkXgXgXkXkXkXlX0X0X0X0XqX8XpXXXI.} } } } Y.Y.b.Y.b.} { { b.                                                                                                                                                                                                                ",
"                                                                                                                                                                                                                                                                                                                                                                                                            # . . . . . . . . . @ # # # = 2 2 3 3 > y 0 > > 3 3 4 4 4 i i i i i 4 4 3 5 g g M N Z D ~ $.$.&.5.8.8.,.w.D.T.y.8.0.c X . . . X 0 e I <...C.L.P.cXqXwXdXdXkXdXdXdXdXdXdXdXwX0XqX*XC.H Y 1.J.0XkXkXgXgXgXkXkXkXgXgXhXpXL . . . . . . . . . . . . . . . . . . . . o                                 p o X . . X p a a { { } b.} [ } } } U } OX$XP.7XyXkXdXwX0XqXqXwXdXkXdXlXwX0X$XI.T T } } Y.Y.b.b.} { | { d.                                                                                                                                                                                                                ",
"                                                                                                                                                                                                                                                                                                                                                                                                            . . . . . . . . . . # # # # # : 2 3 3 3 3 > > > > 3 3 4 4 i i i i i i i i g j j N Z Z D ^ ) o.4.8.r.w.w.e.D.T.t.4.=.u . . . . > E I _ 3.C.J.*X7XP.qXdXdXdXfXfXkXfXfXdXkXdXdXdXdXdXaX>XiXsXaXkXfXgXgXgXgXkXgXgXgXgXhXpXP . . . . . . . . . . . . . . . . . . . . o                                 0 & X . . + i i p n R R { | J _ i.A.T T K.$XXX$XwXkXdXwXqX$XqXdXkXkXkXkXdXlX0XK.S.S.} S.Y.Y.} } { a a n                                                                                                                                                                                                                   ",
"                                                                                                                                                                                                                                                                                                                                                                                                          . . . . . . . . . . # # # # # 2 2 3 4 3 3 3 3 4 3 3 4 4 5 i i m m m m g g g j j V V F D ! ^ o.O.5.r.u.e.e.e.D.T.c.W z & . . . . u ^ _ u.~.H..X9X7X7X0XdXdXdXfXfXgXfXfXfXgXgXjXgXjXjXhXjXjXhXgXhXgXgXgXgXgXgXgXgXgXgXjXpXP X . . . . . . . . . . . . . . . . . . X &                                 0 & X . . + 3 i = - p a a e s s Y C.I.K.XX$XP.P.wXkXdXwXqXqX0XlXwXqX0X0XlXkXlXXXOXOX%XOX#XY.} | s s n {                                                                                                                                                                                                                   ",
"                                                                                                                                                                                                                                                                                                                                                                                                          . . . . . . . . . # # # # # 2 2 2 3 4 4 3 4 i i 5 4 i g g g g M N N N N j j j j V Z D ~ ~ ^ %.4.8.u.e.e.e.e.y.Q.z.k X . . . . . 0 J I 1.H.J.XX9XqXqX0XdXdXdXkXfXjXjXjXjXjXjXjXjXgXjXjXgXgXgXgXgXgXgXgXgXgXgXgXgXgXgXgXpXU X . . . . . . . . . . . . . . . . . . + =                                 0 ; X . . X = > o o - u u e 8 s Y S.OX$X8X8X$X$XwXdXlX0X0X0X0X8XXXP.XX7X7X8X8XK.%X%XOX#X#XY.{ | s s {                                                                                                                                                                                                                     ",
"                                                                                                                                                                                                                                                                                                                                                                                                        . . . . . . . . # # # # # < 2 2 2 2 3 3 3 3 4 i i g i g M N N j N N V V V j V V V Z D D ! ^ o.4.q.q.u.u.e.e.e.y.m.9.u X . . . . X * r d Y C.S.P.0X0X0X0XtXdXdXdXfXjXjXjXjXjXjXjXjXjXjXjXjXjXjXgXgXjXjXgXgXgXgXgXgXgXgXfXiXU X . . . . . . . . . . . . . . . . O . o 3                                   - o . . . o # X X & p u u 0 s T %X$X$XP.XXXX$X0X0X7X7X7X7XqX7XP.P.XXXXP.P.%XS.S.S.OX#X#XY.{ R n a                                                                                                                                                                                                                       ",
"                                                                                                                                                                                                                                                                                                                                                                                                        . . . . . . . # # # # 2 2 2 2 2 2 6 3 3 3 3 4 i i g g j N N N N N V V V V V V j j x ! ! ~ ^ o.4.8.8.w.u.e.e.e.r.z.^ > . . . . o * w K H T F.J.P.0X0X0X0XtXyXdXdXfXjXjXjXjXjXjXjXjXjXjXjXjXjXgXgXjXjXjXjXgXgXgXgXgXgXgXgXiXT ; X . . . . . . . . . . . . . . . . # =                                     0 = . . . X X X X & p l c w t T K.P.P.%X%X%XP.P.P.K.%X%XK.XX$XXXK.K.K.XXXXK.S.S.~.#X#X X} | R { [                                                                                                                                                                                                                       ",
"                                                                                                                                                                                                                                                                                                                                                                                                      . . . . . . . + # # # < 2 2 2 2 2 2 2 3 3 3 4 5 i g g g j M N V V A C F C V V V j f j S ! ^ o.&.5.8.8.w.w.e.T.n.r.Q 0 X . . . o u c R ( U 3..XL.7X0X0X0X0XeXyXdXdXkXhXjXjXjXjXjXjXjXjXjXjXjXjXjXjXjXjXjXzXjXzXzXjXjXjXjXjXaX.X5.a + . . . . . . . . . . . . . . . + 2 i                                     = . . . . . . X - a R Q v t T K.P.P.P.P.P.P.P.cXP.K.%XK.XXXXP.P.J.J.XXXXH.C.A.Y. XY.} | n R {                                                                                                                                                                                                                         ",
"                                                                                                                                                                                                                                                                                                                                                                                                      . . . . X . . + # # # 2 2 2 2 2 2 2 2 3 4 4 i i g g g g g M N Z F D D F C V V x z j x S ~ $.%.&.5.5.8.2.2.e.y.n.z.v X . . . . & c J W ( U C.OXL.7X0X0X0XeXeXtXdXdXdXfXgXjXjXjXjXjXjXzXjXjXjXjXjXjXjXzXzXzXzXzXzXzXzXzXzXzXdX>X|.^ = . . . . . . . . . . . . . . . + # =                                     & X . . . . . X - a W _ Y H T OXXX$X7XqXqXqXqXqXqX7X$X7X8X8X7X7XP.K.XX.XS.1.T.b.{ | | R { { {                                                                                                                                                                                                                         ",
"                                                                                                                                                                                                                                                                                                                                                                                                    o . . . . X + + # # # # 2 2 2 2 2 3 4 4 5 i i i i m g g g j M V Z D D D F C x V V x D ! @.$.;.&.%.O.:.,.2.2.w.r.&.~ 0 . . . . . * v J P _ T C.L.L.*X0X0X0XeXeXeXdXdXkXkXfXhXhXjXjXzXzXjXjXzXzXjXzXzXzXzXjXzXzXzXzXzXzXzXzXzXfX9X|.W X . . . . . . . . . . . . . . O + + X                                       X X . . . . X - a [ 5.i.T } A.S.K.7XqXwXqXqX0XwX0X0XwXlX9X7X8X0X8XXXoX~.r.7.[ a s | [ d.                                                                                                                                                                                                                            ",
"                                                                                                                                                                                                                                                                                                                                                                                                    + . . . . + + # o # # 2 2 4 4 4 5 i i i i i g g g g g j j j V Z D D D D C C F S ! ~ ^ @.o.$.o.%.O.O.:.,.2.2.u.q.k * o . . . . X * l J I U T C..XP.7XeX0XeXeXeXeXtXdXdXkXfXfXhXjXjXjXjXjXjXzXzXzXzXzXzXzXzXzXjXjXzXzXzXzXzXzXfX9XoXJ X . . . . . . . . . . . . . O # + + $ 3                                     > > . . . . X * a [ T.Q.A.7.T Y ..7XwXwXqXqXqXqXqXqXqX8XXXI.P.pX8XH.A.u.7.| a a a | d.                                                                                                                                                                                                                              ",
"                                                                                                                                                                                                                                                                                                                                                                                                  + . . . . . . + # = 1 2 2 4 5 g m m m m g g g g g g g g j N N V Z D D D C C D ! ~ ' @.^ ^ ^ ^ o.o.+.:.<.2.e.u.r.z.f X . . . . . X 8 t H Y T T C.*X7XqXeXeXeXeXeXeXeXdXdXdXfXfXgXhXjXjXjXjXjXjXjXzXzXzXzXzXzXzXjXjXzXzXzXzXzXjXaX,X|.C . . . . . . . . . . . . . . # # O . $ y                                       y + . . . X - w [ _. XT.i.T Y ..7XwXqXqX7XcXP.P.P.P.P.K.I.L.:XOX1.} 7.[ a e a a |                                                                                                                                                                                                                                 ",
"                                                                                                                                                                                                                                                                                                                                                                                                  . . . . . . . + # 3 4 5 i i g m B M M M M g g g g g j j N V Z Z F D ! D C E ~ ' ' @.@.^ ^ ^ ^ $.+.4.r.u.e.D.r.o.*.y . . . . . X 9 e H Y T C.S.L.8X7X0XeXeXeXtXeXeXeXtXdXdXfXfXfXfXhXjXjXjXjXjXjXzXzXzXzXzXzXzXzXzXzXzXzXzXjXhX9X!.m.u . . . . . . . . . . . . . . # < @ . + :                                         X . . . X ; 8 P T.~.Q.u.<.T C.8X0XqX7XcXP.P.P.P.P.XXK.H.oX Xu.U ( [ ^ C a R {                                                                                                                                                                                                                                   ",
"                                                                                                                                                                                                                                                                                                                                                                                                . . . . . . . + # : 4 i g g g M B N N M j M j j g g j j N V F D D D ! ! E ! ~ ' @.@.' ^ ^ ^ o.o.%.O.5.y.A.F.R.8.e - X . . . . . p l H <.3.H.*X8X9XqXqX0X0X0XeXeXtXeXeXeXtXdXdXfXfXfXgXgXgXgXjXjXjXjXzXzXzXzXzXzXzXzXjXzXzXjXhXhXoXU k % . . . . . . . . . . . . . . < 7 # O . = >                                       X . . . X ; 8 t _ u.A.T.u.1.J.9X0X7XXXXXP.P.XX7X7XXXS.1.u.7.P H r a p p a { [                                                                                                                                                                                                                                   ",
"                                                                                                                                                                                                                                                                                                                                                                                                . . . . . . + # : 3 3 5 g j M N N N N j j g m M g g j j N V F D D F ! ~ ~ ' ' ' ^ ^ ^ ~ E / o.&.&.8.e.D.F.R.W.0.* . . . . . . X h J Y 1.S.L.8X7XqXqXqXqXqX0XeXeXtXeXeXeXtXtXdXdXfXfXfXhXhXgXgXgXjXjXjXjXjXjXjXzXzXzXjXjXjXhXpX4X,.; X . . . . . . . . . . . . . . O < 7 # O . # =                                       % X . . X 0 w t U <.u.T.R.S.H.iXpXXXL.P.XXP.*X8X8X:XH.U P W C a q 0 8 e R {                                                                                                                                                                                                                                     ",
"                                                                                                                                                                                                                                                                                                                                                                                                . . . . . . . o 3 5 y g j j j N N j j j j g M M g h h g j j V V x x S D S ! ~ ~ ~ ^ / / E ^ %.9.5.y.R.R.~.!.W.9.& . . . . . . X q d H ..C.L.7XqXqXqXqXqX7XqXeXtXtXtXtXtXtXtXtXdXkXfXfXgXgXgXgXgXgXgXjXjXjXjXjXjXjXjXjXhXkXpXG.<.a . . . . . . . . . . . . . . . . # 2 6 < . . . =                                         & & . = D / R _ ,.<.3.A.F.H.8XiX*XL.L..XXX*X9XpXpX5Xy.) [ S A h u 0 s {                                                                                                                                                                                                                                       ",
"                                                                                                                                                                                                                                                                                                                                                                                                . . . . . . = 2 i j j N V j j j j h j j j g M M N j g j j j z j x V S S S D ~ / ~ ~ / ^ o.&.9.q.8.e.R./.(.~.].k.& . . . . . . X > e t ..S.L.qXqXqXqXqXqXqXqX0XeXtXtXtXtXtXtXtXtXdXdXfXfXgXgXgXgXjXjXgXjXjXjXjXgXgXgXhXaX,X[.X.e X . . . . . . . . . . . . . . . . # 6 6 7 O . . =                                           y X = ! ^ a K <.T 1.S.S.S.XX:X.XH.K..X.X.X:X,X;XoXr.) ' C A z z a a                                                                                                                                                                                                                                         ",
"                                                                                                                                                                                                                                                                                                                                                                                              + . . . . . # 4 g j N j x x x x x j h h g M M j N F Z Z Z Z V V V F S ! ~ ~ ^ ^ ^ ^ ^ o.;.&.9.q.q.8.p.R.(.[.W.v.$.+ . . . . + = = 0 e d 1.C.L.9XqXqXqXqXqXqXqXqX0XeXtXtXtXeXeXtXtXtXdXdXgXgXgXhXhXjXjXgXgXjXjXgXgXgXdXaXL.U v , . . . . . . . . . . . . . . . . . . + 5 5 2 O . . =                                             X X p p 8 s T 1.~.oX~.S.OX.X.XH.OX.X(.A...T 1.u.O.^ / C A a p C                                                                                                                                                                                                                                           ",
"                                                                                                                                                                                                                                                                                                                                                                                          + + . . . . . . o 4 j N N j j j x x x j j j j N V V F G ` ` D F F V S D ! ~ ^ ^ ^ ) ) o.o.%.&.9.q.q.8.u.R.(.[.oX`.6.k . . . . . o > > q e t U 3..X9X0XqXqXqXqXqXqXqXqXeXtXtXeXeXeXtXtXtXtXdXfXgXhXhXjXjXjXjXjXjXjXgXgXdXeXaX!.t X . . . . . . . . . . . . . . . . . . . # 5 5 2 . . . =                                             X X X X % s T C.oXpXoXF.~.OX.X.X.XoXoXF.T Y :.0.O.W E R R a a                                                                                                                                                                                                                                             ",
"                                                                                                                                                                                                                                                                                                                                                                                        . . . . . . . . # 3 i j N j j j f z x x x x V Z F F D ` ` ` ` ! ~ ! D D ! ~ ~ ^ o.o.o.%.&.&.9.q.t.t.w.w.e.(.oX(.].m.~ > . . . . . & 3 p u u 8 t Y H.iX9X9XqXqXqXqXqXqXqXeXtXtXtXtXeXeXtXtXtXtXdXgXhXhXhXjXjXjXjXgXgXgXgXaX9XiXE.e X . . . . . . . . . . . . . . . . . . . o 5 5 2 @ . . =                                             & X X X % 8 Y 1.A. XT.A.A.~.~.~.oXoXoX|.v.7.z.z.$./ R C ! R a                                                                                                                                                                                                                                             ",
"                                                                                                                                                                                                                                                                                                                                                                                    . . . . . . . . . o 3 2 y g f f f f f x x V V F D ! ! ! ~ ~ ~ ~ ~ ~ ' ^ ~ ~ ^ ^ ) $.%.&.4.4.9.q.0.c.M.t.y.D.R.[.oX(.Q.) > . . . . . . : y u f 0 * 8 e U Z.H.*X9X0X0X0X0XqX0XeXtXtXtXtXtXtXtXtXtXtXdXfXgXgXhXjXjXjXjXkXyXdXdX.XG.T.J & . . . . . . . . . . . . . . . . . . . . = g g 3 @ . . #                                             & + X o 0 r _ r.u.u.1.1.A.R.A.C.Z.A.Z.T.v.4.&.) R v c c ! [ R                                                                                                                                                                                                                                             ",
"                                                                                                                                                                                                                                                                                                                                                                                  . . . . . . . . + + > i y y f f f x x V S S D ! ! ! ~ ~ ~ ~ ~ ~ ~ ~ ~ ^ ^ ^ o.$.$.$.&.9.9.q.q.0.0.t.t.c.y.T.(.[.oX[./.m.c . . . . . . . > y p u p - - w d H T .XiX0X0X0XqXqXqX0XeXtXtXtXtXtXtXtXtXtXtXdXfXgXgXjXjXjXfXdXtXdX9X..Y ) u . . . . . . . . . . . . . . . . . . . . . 4 Z Z g = $ . o m                                           - X X o u z J ) _ :._ <.e.R.A.Z.3.1. .1.i.U P W P J v a C [ [                                                                                                                                                                                                                                             ",
"                                                                                                                                                                                                                                                                                                                                                                                . . . . . . . $ X o & y h h j j x c S S ! ! ~ ~ ~ ^ ^ ^ ^ ^ ~ ~ ~ ~ ^ ^ o.$.$.$.&.$.o.&.9.0.0.0.t.q.t.t.t.e.F.[.=X=X|.v.( > . . . . . . X > 0 q u u p u N x l H e.H.L.8X0XqXqXqXqX0XeXtXtXtXtXtXtXtXtXtXyXdXfXfXkXdXdXdXyXtXdX0XJ.1.W.$.o . . . . . . . . . . . . . . . . . . . . j #.] Z m 4 + $ 3                                           - + X o 3 > > & * t I <.y.R.!.!.~.~.A.F.Z.1.,.4.%.[ E u w c ^                                                                                                                                                                                                                                             ",
"                                                                                                                                                                                                                                                                                                                                                                              . . . . . + + 2 y > > p z x x c c c S S ! ! ~ ~ ^ ^ ^ ^ ^ ^ ^ ^ ^ ^ ^ o.o.$.$.*.%.%.o.o.4.0.t.t.t.q.q.t.w.w.u.D./.[./.E.5.* X . . . . . . X & > 0 q u u N A A z r H H Y H.9X0X0X0X0X0XeXtXtXtXtXtXtXtXtXtXyXyXdXyXdXdXyXyXyXtXtXaX9X>X5X).> . . . . . . . . . . . . . . . . . . . . z #.' Z y 3 # . . .                                         - X X o = > = X % 8 P ,.A.!.!..X4X5X,XoX.X~.A.3.5.6.[ u * 9 l                                                                                                                                                                                                                                             ",
"                                                                                                                                                                                                                                                                                                                                                                            . . . . . = 4 i g N V Z V S S S S D D ! ! E E E / ~ ~ ^ ^ ^ o.o.o.o.) ) o.o.o.$.$.%.%.&.4.9.0.0.0.q.q.q.r.u.e.D.R./.|.y.O.E & . . . . . . . o > p u u k z V C C c c d t Y !.iXiX0X0X0X0XeXeXtXtXtXtXtXtXtXtXtXtXtXtXtXtXtXtXtXtXtXtX0X9XiXE.q . . . . . . . . . . . . . . . . . . . X f ` ~ f * : o . . .                                         - % o & > 3 > - 0 R 0.y.T.R.H.H.9XaXiX8X:X:X!.2.7.&.^ 0 ; ; w                                                                                                                                                                                                                                             ",
"                                                                                                                                                                                                                                                                                                                                                                          . . . . $ : i m N j N F D Z V z V V x x V x x x x x C E ~ ~ ~ ^ ^ ^ o.$.o.o.o.o.%.%.&.&.6.9.0.q.q.q.q.q.w.r.u.R././.W.E.O.q = X . . . . . + & p V C C C S S E ~ / / W R d d <.F.H..X9X0X0X0XeXeXeXtXtXtXtXtXtXwXwXwXtXtXtXtXtXtXtXyXtX0XqX9XQ.q . . . . . . . . . . . . . . . . . . X % u ~ ~ f , y 2 . . .                                         * % % = > y p 0 a 6.m.T.R.R.F.H.iXaXaX9X:X;X~.5.O.[ C - ; ; p                                                                                                                                                                                                                                             ",
"                                                                                                                                                                                                                                                                                                                                                                        + . . . # 4 g M Z Z Z Z #.` V y > > > > = = & o & & & & = > - > 0 w k E %.%.%.o.O.O.%.&.4.9.0.q.8.8.q.t.t.r.2.u.R./.W.E.z.C X . . . . . . + = y C ~ / ^ ^ ^ ^ ^ [ [ ) ) ^ v e e d U !.>X8X9X0XeXeXtX0XwXwXwXwXwXwXwXwXtXtXtXtXtXtXyXyXtXrXqX>Xy.* . . . . . . . . . . . . . . . . . X > q z ^ ~ z q g 4 o . .                                         * % % & 0 p p - r 4.v.T.R.R.!.H.>X9X8XL.K.(.D.O.Q C 0 X % ; p                                                                                                                                                                                                                                             ",
"                                                                                                                                                                                                                                                                                                                                                                      $ . . . # 4 m B Z Z Z Z j N g y = o + . . + . . . . . . . . . . . X > u ! =.=.=.&.&.&.&.&.4.6.q.8.8.8.8.8.r.y.D.D.T.R.Q.q.J > . . . . . . . . . & c Q ( ( ( ( W W ) +._ _ ) W v 0 e U T.-X;X.X9XaXeXtX0X0X0X0X0X0XwX0XtXtXtXyXyXyXyXyXyXyXeXqX9Xt.& . . . . . . . . . . . . . . . . . X h E / o.) E z N i o . .                                         * ; % * u u u 9 e ) 0.v.Q.R.~.H.*X8X*XJ.C.Z.<.P R u o . X * a                                                                                                                                                                                                                                             ",
"                                                                                                                                                                                                                                                                                                                                                                    . . . . + : 3 4 g m m g 4 = o + + . . . . . . . . . . . . . . . . . . o > f S ~ ~ / / o.%.4.4.5.8.8.8.8.8.8.r.Q./.W.D.A.y.L % . . . . . . . . . . X k ( ( U _ _ U U X.<._ <.:.O.L e e d d P U T J..X*X0X0X0XqXqX0X0X0X0XwXtXyXyXyXdXdXdXdXfXdX9XiXv.& . . . . . . . . . . . . . . . . . % z ^ ) o.$.C h N i # . .                                         8 ; ; * u A k u d ( 5.r.T.Q.~..XiXaXpX,X.XF.:.L E h + . X * a                                                                                                                                                                                                                                             ",
"                                                                                                                                                                                                                                                                                                                                                                  . . . . . . # = : 3 2 : = $ . . . . . . . . . . . . . . . . . . . . . . . . . o = & * , v o.9.9.6.8.q.q.q.8.8.w.T.W./.R.D.v.J . . . . . . . . . . . X c 6.5.,.w.w.w.u.u.u.u.3.w.5.X.v l r * * e H <.G..X9X0X0X0XqX0X0X0X0XtXtXdXyXdXdXkXfXfXhXaX.X/.) o . . . . . . . . . . . . . . . o > * c $.O.%.$.C h N i + . . &                                       9 ; ; ; p A x C E ( _ <.1.Z.~..XpXhXhXiX;X/.<.J C g + . X & a                                                                                                                                                                                                                                             ",
"                                                                                                                                                                                                                                                                                                                                                                  . . . . . . . . . . . . . . . . . . . . . . . . . . . . . . . . . . . . . . . . . . . & q E k.6.9.t.t.t.t.t.r.w.u.T.(.(.R.E.E . . . . . . . . . . . . k %.5.y.D.A.D.F.F.R.R.R.T.D.u.X.( l , , , 9 K ,.F.(.>X9X:X7X9X8X7XqX0X0XeXtXtXdXdXdXdXkXiX<.r * . . . . . . . . . . . . . . . . y V k ) %.O.%.$.E j N i # . . &                                       * ; ; ; 0 u A / ) W H H Y 1.(.,XpXsXsXiX;XT._ K x y X . X &                                                                                                                                                                                                                                               ",
"                                                                                                                                                                                                                                                                                                                                                                . . . . . . . . . . . . . . . . . . . . . . . . . . . . . . . . . . . . . . . . . . . . . X , C E $.l.c.c.t.t.t.w.w.D.(.(./.`.$.. . . . . . . . . . . . X ; e _ u.e.Z.Z.Z.A.F.A.F.F.D.e.8.O.c z > & * r I H  .3...C.K.K.J.K.P.P.7XqXqXqX0X0X0XiX~.e X . . . . . . . . . . . . . . . . . u ^ ^ %.O.O.%.%.~ V N i + . . =                                       - ; % & - p C / ) ( P U <.A..X,X9XaXiX.X!.,.P J a & . . X %                                                                                                                                                                                                                                               ",
"                                                                                                                                                                                                                                                                                                                                                              . . . . . . . . . . . . . . . . . O . . . . . . . . . . . . . . . . . . . . . . . . . . . . . X * q E *.&.4.c.c.t.u.e.R.(.(./.`.^ . . . . . . . . . . . . . X ; P 8.1.3.C.C.C.Z.C.Z.Z.Z.Z.e.y.5.E q * & * 9 e v I I T F.~.H.K.XXXX8XiX9X0X0X0X9XiXv.; . . . . . . . . . . . . . . . . . X k $.) O.+.O.&.$.~ x N i + . . =                                       * % X ; - p x W ) ) 5.T.!..X:X*X:XiX,X~.W.,.( [ E > . . . %                                                                                                                                                                                                                                               ",
"                                                                                                                                                                                                                                                                                                                                                              . . . . . . . . . . . . . . . . . . . . . . . . . . . . . . . . . . . . . . . . . . . . . . . X X X > u w J z.n.y.y.D.R.(.(.(.`.o.X . . . . . . . . . . . . . X q v U 2.C.3.C.C.C.Z.Z.Z.Z.Z.A.r.( r 9 * & * * q f k c %.t.y.D.!.!.oX4X*X8XiX>X;X2X4.X . . . . . . . . . . . . . . . . X ; J $.o._ o.&.&.*.~ z M i $ . . =                                       & X X % * p k E ) :.v./.oX;XiX>X8XiX.X/.].5.Q ~ ' i . . . %                                                                                                                                                                                                                                               ",
"                                                                                                                                                                                                                                                                                                                                                              . . . . . . . . . . . . . . . . . . . . . . . . . . . . . . . . . . . . . . . . . . . . . . . . . . . X % r l.m.n.y.D.D.R.~.(.].c.q . . . . . . . . . . . . . . . X r ,.e.3.3.3.3.3.3.e.3.3.e.u.<.U L k 0 * X . X . X & > 0 e t t U 1. .1.3.1.T +.k . . . . . . . . . . . . . . . . X , 9 L O.o.( ( &.=.-.' N j 5 $ . . *                                       & X X & - w l E ( 4.T.~..X:XiX:X:X5X~.A.T.O.E C V 3 . . . &                                                                                                                                                                                                                                               ",
"                                                                                                                                                                                                                                                                                                                                                            . . . . . . . . . . . . . . . . . . . . . . . . . . . . . . . . . . . . . . . . . . . . . . . . . . . . . . X z &.0.r.y.D.F.F.!./.E.O.c = . . . . . . . . . . . . . . , _ w.2.3.2.1.1.3.e.3.3.3.Z.u.w.,.X.E f * . . . . . . . . . X u Q P P ( W v q o . . . . . . . . . . . . . . . . > c J Q +.O.o.) $.*.$.D g g 4 $ . .                                         & X X u x z E ) ( 5.y.A.G..X:X.X.X,XF.<._ P J k - + . . X &                                                                                                                                                                                                                                               ",
"                                                                                                                                                                                                                                                                                                                                                            + . . . . . . . . . . . . . . . . . . . . . O O O . . . . . . . . . . . . . . . . . . . . . . . . . . . . . . X x ;.6.n.W.R.R.!.!.Q.y.c.h . . . . . . . . . . . . . . X e U >.w.2.1.1.1.3.C.Z.A.Z.C.e.u.,.+.W z * . . . . . . . . . = u p p u u 3 = . . . . . . . . . . . . . . . . . q *.6.O.+.O.o.) $.^ S j 4 4 2 . . .                                         * X % D ] R [ ) ) 5.A.Z.C.H..XH..XoXZ.H I J J q X . . . + &                                                                                                                                                                                                                                               ",
"                                                                                                                                                                                                                                                                                                                                                            . . . . . . . . . . . . . . . . . . . . . . . . . . . . O O . . . . . . . . . . . . . . . . . . . . . . . . . . & u x %.r.e.W.R.R.!.R.v.J q = . . . . . . . . . . . . . & e J 5.u.1.1.1.1.Z.F.~.F.Z.Z.Z.w.,.:.) a & . . . . . . . . . . . . . . . . . . . . . . . . . . . . . . . . . u 9.l.6.O.+.o.) ^ S h y 3 2 = . . X                                       z & X % a c l Q _ <.u.A.H.~..X.XH..XoXF.H K W ! u X . . . + -                                                                                                                                                                                                                                               ",
"                                                                                                                                                                                                                                                                                                                                                            . . . . . . . . . . . . . . . . . . . . . . . . . . . . . . . . . O O O @ . . . . . . . . . . . . . . . . . . . . . X * e _ E.R.R.~.~.Q.r.c.E X . . . . . . . . . . . . X X ; K ,.u.e.3.3.Z.H.(.(.H.H.Z.Z.u.w.4.W a > . . . . . . . . . . . . . . . . . . . . . . . . . . . . . . . . k 9.0.9.&.+.( J x h > : = o + X &                                         e % X % * e r K U ,.A.A.H..X:X.X.X.XoX/.U ( $.*.! = . . . o -                                                                                                                                                                                                                                               ",
"                                                                                                                                                                                                                                                                                                                                                            . . . . . . . . . . . . . . . . . . . . . . . . . . . @ @ @ . # # # # # # # # # # # . . . . . . . . . . . . . . . . + X ; / ).E.T.W.T.R.W.].O.; . . . . . . . . . . . . . . . w >.A.R.!.F.J.H.H.H.H.H.C.C.e.w.i.>.) ^ - . . . . . . . . . . . . . . . . . . . . . . . . . . . . X X X l &.&.O.+.+.o.E z u > : o X X %                                           0 ; ; ; 9 r a K I i.!.~..XoX:X:X.X.X(.T.I P $.h.#.3 . . + = -                                                                                                                                                                                                                                               ",
"                                                                                                                                                                                                                                                                                                                                                              . . . . . . . . . . . . . . . . . . . . . . . . O O . O @ @ # # # # # # # # # 7 # # . . O . . . O . . . . . . . . . . X 0 R ) 0.v.T.Q. X X,.K c q X . . . . . . . . . . . . 0 ) 0.A./.~.H.J.J.L..XH.J.S.Z.3.2.,.4.l.u . . . . . . . . . . . . . . . . . . . . . . . . = - X X u v r K ( ( ( _ &.6.=.` h y > o + o                                             u * - 0 p a l J P y.;X;X;X:X:X:XoX(.!.,.t r v D A = . . + i                                                                                                                                                                                                                                                 ",
"                                                                                                                                                                                                                                                                                                                                                              X . . . . . . . . . . . . . . . . . . . . . . . O O O O @ # # < < 2 2 2 2 2 2 2 2 # # . # # # 7 # . . . . . . . . . . . . X 0 ^ 6.7.T. XW.y.r.0.O.v h 2 . . . . . . . . . . X , w I R.oXL.K.K..XXX.X.XH.C.3.3.3.r.N.C . . . . . . . . . . . . . . . . . . . . . . . X x E r d ( +._ +.5.4.o.o.6.%.' S p 3 : o & -                                           c 0 - 0 p u a l J K 5.}.oX.XoXoX.X~.H.T.>.K k w 0 & + . . + V                                                                                                                                                                                                                                                 ",
"                                                                                                                                                                                                                                                                                                                                                                + . . . . . . . . . . . . . . . . . . . . . . . . . . O # # < 2 6 5 5 5 5 5 5 5 5 2 2 2 2 2 2 # . . . . . . . . . . . . . . > u l 5.8.w.y.y.w.5.P J a % X . . . . . . . . . . . e E.oXoX.XL.XXXXXXXX.XH.C.C.Z.y.6.a . . . . . . . . . . . . . . . . . . . . . X X & L o.( +.5.>.>.5.0.l.) W %.$.E f - = = o &                                             0 - - 0 u u a z a e t U U Y T <.1.Z.A.y.:.W c 0 & X . . . X                                                                                                                                                                                                                                                   ",
"                                                                                                                                                                                                                                                                                                                                                                  . . . . . . . . . . . . . . . . . . . . . . . . . . . # # 2 2 2 5 5 5 5 5 5 5 5 5 5 5 2 2 # $ . . . . O . . . . . . . . . . . , J K ( >.,.,.,._ I I l w ; X . . . . . . . . . & W u..X,XXXXXXXXXXX.XOXC.C.A.5.w % . . . . . . . . . . . . . . . . . . + o o X X * P >.>.>.8.8.5.5.0.l.^ k k u y - o o = %                                             9 * ; 0 p u u z z a e 8 s s s H Y T e.A.y._ c k > + . . . . X                                                                                                                                                                                                                                                   ",
"                                                                                                                                                                                                                                                                                                                                                                  # . . . . . . . . . . . . . . . . . . . . . . . . . . O # # # 2 7 # 2 6 6 5 5 5 5 5 5 5 2 2 2 : : = : 2 2 2 2 o . . . . . . . o - w Q K U _ <.u.2.w.r.5.K e * % X . . . . . . . % e e.;XXX*XXXXXXXXX.XA.C.T._ ; . . . . . . . . . . . . . . . . . . o = = f c k K >.8.i.,.>.5.4.4.6.-.E x u & X X X o >                                               * ; & 0 u u u z z c v ( i.i.e.A.A.A.T.T.c.o.E h = + . . o =                                                                                                                                                                                                                                                     ",
"                                                                                                                                                                                                                                                                                                                                                                    . . . . . . . . . . . . . . . . . . . . . . . . . . . . . . . . . . # # 2 5 5 5 5 5 5 5 5 4 4 4 i i g m m g 4 = . . . . . . . X & 0 * e d _ y.e.A.A.Z.1.<._ J c 0 X . . . . . X % ( R.(.,X*XXXXXXX.XC.Z.A.W X . . . . . . . . . . . . . . . . . . = > q W 6.4.>.8.8.,.>.>.:.O.) Q E u y > o X . X %                                                 & % & , 0 u u a z C ( y.(.oX;XoX~.F.Q.T.>.L V 4 o . . X 0                                                                                                                                                                                                                                                       ",
"                                                                                                                                                                                                                                                                                                                                                                    . . . . . . . . . . . . . . . . . . . . . . . . . . . . . . . . . . . < 2 5 5 5 5 5 5 2 2 4 4 4 4 i i m m g g 3 # o $ . . . . . X X X ; a :.r.2.C.C.C.S.F.F.y.0.R * X X X . . . X 9 H 2.=X:X:X*XXXH.C.Z.y.J X . . . . . . . . . . . . . . . . . . : y w Q q.8.8.8.,.>.>.:.O.) E k q = o o + . . X                                                   & X % > 0 0 u a a J P w.F.(..X.X!.F.T.y.P 0 y # . . . X 0                                                                                                                                                                                                                                                       ",
"                                                                                                                                                                                                                                                                                                                                                                    . . . . . . . . . . . . . . . . . . . . . . . . . . . . . . . . . . @ # # # # # # # # # 2 5 4 4 5 5 i i m N M y u g g i = + . . . . . X , a K H  .A.J.H.H.H.F.A.w.) J C D > . . . . & ( W.=X;X,X.X~.C.Z.v.J . . . . . . . . . . . . . . . . . . . > u w ( 5.>.>.>.>.X.O.+.) W C p & X . . . . X                                                     % X % > q u u w a J K Y Y ..C.A.F.A.T.t.J 9 > . . . . X 9                                                                                                                                                                                                                                                       ",
"                                                                                                                                                                                                                                                                                                                                                                    . . . . . . . . . . . . . . . . . . . . . . . . . . . . . . . . . . . . . . . . . . . . # 2 5 5 5 4 4 i m V N j j j V N i 3 = o + . . . . . % 8 <.F.H.H.H.H.H.F.T.v.v.v.z.J 0 X . . . * e U (.;X;X.XF.Z.v.R X . . . . . . . . . . . . . . . . . + 4 f k o.4.O.X.X.( ( Q W R C C y o . . . . X -                                                   0 % X & p k c a e r ( _ U Y T T 1.3.u.w.,.P v N 2 . . o *                                                                                                                                                                                                                                                         ",
"                                                                                                                                                                                                                                                                                                                                                                  $ . . . . . . . . . . . . . . . . . . . . . O . . . . . . . . . . . . . . . . . . . . . . . # 6 5 2 2 4 4 g V V V z x V V j g i i 3 = o o + . X ; K <.3.~.~.H.H.F.F.D.T.v.t.X.( E u = . . . 8 r.1XoX~.H.Z.Q.W . . . . . . . . . . . . . . . . . . + i j x $.&.O.o.Q P L / / x z h > 2 # + # o &                                                     y & + & z E / J r d _ ,.Z.A.G.Z.C.1.1.T U P ~ ] Z : . -                                                                                                                                                                                                                                                           ",
"                                                                                                                                                                                                                                                                                                                                                                  . . . . . . . . . . . . . . . . . . . . . O # # = # o # # # + . . . . . . . . . . . . . . . . # 2 2 2 3 3 i Z Z V x x V F Z Z N i i 4 4 4 2 o X & 8 8 U T.Q.!.F.H.F.F.D.T.T.T.n.n.k.F + . . X a _ U 1.F.F.W.^ . . . . . . . . . . . . . . . . . . + i N V ! S c c v d k S ~ D C g i m 5 2 g g                                                       - o + = N ~ [ ) I ( 5.e.!.(.~.H.F.A.3.<.<.( c D Z 4 & 0                                                                                                                                                                                                                                                           ",
"                                                                                                                                                                                                                                                                                                                                                                . . . . . . . . . . . . . . . . . . . . O # # # 5 i 4 4 3 2 : = = = = + . . . . . . . . . . . . . . . . # : g F D D S D ! D D F Z h i g N N Z F F ] V 9 r K X.R.!.F.F.F.F.F.Q.R.R.E.v.*.0 X X . X X 8 >.|.[.{.$.X . . . . . . . . . . . . . . . . . . : 3 > = & & % * 9 w S ' @.] D Z B m # 4 N                                                       & + + > h z W ) ) +.5.A.!.H.H.H.H.~.~.~./.5.e u h 4 =                                                                                                                                                                                                                                                             ",
"                                                                                                                                                                                                                                                                                                                                                              . . . . . . O . . . . . . . . . O # # $ # # # # # 3 i g g g i g j j j z j j u 4 : X . . . . . . . . . . . . : j D ] ] @.@.@.' ` ` F V j V Z Z G #.h.h.G V p ; k v.T.T.F.F.G.F.F.Q.T.T.n.v.9.%.^ y X X & R 7.c.).=.+ . . . . . . . . . . . . . . . . . . . . X X & & , k E @.#.#.@.~ D V m 2 . + 2                                                       & + o > > , k J W P U _ ,.1.1.C.H.H.~.!.R.:.e - & = &                                                                                                                                                                                                                                                             ",
"                                                                                                                                                                                                                                                                                                                                                            . . . . . . . O O . O . . . . $ 7 2 2 : # # 3 2 3 3 i g N N N V C D ! ! ~ ~ ~ @.~ V f 3 : = & o + . . . . . . X = 4 u x Z C ! ` ` ` ! S V V F V F ` *.#.@.#.D 0 0 J _ w.T.R.F.F.G.F.D.T.T.T.E.Q.m.=.u & X o % - V j . . . . . . . . . . . . . . . . . . . . . X & q x L o.-.-.*.#.! V h y 2 # . . o                                                       % . X o X % a R c K H H H H Y 1.3.1. .T U J u - o X &                                                                                                                                                                                                                                                             ",
"                                                                                                                                                                                                                                                                                                                                                          . . . . . O . O . . . . . . @ $ # 2 2 5 4 > 3 g M N Z Z A A V V V C ~ $.$.$.o.o.@.@.~ S D S V V V u 3 : + . . . . . . . X o = p F ] ` ! D C C S V S ~ @.*.#.*.#.E C r r ( 8.u.T.!.!.!.R.Q.T.Q.R.~.].|.N.a % X . . X . . . . . . . . . . . . . . . . . . . . X , f x / o.o.o.$.^ ~ C z u y 3 : + . . o i                                                     X . . . . X a E J P U _ _ U T C.1.T Y H l w , = o X &                                                                                                                                                                                                                                                             ",
"                                                                                                                                                                                                                                                                                                                                                        . . . . . . . . . O . . @ # # # = = : : y y g j V Z D ` ` F C c x c c / $.=.6.&.&.;.$.o.o.o.^ ~ ^ ^ ! D N 4 $ . . . . . . . . o & u F V z F ~ ~ S C S / o.$.$.^ ~ C C J W o.K t 2.[.(.[./.!.!.~.~.~.[.}.{.W * X . . . . . . . . . . . . . . . . . . . . . o > x o.=.k.z.t.q.&.W r 9 9 0 q y y 3 $ . . . o                                                     X . . . . X k W K I <.D.!.!.F.F.<.Y H t r 9 o + X X *                                                                                                                                                                                                                                                             ",
"                                                                                                                                                                                                                                                                                                                                                      + . . . . O . . . . . . . # : 2 2 2 : : 3 y u h N Z F D ` ] ' ~ ~ ~ ^ ^ ^ $.&.9.0.q.9.9.9.=.&.&.$.) ^ ^ ~ C h 3 o . . . . . . . X . + = = = u D ` ~ S S ! o.;.$.o./ L L ^ =.6.J e >.W.!.(.~.(.(.H.Z.3.F.!.T.q.9.k.Z X . . . . . . . . . . . . . . . . . . * C *.=.9.9.q.t.p.t.5._ K v k w u u u y = . . . . X                                                   X . . . . o x W K U 1.G.~.(..X!.2. .U _ Q u & . . X >                                                                                                                                                                                                                                                             ",
"                                                                                                                                                                                                                                                                                                                                                    # . . . . . O . . . . . + . # : 2 4 3 3 3 4 f j j V F D ` ` ' #.#.$.$.$.o.o.o.&.0.t.q.q.q.0.0.9.9.6.&.%.%.$.~ E C h y 3 > = X . . . . . . . + y D ] ` ~ ~ @.@.^ $.&.=.9.6.6.9.0.5.>.q.X.i.W.R.[.oXH.Z.C.Z.F.(.}.<X6XN.* . . . . . . . . + X . . . . . & y h C @.*.%.4.8.8.w.y.u.y.y.t.0.&.Q k u u y o . . . . X                                                   X . . . . o z E U w.Z.H.H..X.X(.F.y.T.n.0.S = . X X                                                                                                                                                                                                                                                               ",
"                                                                                                                                                                                                                                                                                                                                                  . . . . . . . . . . . . . + + # = 3 4 4 3 5 g j N V Z F D ` ` ' #.$.$.$.$.o.$.O.4.0.0.0.0.q.0.q.q.9.0.9.0.0.0.9.=.%.$.^ ^ C k , X . . . . . . + : i N F ` *.*.~ b L *.x.x.z.z.0.t.n.n.>.r v o.X.].2XoX.XoX(.G.(.[.].).$.& . . . . . . X > x x 4 X . X . > @.h.$.C k J _ X.i.y.D.T.R.W.Q.m.c.4./ v f - X . . . . X                                                   X . . . . X q v O.R.~..X.X.X.X.X!.A.T.T.q.S o . X %                                                                                                                                                                                                                                                               ",
"                                                                                                                                                                                                                                                                                                                                                . . . . . . . . O . . . . + + + + 2 3 5 5 5 g j j V V V F D ! ~ ~ ' $.$.*.%.$.$.%.6.l.z.0.0.q.q.q.q.q.0.z.c.v.M.c.c.q.4.4.%.o.^ E * X . . . . . . . . o & 4 V ` ! x E *.k.l.l.z.c.n.t.X.X.%.*.q 9 t.3X;X:X>X.XJ.G.G.,.U v w w q * u x q * x *.*.! = . o * f -.k.^ e 0 d P 8.E./.W.W.^.W.R.T.v.q.%.^ C - X . . X X ;                                                   X . . . . . * 0 Q n.W.~.oX.X.X~.A.<.i.w.X.f + . X &                                                                                                                                                                                                                                                               ",
"                                                                                                                                                                                                                                                                                                                                                . . . . . . . . O . . O . + + . # 2 4 5 g g g j V Z Z C F S ! ~ ~ ~ ^ ) ) ) ) o.&.6.0.0.0.0.0.q.0.0.0.0.t.c.n.n.m.n.n.t.t.q.t.c.6.E c j y : . . . . . . . X : Z @.#.#.' $.*.) O.z.m.n.8.n.{.x., X a >.F..X:X.XH.G.A.<.U P K +.4.o.k.x./ f C ^ @.! * . X V j.k.=.S f w k X._.<X}./.W.T.D.T.D.n.c.&.*.! 0 X X . X &                                                     X . . . . . . X e P I _ 1.2.w.2.<.U ,.8.o.q . . X &                                                                                                                                                                                                                                                               ",
"                                                                                                                                                                                                                                                                                                                                                . . . . . . . O . O O O O + + # 2 6 5 i m m j j V Z V C F S ! ~ ~ ^ ^ ^ ^ ^ ) ) %.7.0.0.0.0.t.t.c.t.t.t.t.n.Q.E.^.^.^.E.E.E.`.`.'.N.M.x.k.' > o + . . . . . + 4 j j x x C / / o.l.c.c.c.m.).9.f 3 & * I /.:X,X.X(.e.<.U U U v.E.E.v.E 0 x ! ' ' ! u = & ] B.j.^ x f k b ( E.{.{.`.W.T.p.n.n.n.M.=.o.! j > X X X &                                                     X . . . . . . X & e e t H H Y I I X.8.0.&.u . . . &                                                                                                                                                                                                                                                               ",
"                                                                                                                                                                                                                                                                                                                                                . . . . . . O O O O O O . . # # 2 5 4 5 i m g j j V x V C S ~ ^ ^ ^ ) ) ) ) ) O.4.q.0.c.n.n.n.m.E.E.E.E.E.E.^.].].|.|.].|.|.{.{.{.|.].E.N.z.C z 3 . . . . . . . . X X * u x S ' =.6.4.5.q.q.0.x.x.u X r T.[.oXoX(.e.<.:.>.,.T.W.'.9.> . > V ! ! ` ` Z 4 j C x x z f D ! W 4.t.q.r.t.t.q.0.c.M.z.$.~ ! F V = X X &                                                     X X . . . . . X * J _ X.<.:.X.U U ( I J v = . . . %                                                                                                                                                                                                                                                               ",
"                                                                                                                                                                                                                                                                                                                                                + . . . . . O O O O O . . . # 7 2 5 2 5 g m g j j x x x c S / ^ %.6.6.0.0.0.0.c.v.n.E._.|.{.}.&X&X&X<X&X&X&X&X}.[.&X&X&X&X&X&X&X&X&X&X[.|.^.N.N.! X . . . . . . . . . . & 0 x ~ ^ [ $.&.4.4.z.N.N.C ; w P Y Z.(.(.A.8.a.a.y.D.y.r.c X . . = h z V F V > = & > > q y Z ' ~ Q Q o.%.%.o.o.o.Q *./ k c ~ ` V = X X %                                                     & X X . . . . . 0 O.y.y.p.n.r.( Q W w e , . . . . X                                                                                                                                                                                                                                                               ",
"                                                                                                                                                                                                                                                                                                                                                + . . . . . O O . . O . . . # 1 2 2 4 4 m m M N V V S c S / ^ &.6.0.c.c.v.n.n.Q.Q.Q.W.].}.-X1X1X1X1X2X2X1X1X-X-X&X=X=X-X-X=X-X-X-X=X=X&X&X[.|.'.o.9 & X . . . . . . . . . o y x C / / ) o.O.4.6.0.&.%._ t 8 1.~.!.n.t.K t >.y.y.r.P q X . o 4 y u y > = o o o o o X = j D ~ @.*.=.j.-.' S z c v r f x j : X X X &                                                       = X . . . . X w 5.y.e.e.y.5.K c E z u : . . . X                                                                                                                                                                                                                                                                 ",
"                                                                                                                                                                                                                                                                                                                                                  . . . . . . O . . . . . . # # 2 2 2 3 i g j j V C S c L / %.9.5.r.y.y.y.T.D.D.T.T.R.W.[.-X1X2X1X-X-X-X-X-X-X=X=X=X=X=X-X-X;X-X-X-X=X=X=X&X].^.n.4.) ~ V = + . . . . . . . o - z R R ! E W W Q +.q.v.m._ K e.~.D.t.9.w * ( 0.y.Q.n.=.> . : j g g u > = o o o # . . . > x D ~ @.@.` D x j f f f u q , & X X X & *                                                       - X . . . . X k 8.y.e.e.u.>.d a u y > . . . . %                                                                                                                                                                                                                                                                 ",
"                                                                                                                                                                                                                                                                                                                                                  . . . . . . . . . . . . . # # 2 3 3 4 y y u u w k v L L W 4.q.5.w.y.y.D.T.T.D.D.R.R.R./.=X-X2X2X;X-X-X-X-X;X-X-X-X-X-X-X2X2X;X-X-X-X-X-X-X&X}.|.`.).N.B.' V o . . . . . . . X p C C C z v v J ( 4.8.c.v.y.T.T.t.4.E & % r P :.y.n.c.p . = M M N j g 3 = o o o . . . = y f f k f 3 > , > q q > > , * & X X & y                                                         - X . . . . X l 8.y.e.e.u.>.v 0 & + . . . . . ,                                                                                                                                                                                                                                                                 ",
"                                                                                                                                                                                                                                                                                                                                                  + . . . . . . . . . . + # # # 3 4 y p p q w k d d L ( O.O.5.8.5.u.y.y.D.T.T.T.R.R.R.R.!.(.[.=X=X=X=X=X=X=X=X;X-X;X-X1X2X2X2X2X-X-X-X1X1X1X[.^.Q.n.c.M.z.-.] 2 . . . . . . . . 4 Z A C x c R E W O.O.4.8.r.v.t.+.v 0 X X ; 8 t a.t.c.u . . 4 N Z F D F V 4 = # + . . & > > > > , = , > : > > > : & = = o X & p                                                         - X X . . X & K 8.e.e.e.u.q.%.k X . . . . . X                                                                                                                                                                                                                                                                   ",
"                                                                                                                                                                                                                                                                                                                                                  $ . . . . . . . . . . + o = 2 4 y u f u k E ^ o._ +.6.q.q.r.r.w.u.y.y.p.T.T.T.T.R.R.Q.R.R.R.!.(.(.(.(.(.[.[.&X-X1X1X&X|.W.Q.T.T.T.T.T.T.T.y.i.i.>.+.X.) ^ ' u . . . . . . . . = Z G D A C ] ' [ $.%.o.( ( ) W l 9 0 > & * * 8 I c.z.q . . # g D ` @.#.#.Z : o $ + $ : y u y y y q > , * > > > = = = = o + o ,                                                         - o + . . - r P r.e.e.e.p.m.M.C X . . . . . X                                                                                                                                                                                                                                                                   ",
"                                                                                                                                                                                                                                                                                                                                                    . . . . . . . . . . . # : : y u h z k c ^ O.&.>.>.8.8.8.r.u.u.y.y.y.y.T.Q.T.T.T.T.D.T.R.R.R././././././.].].].|.`.E.y.8.8.8.8.i.8.r.w.8.8.8.8.>.+.X.o.%.*.S > o . . . . . . . 2 3 : = & > u c E E v d d v l 9 0 / ^ E c K P X.9.) - . . . = N ` #.G D x > : 3 4 4 i j j f u q > = & X & = - = = = & & + X & &                                                       > = o X X k ^ X.t.p.D.T.R.E.M.z . . . . . . %                                                                                                                                                                                                                                                                   ",
"                                                                                                                                                                                                                                                                                                                                                    # . . . . . . . . . + 2 4 4 y f z c v J ( +.>.>.>.i.w.r.t.t.y.y.y.t.y.n.n.T.T.p.p.D.T.R.^.^.^.^.^.W.R.W.W.^.^.E.E.n.t.r.r.t.u.w.r.w.y.t.t.t.q.8.5.4.4.4.%.^ C h 4 > 3 2 $ . . . . . . . . X & 0 0 * * 8 w r 9 r ) 6.q.4.c.m.5.+.W 0 X . . . $ 3 j 4 Z h.] u > p u h C ~ ' ~ ~ ! C z u f u , > > = & & o X X X *                                                     y & o + % c ) :.y.T.T.R./.`.M.h . . . . . . *                                                                                                                                                                                                                                                                   ",
"                                                                                                                                                                                                                                                                                                                                                    o . . . . . . . . + # 3 i g g j x c J L X.>.>.>.5.8.r.t.t.y.t.t.t.q.r.t.r.r.y.y.t.t.p.Q.n.n.n.n.t.t.r.t.t.t.t.t.t.t.r.u.y.e.e.e.D.D.p.D.T.p.y.y.t.w.8.5.>.%.-.-.S j Z Z 2 . . . . . . . . . + & % & * 9 k l J ( X.8.D.D.|.|.T.E.N.=./ > . . . . + X y j.j.z , k E E Q =.z.z.z.l.9.&.o.o.v * , , - & & X X X X & u                                                   0 o o o & v P <.u.T.R./.&X{.).C X . . . . %                                                                                                                                                                                                                                                                     ",
"                                                                                                                                                                                                                                                                                                                                                    # . . . . . . . + # o 4 g h h z c R L L ) +.O.O.>.4.5.8.8.5.8.8.8.5.5.5.5.0.n.n.v.t.t.t.8.8.5.5.5.5.5.8.8.8.8.t.n.Q.T.T.R.!.(.(.[.[.[.&X=X=X[.[./.W.Q.T.n.n.c.Q k 0 0 p = . . . . . & & & * * > q q f c L W 0.t.2.Z.!.(.=X;XoXoX<X@X).c & . . X X X X - z W ( z.N.M.0.9.0.q.0.0.9.&.O.O.L 9 9 f p & X X X X X % , w                                                 y o o o - J U U i.p.R.[.1X<X'.! X . . . X 0                                                                                                                                                                                                                                                                     ",
"                                                                                                                                                                                                                                                                                                                                                  + . . . . . . . + # = # 3 i h h x C R R E Q ( ( ( ( o.+.+.+.+.O.&.&.%.%.%.&.6.c.v.c.q.q.9.5.5.5.5.6.q.q.t.n.n.Q.^.].[.[.[.oXoX=X;X:X:X:X;X:X>X>X;X=X[.(.(.(./.T.I d r e 0 = X . . . & S $.) o.E c E c c E Q U w./.Z.J..XL..X>X5X;XoX1XQ.J f , * - > q u u K q.q.t.N.m.t.6.4.&.&.&.&.&.%.&.%.^ ^ =.~ * & X X X X X % ;                                                 p o + X , W :.:.e.W.].[.&X{.).C & . . . o                                                                                                                                                                                                                                                                       ",
"                                                                                                                                                                                                                                                                                                                                                  . . . . . . . . # # 2 : 4 g h j x C S E / ^ / E L Q ) ) ) o.o.o.$.$.$.o.) ) ) o.o.) ( o.O.4.0.z.v.m.m.E.W.|.{.[.&XoX=XoXoXoX.X,X;X:X:X:X:X:X:X:X:X,X.X.X.X.X(.!.e.2.8.6.-.' j = . . * O.0.t.6.( W / / / W U Y e.;XL.*X9X9X9XaXsX.XH.oXW._ L v / =.k.M.E.E.y.e.2.<.8.8.4.&.&.O.o.o.O.&.&.6.9.9.k.z.$.w * % X X X X % &                                                 g o + X , o.q.8.W.1X-XR.D.y.c.c & + . . X                                                                                                                                                                                                                                                                       ",
"                                                                                                                                                                                                                                                                                                                                                + . . . . . . . . # = 2 3 i j V V V V C C C C J c E W ^ ^ ^ o.) ^ o.o.o.) ^ W W L W Q ( ( +.5.c.c.v.m.m.W.^.}.1X-X=XoX=X.X.X.X.X,X:X:X:X:X:X>X>X>X>X:X*X*X,X.X.X.XH.F.R.v.9.*.` h X . e 8.w.e.u.( L L E ! ! Q U F.iX9XaXfXfXfXhXhXJ.C.(.[.8.U P &.N.v.W.-X-X/.A.w.i.,.>.O.+.o.) ) ) o.o.+.O.&.4.6.9.o.v e 0 & & & X X ; 0                                               h o + X q &.t.y.].3X&XD.2.,.9.c = + . . X                                                                                                                                                                                                                                                                       ",
"                                                                                                                                                                                                                                                                                                                                                + . . . . . . . . # # 2 2 4 g j j x z x x x x c c E / ~ ~ ^ ^ ~ ~ L c J W ) %.o.( _ &.6.8.8.t.c.t.t.y.n.E.W./.=X;X;X,X,X,X,X,X,X:X>X>X>X>X9X9X9X9X9X9X9X>X>X>X:X:X,X(.R.v.Q a h h o X W ].F./.R.<.J k u u f C K p.iX9XfXhXhXhXhXfXL.L.>X;X~.t.>.&.&.d H D.oX(.!.T.W.E.t.q.5.4.4.4.4.4.+._ X.>.8.t.q.5.O.o.^ k * & X X % *                                             h 3 o o X 0 &.M.p.^.-X/.e.2.i.q.E > o . . X                                                                                                                                                                                                                                                                       ",
"                                                                                                                                                                                                                                                                                                                                              X . . . . . . . . . # # 2 3 3 3 y y 4 p h z A C S S E ~ ~ ~ ~ ^ ~ ! b d v W O.9.0.q.0.n.E.E.E.W.E.Q.n.y.T.R.R.R.~.oX,X;X:X:X:X,X:X>X>X5X5XiXiXiX>X>XiXiXiX>X5X4X5X5X:X-X|.).W * & = + & O.|.(.,X(.<.t 8 % X $ > & J !.H.aXhXfXhXfXfXaXaXpX.X[.|.E.l.o.e e w.[./.!.!.~.W.Q.E.E.E.E.`.'.).n.8.r.n.Q.Q.Q.n.t.q.9.J e 0 % % % * *                                           0 - o o X > =.n.p.^.[.^.e.w.u.0.S = + . o                                                                                                                                                                                                                                                                         ",
"                                                                                                                                                                                                                                                                                                                                            . . . . . O . # # # # # # 2 2 2 : 3 3 3 y h N N A F F D ! ! ~ ~ E E c l v ( %.4.q.c.v.n.E.).`.W.W.W.T.e.e.D.R.!.!.(.oX,X:X:X:X:X:X:X>X5X5X5X5X5X5X:X;X;X;X=XH.Z.Z.D.R.W.E.v.k.z X X . . o o.E.F.oX.X3.U J 0 . . . . * ,.C.:XfXfXfXhXhXhXhXaXL..X=X|.E.o.9 k m.].R.H.!.!.R.R.R.R.R.W.].].].].`.].].].^.W.Q.n.n.v.o.^ c % % ; * 8                                           9 - o + X , =.M.n.^./.^.D.e.y.z.z X . . &                                                                                                                                                                                                                                                                         ",
"                                                                                                                                                                                                                                                                                                                                            + . . . . . # # # # # # = 1 2 : # : > 3 y g g i g h h j V S c k r k W Q o.0.0.8.t.v.t.y.y.y.y.e.A.e.e.e.D.(.[.(.(..X;X:X:X:X:X:X:X:X>X5X5X5X5X4X;X-X(./.W.E.,.d 8 8 e e 0 , = X . . . . . k O.U F.,X.X(.`.W o . . . X t.[.>XaXfXfXfXhXhXhXaX*X>X5X-X{.$.& u z.8.1.Z.F./.(.~.!.R.R.R./.|.[.[.|.|.|.]./.^.R.Q.E.).z.z.' & % & * -                                           9 - o . . > =.t.p.^./.^.D.D.n.c.u . . .                                                                                                                                                                                                                                                                           ",
"                                                                                                                                                                                                                                                                                                                                          # . . . . . . # # 7 2 1 = = = 2 : # : 3 4 4 i i i p 0 > , 9 e e e 9 v &.0.0.t.t.t.t.u.r.w.w.w.u.e.e.e.e.D.!.oX,X=X,X,X:X:X:X;X,X,X,X,X,X=X=X[.^.n.v.t.t.t.0.9.^ e % X X X . . . . . . . . . o * t e.,X,X:X=X:.8 # . . . E y.F.>XfXfXhXhXhXhXfXaXsXsX4X}.&.X & q 9 t <.R.(.(.(.(.~.(.(.[.oX=X=X[.(.].]./.^.W.E.E.).c.k.^ & % & * *                                           0 & . . . q 6.q.p.^./.^.F.D.n.v.f . . o                                                                                                                                                                                                                                                                           ",
"                                                                                                                                                                                                                                                                                                                                          . . . . . . $ # # 2 2 2 2 2 : : : 2 4 y y i y 4 y , , , e w r d l v ( q.0.r.r.r.u.u.u.w.2.2.2.w.e.A.D.R.!.(..X,X,X,X;X:X:X:X;X=X=X=XoX/.D.t.+.d , * * , , * * & . . . . . . . . . . . . . . . X 8 <.H..X>X;X1.d 0 = . . * e H (.aXhXhXhXhXhXhXdXfXiX:X&X%.X . X X 9 +.E.R./.[.oX[.[.[.oX=X=X=X[.R.!./././.^.W._.).c.9.^ ; X & * 9                                           0 & . . . y =.q.p.R.^.R.F.D.Q.M.u . . >                                                                                                                                                                                                                                                                           ",
"                                                                                                                                                                                                                                                                                                                                        . . . . . . @ # 7 # : 2 2 2 2 : : : 3 i u u u u > 0 q r c / ) ( ) O.O.5.0.8.r.w.w.w.w.w.w.w.w.2.e.D.F.!.(.oXoXoX,X,X,X;X;X=XoX(.(.].].^.Q.8.$.C X . . . . . . . . . . . . . . . . . . . . . . . . & +.Z..XiX9X~.2.4.C = . + X e p.*XaXhXfXfXfXfXhXhX9X,X-X&.& . . . X x ) U e.(.(.(.(..X.X.X.X=X(.G.D.R.^./.].`._.).M.k.E X X % - u                                           * X . . . y =.8.p.R.R.F.!.R.Q.z.u X X                                                                                                                                                                                                                                                                             ",
"                                                                                                                                                                                                                                                                                                                                      X . . . . . + # o = : 2 2 2 2 : = : : : 4 > , 0 q 0 k / Q o.&.4.O.O.>.>.,.5.5.w.w.w.w.e.e.e.e.e.e.e.D.F.~.oXoXoXoX,X,XoXoX(.W.8.K d l l k a 9 & X . . . . . . . . . . . . . . . . . . . . . . . . . X v <.F.>X9X*X.X].5.0 + . . , 8.H.9XfXhXfXfXfXfXhXiX,X1X0.* . . . . + * 8 U w.e.G.(.(..X.X,X=XoXF.3.Z.D.T.E.y.q.c.k.=.V X . X -                                           q % X . . . y =.q.n.^.T.G./.=X].v.u X X                                                                                                                                                                                                                                                                             ",
"                                                                                                                                                                                                                                                                                                                                      + . . . . O # # o = = 2 2 2 2 = = o & = > , 9 w J E ) 6.&.+.O.O.>.>.>.>.,.,.,.,.,.w.w.e.e.e.e.e.e.Z.D.F.R.(./.(.(.(.]./.E.v.x.-.0 X X . . . . . . . . . . . . . . . . . . . . . + + + + . . O . . . . & e H H.*X7X*X,X1.e X . . o Q D.>XaXfXfXhXfXfXxXaX:X2XB.> . . . . . X % W ,.1.!.;X;X>X>X>X:X;X[.F.D.u.8.>._ K J ^ ~ y . . . &                                           0 % . . . . u =.q.Q.].^.D.[.2X<XN.u . X                                                                                                                                                                                                                                                                             ",
"                                                                                                                                                                                                                                                                                                                                    o + . . . . O # # o = 1 2 2 2 = # o + X p E E L W o.%.%.4.4.+.+.>.>.:.:.>.,.,.,.,.,.w.u.e.Z.D.D.D.D.D.D.T.W.W.E.Q.y.5.( J k q y 4 o . . . . . . . . . . . . . . . . . . . . + : i m N N 4 o O O . . . . . X 8  .*X9X7X9XC.I c = . . q p.=XiXhXhXhXhXhXhXsX>X6XB.= . . . . . . X ^ 4.8.[.2X5X5X5X5X5X4X=X(.^.p.8.X.W J k z u & . . . X                                           q X . . . . u =.t.W.&X].R.&X2X<Xl.0 . X                                                                                                                                                                                                                                                                             ",
"                                                                                                                                                                                                                                                                                                                                    . . . . . . O O # # # # = # # # o o X & c -.-.%.o.O.O.:.>.>.+.+.>.:.:.<.,.,.,.,.i.w.w.e.e.Z.D.D.D.D.^.E.n.c.0.z.l.$.R u * X . . . . . . . . . . . . . . . . . = 2 : : : = = > i N Z F m 2 : = # + . . . . . % <.:XaXeXaX*X(.@X` . . o L i.!.>XaXaXdXaXsX:XD.).~ X . . . . . . . > q w P O.>.5.8.q.q.8.1.D.^.u.8.%.^ E z > & X . . . %                                           w X . . . . f =.t.W.}.].^.[.1X{.E & . X                                                                                                                                                                                                                                                                             ",
"                                                                                                                                                                                                                                                                                                                                  . . . . . . . O O # # # # o o o o + o % 0 / %.O.O.+.X.X.X.X.X.X.X.>.>.<.,.,.1.1.2.u.e.y.y.y.e.e.D.w.X.o.W k 0 - , > & o X + . . . . . . . . . . . . . . . . . 2 G ` D F j i 4 4 y h N A y = 4 i 6 2 + . . . . X +.5XaXaXaX0X>X6Xk.$ . . X e H Z..X*X*X>X5XR.I w & . . . . . . . . . . . X % ; ; * * * 8 t y.W.X.( Q v u p & X . . . X                                             0 o . . . X x 6.t.Q././.R.(.&Xc.9 X . X                                                                                                                                                                                                                                                                             ",
"                                                                                                                                                                                                                                                                                                                                  . . . . . . . O + # # # # # o = + o y u c $.%.O.O.+.X._ X.X.X.X.X.,.r.y.u.2.3.3.u.e.T.T.T.T.T.m.m.&.w & & . . . . . . . . . . . . . . . . . . . . . . . . . . 2 G ` G F N g j h h z V C Z N N N m i 2 . . . . . r u.H.L.qXeX9X5XO.X . . . & d E.2X4X4X5X6X@X/ - = . . . . . . . . . . . . X o o o o & , v M.'.4.) ^ k > = + . . . X %                                             0 o . . . * E 0.n.T.R.R.R.[.1Xq.* X . %                                                                                                                                                                                                                                                                             ",
"                                                                                                                                                                                                                                                                                                                                  . . . . . . . O O # o o o o > i y y V ~ ^ ) +.O.X.X.X.X.:.<.:.<.,.u.D.T.D.e.A.A.y.y.E.5.K l l k k p & X . . . . . . . . . . . . . . . . . . . . . . . . . . $ 3 N V V V z j j j x x V C ` ` F V h u y o . . . . % e Y ..cX9XeXiXe.v p & . X u 6.c.0.q.0.=.~ 0 = 3 y y q q q > . . . . . . . . . . . . X & k S c E F N 4 # . . . & &                                               * o X . . , ^ c.n.^.[.(.(.-X6Xv.* + + X                                                                                                                                                                                                                                                                             ",
"                                                                                                                                                                                                                                                                                                                                  . . . . . . . . + # o o o & h G D C ! / W ( _ X.X.X.X.<.:.:.,.i.y.D.D.D.T.T.v.n.v.c.v.o.* X X X . . . . . . . . . . . . . . . . O . . . . . . . . . . . . + 3 j j j j z V V V V V V x C ` ` D V h u u p 2 # . . X 9 :.e.J.*X9XiX>X-X'.v X . > j 0 * & o o X . X u ^ &.c.c.6.E & . . . . . . . . . . . . . . X X & = o + . . . . >                                                 & o X . X 0 %.M.Q.}.-X[.[.;X6Xm.* + o &                                                                                                                                                                                                                                                                             ",
"                                                                                                                                                                                                                                                                                                                                o . . . . . . . . . + o o & * V #.` ! ! E L P ( _ X.X.X.<.<.,.w.e.R.R.D.y.t.5.L v c z z p o . . . . . . . . . . # 2 2 2 = # # # # # . . . . . . . . . . . . = i N j N V V V Z Z Z Z x x V ~ ~ C z u u u Z V 4 : . . & W >. .C.J..X>X5X1XL X o g N 4 & . . . . . X 9 K >.W.W.t.^ & . . . . X > * X . . . . . . . . . . . . . . . .                                                   & o + . X w %.c.R.-X;X=X=X;X6X).0 + o *                                                                                                                                                                                                                                                                             ",
"                                                                                                                                                                                                                                                                                                                                = . . . . . . . . . + + o & , x ' ~ ! E L L P U X.X.:.>.,.,.w.y.T.Q.E.n.n.z.*.0 . . . . . . . . . . . . . . . 2 B G G Z N 4 2 2 2 2 # . . . . . . . . . . + 3 g N V V C C C C C V C C x C ~ ~ C x f 0 q ~ *.~ g $ . . & r I  .1.L.,X,X(.U * 0 z C F V f > > k W P H t Y D.D.y.( & . . . . , $.J e 0 * % X . . . . . . . . . . . .                                                   * & + X % k &.t.Q.[.;X=X;X-X3XM., . X                                                                                                                                                                                                                                                                               ",
"                                                                                                                                                                                                                                                                                                                                + . . . . . . . . . + o o - f x C E E L L K I U :.,.,.w.i.w.w.w.y.n.5.J v x y X . . . . . . . . . . . . . + # 4 F G D Z i 4 : 1 2 2 # . . . . . . . . . . + > u N V V S D C C V x C C c E ' @.D c x e v =.x.j.D : o . . X 0 P w.H.H.(.G.,.I v l v E ^ $.L P t.`.].G.1.1.F.2.t.%.& . . . . * o.4.>.5.) v 0 & . . . . . . . . . . .                                                   * = o X & v &.t.D.!.oXoX=X-X1Xc.* . X                                                                                                                                                                                                                                                                               ",
"                                                                                                                                                                                                                                                                                                                              . . . . . . . . . + $ = y p h C v v L L P P I X.,.u.y.y.v.y.v.8.:.+.&./ * X X . . . . . . . . . . + 3 i i i 4 i m C F V g 3 2 = 1 1 2 o . . . . . . . . . + = y h z z V S ! D V x x C S ~ $.-.*.S k c k W c.z.9.-.~ F = . . . 0 O.T.!.H.G.2.>.>.P K L Q ) U U D.[.=X,X,X;X;Xe.r.=.> . . . . & P 8.n.v.t.6./ 0 . . . . . . . . . . . 2                                                 - & = X & c 4.t.p.F.!.oX=X-X<Xk.& . %                                                                                                                                                                                                                                                                               ",
"                                                                                                                                                                                                                                                                                                                              . . . . . . . O # 3 4 i A S S E c L P P U U U 8.y.p.T.W.E.c.c.=.v q 3 3 o . . . . . . . . . . o : 4 G #.#.` G D S D S V h 3 2 = = 1 = # . . . . . . . . . 2 i h h j z z S ~ ! C V C C E ' =.=.*.v d Q ( X.8.8.4.9.=.#.y X . . X u O.r.D.D.2.u.n.>.I P P _ <.<.G.=X,X:X>X4X2Xy.+.$.> . . . . & P 8.T.y.t.0.=.z X . . . . . . . . . . 2                                                 - = & X ; J 5.p.G.F.!.oX=X[.`.) X . X                                                                                                                                                                                                                                                                               ",
"                                                                                                                                                                                                                                                                                                                            + . . . . . . . # 2 M N Z E E E E P W ( _ _ X.<.,.u.T.Q.E.t.d ; & X . + . . . . . . . . o o o : g V V ` ' ] ` ` F C S D A M 4 3 : < 1 1 o . . . . . . . . o i M j j j h z ! ' ` ! S S S ! ' -.=.*.c v 0.t.w.u.w.8.8.&.=.~ u X . . X * e I ,.e.D.W.u.U U U <.e.F.!.,X:X:X,XoX~.>.K z & . . . . % d >.y.y.r.6.$.z = . . . . . . . . . . =                                                 - & % X ; L 8.T.R.!.oX=X=X|.m.v . . X                                                                                                                                                                                                                                                                               ",
"                                                                                                                                                                                                                                                                                                                            o . . . . . . # : 4 M V C S E / / Q ( o.+.:.>.5.8.r.t.n.).&.* . . . . . . O . . . . + 4 N Z Z D D D D ! ] ` ` D Z Z D D V i i 4 2 1 < 1 o . . . . . . . o 2 g N j j j h z ! ' ' ~ ! S S ~ ' %.=.%.c v t.T.D.R.!.W.n.t.c.x.-.y . . . . & v U D./.F.1...2.3.D.F.!.!..X;X;X.XZ.a.K w u 2 . . . . % r X.u.w.<.( J h = . . O . . . . . . . = -                                               & & = X * L q.T.R./.;X;X=X].M.k . X -                                                                                                                                                                                                                                                                               ",
"                                                                                                                                                                                                                                                                                                                            o . . . . . . # 2 4 j Z S E / W Q ( X.+.O.4.8.q.q.q.( c E u X . . . . . . . . . . X 3 N F D ` ` ! ! ! ! ~ ~ ~ D F D D D V i i 5 2 < # # + . . . . . . o 2 4 j N j x j f z ! ' ' ~ ! E E ^ $.&.&.*.c d t.T.!.(.(.(.R.y.m.M.=.v * = o . - c K 2.(.G.Z.G.(.(.!.G.G.G.H.;X;X(.<.t w p N F o . + & ; e _ r.w.U K v C 4 . . O . . . . . . . + &                                               % o & & e P t.T.F.(.;X;X|.W.z.k X %                                                                                                                                                                                                                                                                                 ",
"                                                                                                                                                                                                                                                                                                                          + . . . . . . . 7 2 y N C E / ^ Q ( X.+.+.O.q.6.%.&.k.E % X X . . . . . . . . . . + : N F ! ` ` ` ~ ~ ~ ~ ! ! ~ ` ` ` ` D Z m m i 2 7 < # + . . . . . . o 3 y j N V V x x C ! ' ^ ~ C C E ^ $.&.$.$.J H p.R.H.(.oX(.R.y.c.0.&.%.^ ` 3 . + * , 8.-X[.oX;X(.(.(.C.C.C.G.(.[.T.I * q y M Z : . o > 0 e _ t.8.( K c E i + . . . . . . . . . . X                                             u X X o - l P t.T.D./.2X1X|.E.k.u X %                                                                                                                                                                                                                                                                                 ",
"                                                                                                                                                                                                                                                                                                                          . . . . . . . # 2 > u x C c W %.%.O.>.5.5.O.0.W 9 0 u > o X . . . . . . . . . # 3 i g Z D ~ ` ' ' ~ ~ ~ ~ ~ ~ ` ` ` ` ] G S V M m 6 2 1 # . . . . . . . o 4 y j N V V V S ~ ~ ^ ~ ~ c c E ^ $.%.o.) K H T./.H.(..XoX(.D.r.:.4.v.z.-.0 X o o & ^ m.y.R.oXH.J.J.J.C.G.Z.Z.e.r.L % & o $ # . . $ = & * ( v.r._ K c E i + . . . . . . # . . . X >                                         k 0 X + o - R ( t.T.D./.-X}.E.M.=.q X %                                                                                                                                                                                                                                                                                 ",
"                                                                                                                                                                                                                                                                                                                        . . . . . . . . o : > p k v v Q &.9.q.q.q.9.O.-.C X X . . . . . . . . . . # # = 4 N V Z F ! ~ ~ ' ' ' $.@.@.@.#.#.' ` ` ] ` D Z N m 6 1 < # . . . . . . . = 4 i M V V C C ! ~ ^ ~ ^ ^ ^ / ) $.&.+.U _ I Y H.(.H..X.X.X(.R.w.:.>.q.5.) c q u y & - 0 9 w U R.H.H.(.oX[./.T.5.4.E * . . . . . . . . . % J c.r.X.I J ! u X + = + . o : 5 = . . . -                                       * * & X + % p / ( 8.D.D.R.].Q.>.o.S - X %                                                                                                                                                                                                                                                                                 ",
"                                                                                                                                                                                                                                                                                                                        . . . . . . . . o = > f z c L ) 4.q.q.q.6.o.v z u X . . . . . . . . . . # 3 g i M F D ` ~ ` ~ ~ ' $.-.=.-.=.j.h.-.' ^ ` ' ` S Z M m 6 1 # + . . . . . . . = 4 i M V Z C S D ! ~ ^ ^ $.$.$.%.&.4.X.U >.e.Z..X.XL..X.X.X(.T.2.:.a.U _ O.O.) $.~ 0 & X X X l |.|.!.F.R.R.E.t.P a 0 * = + + + . . . . . % J c.r.>.( W ~ u % & h i 3 g 3 3 = . . . & 0                               I X.e % ; % % X % w Q ( 5.y.p.T.E.r.P k p = + &                                                                                                                                                                                                                                                                                 ",
"                                                                                                                                                                                                                                                                                                                        . . . . . . . . o > q k E W Q o.4.9.9.&./ c 0 X o . . . . . . . . . + # = g Z V F ~ @.@.@.' ^ ^ [ *.=.=.k.k.k.x.j.#.' ' ' ! A N M i 6 1 # O . . . . . . + = 4 i M V Z C D ! ! ! / ^ $.%.%.%.&.O.U Y 2.(..X,X,X,X,X,X,X!.D.w.<.U Y U >.5.5.5.%.~ z o X X , o.O.I H I K l v 8 % % y h 3 3 = . . . . . X J c.r.5.:.) ^ v - 0 D ! D D h y > . . . + =                           ^ t t ,.,.<.<.,._ K J ) _ P +.q.y.Q.n.5.l 0 = # + &                                                                                                                                                                                                                                                                                 ",
"                                                                                                                                                                                                                                                                                                                      = . . . . . . . = > q f x ^ o.o.%.&.=.=.-.c u > . . . . . . . . . . + i g i V S D ~ ' @.#.$.@.' ' $.*.-.=.=.k.k.x.j.$.$.#.' ! N i i i 6 1 + . . . . . . # # : 4 i N V C C E ! ! E ^ ) %.%.%.&.%._ X.T C..X.X,X*X:X:X:X,X(.R.A.u.,.U <.5.5.5.:.%.*.V o X # o * e k v v k w a u q u C V i i 2 . . . . . X J t.y.w.>.O.o.J u x ' @.` ` C V h + . . . X &                       W w ; s Z.iXsXsXhXsX5X5X6Xr.K ( 5.r.y.t._ e * o + + &                                                                                                                                                                                                                                                                                 ",
"                                                                                                                                                                                                                                                                                                                      X . . . . . . 2 M N x x S ^ $.^ / C c S ~ h = o . . . . . . . . . . = Z F Z D ~ ! ~ ^ ^ @.$.@.#.$.$.$.-.-.=.k.k.x.j.$.*.*.' ! h i 4 i 5 : O . . . . . . # # 2 i i N A Z C S S S R ^ *.&.&.&.4.( U <. .C..X.X.X,X*X:X:X,X(.!.!.R.e.U _ <._ _ U +.$.V . . + o & u *.*.k 0 * 0 C ` ~ D V u i 3 # . . . . % W r.y.u.>.:.$.c k E #.' ~ ! S C N o . . . . o -                 -.J e ; 8 t J.hXhXfXjXjXjXVXVX3.t H U :.,.>.P 8 % X X o y                                                                                                                                                                                                                                                                                 ",
"                                                                                                                                                                                                                                                                                                                      . . . . . . . 2 i g h h V ~ #.! u * > = 3 = . . . . . . . . . . + + : Z F C D ! ~ ^ ^ ~ ^ ^ @.*.*.*.*.*.-.=.=.k.k.=.*.*.*.*.] N i 4 i i 1 . . . . . . # o o : i g V Z Z C C C C E ^ %.&.=.6.9.( I 2.C.J.*X*X,X*X:X>X:X,X.X(.(.[.D.H H H H I U +.$.j . . + o & & F ~ , % X - C #.' ` S h i 4 o . . . . & / 5.w.e.,.>.o.k q E $.' ~ E S ~ Z o . . . . X &                 ' a 8 I 1.J.7XhXjXgXjXgXgXhXVX.X<.T <.,.r.t.4.d 8 0 u 0 p E                                                                                                                                                                                                                                                                               ",
"                                                                                                                                                                                                                                                                                                                    . . . . . . . $ = : : = * > y N g = + o . . . . . O . . . . . . . = = u ! ~ E ~ / ^ ^ ~ ~ / ~ ' $.$.$.#.' $.-.=.j.j.-.$.$.*.*.' D i i m m = . . . . . . # o o 2 i N V Z V c c c C ^ *.%.-.%.%.6.( I D.H..X*X*X*X8X8X9X9X*X.X.X(.[.e.t t H H H U +.^ y . + 2 = & % p C e * * q E $.$.' ! z u 3 $ . . . . % J ( ,.D.w.>.E , & z #.~ ! E E ' D & . . . . X X ;           ] u - * t F.9XaXdXgXjXjXjXjXgXgXzXhXsX5X!.3.e.T.T.<.U ( ( l e r a k                                                                                                                                                                                                                                                                           ",
"                                                                                                                                                                                                                                                                                                                    . . . . . : 3 2 : = o o X . . + + . . O . . . . . . O . . . . . = 4 j ` -.-.-.*.$.) $.$.^ / E ! ~ ~ ~ ~ E ^ $.=.j.h.*.@.$.*.*.#.D i i M m # . . . . . . # o o 2 i N Z C F C C c E $.-.-.-.[ R / P U H..X,X*X*X8X8X8X9X9X:X.X.X=X;XD.H H _ U H Y _ E * . o 4 4 & * k =.6.O.( Q %.=.-.^ ~ C u 4 o . . . . X w I 2.R.e.>.v & X 0 ! ~ ~ ~ / *.' 0 + X . . . X X         h.j.y X % t .XdXgXgXgXgXgXgXgXgXjXzXzXVXhX.X3.Z.F.F.1. .T T U Y I r e c $.                                                                                                                                                                                                                                                                      ",
"                                                                                                                                                                                                                                                                                                                    . . . . . # 4 4 4 3 : = $ + + + O . . . . . . . . . . . . + o # > Z ' *.-.=.-.=.-.$.=.k.-.@.! E E C C c c / $.=.-.-.*.#.$.*.-.#.D i i g 5 # . . . . . . # # # 3 m N V C C c c E ^ *.=.-.-.~ k k v I G..X*X*X*X*X*X*X:X:X,X.X.X;X4X/.Y Y w.,.U U ( c * . o y u u k Q v.n.v.t.5.q.l.6.^ ^ S h g : . . . . X e I u.R.e.8.W & X , C S ! ~ ^ [ ^ u % X . . . . X       * u N 2 p l Y *XkXgXgXgXgXgXgXfXgXgXjXzXjXhX9X.X.X,X,X.X.X.X>XiXiXiX[.I c w e                                                                                                                                                                                                                                                                     ",
"                                                                                                                                                                                                                                                                                                                  o . . . . . . 2 4 4 4 2 = + . + + O . O . . . . . . $ o o : 4 i i j ~ *.-.-.-.=.=.&.$.=.k.k.=.*.@.^ ^ ~ E ^ $.-.-.-.*.#.#.#.*.*.] Z i 4 2 # . . . . . . . # # = 3 m N x C c c C ^ $.*.-.-.-.C 0 e d H C.,X*X*X*X*X.X.X.X.X.X,X[.F.F.Z.1.1.D.e.w.8.Q q & & > z C C E O.y.p.y.t.8.q.z.6.%.*.~ V V 3 . . . . X w U e.!.Z.t.=.- + > ! E E / ) ) W l e , = o . . . & > & X X X X q U C.9XkXgXgXgXgXkXdXyXyXfXgXjXjXjXhXaXaXaXaXdXdXfXfXhXhXhXsXG.( * 8                                                                                                                                                                                                                                                                     ",
"                                                                                                                                                                                                                                                                                                                  X . . . . . . o = = = o o . . . + + + + # # # # 2 : g M j N Z D ` ~ #.*.-.=.-.-.%.$.o.$.=.k.=.&.*.*.*.@.@.-.h.-.*.#.*.#.#.#.#.#.] Z 4 : . . . . . . . . . # # = 3 M V x C c c / $.*.$.o.@.-.C 0 e H H ...X*X*X*X,X.XH.H.H.(.=X(. .Y ..G.F.R.e.<._ k & X , f V E E W O.p.T.p.y.r.r.c.q.4.6.^ C Z 4 . . . . X q U A./.e.t.=.> + > ~ ' ^ o.O.6.5.5.%.^ z 3 # . . X X . . . . X e Y J.aXkXgXgXgXdXdXdXtXtXyXfXfXgXjXjXjXhXhXjXjXgXgXgXgXxXzXzXsX|.l e )                                                                                                                                                                                                                                                                   ",
"                                                                                                                                                                                                                                                                                                                o . . . . . . . . . . . . . . . . + # # # # # # 3 g g Z D F F C D ! D ~ ' $.*.-.-.*.o.^ ^ $.-.-.*.$.$.*.*.*.-.-.*.@.@.@.@.' ] ] ` G N 2 # . . . . . O . . @ # = 1 4 N V V S E / ) *.*.*.! ! #.S e ( ,.1.J.,X*X*X*X,X.XH.F.G.F.(.R.Y H ..F.!.F.2.I l * X X q x S E Q P X.y.W.W.W.y.y.c.0.l.k.' C Z 5 . . . . . * H D.(.Z.w.) - X - R ^ O.O.5.n.E.W.n.0.E u = . . . . . . . . % H Y I.0XyXyXdXyXtXeXeX0X0XtXyXyXfXjXjXjXjXjXjXgXgXgXgXjXjXzXzXVXBXE.l r l                                                                                                                                                                                                                                                                 ",
"                                                                                                                                                                                                                                                                                                                + . . . . . . . . . . . . . . . O # # # # # : : 2 3 5 g j V Z V S S S S ! ~ ~ ' -.$.$.^ ^ $.-.-.-.*.*.*.*.@.^ ' ' ~ ` ` ! x j V F F i = # . . . . . . . . . # 1 : 4 N V C ! ~ ^ $.$.@.#.x q u e e 8.[.(..X,X*X,X.XoX.XH.G.Z.Z.Z.3.T U 1.Z.e.w.,.I k > X & x ^ ^ ) O.X.>.D./.|.].Q.n.v.l.l.l.[ S F i . . . . . X t D.oXZ.,.Q * X * R O.4.8.u.R.R.!.Q.,.L k > X . . . . . . X 8 a. .I.qXeX0X0X0X0X0XeXeX0X0X0X0XdXjXjXzXjXjXjXgXgXgXgXjXjXzXzXVXVX/.H e e                                                                                                                                                                                                                                                                 ",
"                                                                                                                                                                                                                                                                                                              # . . . . . . . . . . . . . . . . O # # # # # : 2 2 3 3 y j A C C c C S S S v k E ' @.@.@.@.*.-.-.j.-.-.-.*.^ ! ! ~ ~ ! ! F p > g F Z i = # . . . . . . . . . # 1 2 i N V S ~ o.$.$.^ ~ ! u ; 9 w t e.:X,X.X*X.XL.J.H.J.C.G.F.F.F.R.R.D.e.2.U I J r * > > w ! -.&.4.6.r.n.|.&X&X|.Q.n.n.c.z.l.$.! F i . . . . . X r R.;XZ.<.Q , o u %.0.t.p.D.F.F.!.R.w.( ! u X . . . . . . . 9 2.J.P.0XqX7XcXqX0XdXhXhXdX0XqX0XeXfXjXzXjXjXjXjXjXgXgXjXjXzXzXVXsXH.U d t                                                                                                                                                                                                                                                                 ",
"                                                                                                                                                                                                                                                                                                              . . . . . . . . . . . . . . . . . O # # # # # : 6 3 3 4 u N Z C F S S ! ! ! k 0 v ^ ' ' $.*.*.$.*.-.=.j.=.-.@.~ ~ ! ! ! F V p y N Z N 5 = # . . . . . . . . . # 7 3 i N V D ' @.$.$.~ x x p * 9 H U G.>X*X*X,XJ.I.I.C.C.C.F.R.F.F.F.D.e.w.>.W r * % X = j E $.6.6.8.t.Q.].&X-X&X|.Q.n.m.v.c.l.$.! D i . . . . . X d (.:X3._ ) q & E z.v.T.T.D.G.G.!.|.).4.@.D o . . . . . . . 8 2.*X0XeXqXP.I.P.9XaXhXhXdXqX7XqX0XeXdXhXjXjXjXjXjXgXgXgXjXzXzXVXVXiX2Xt.K                                                                                                                                                                                                                                                                 ",
"                                                                                                                                                                                                                                                                                                            . . . . . . . . . . . . . . . . . O @ # # # # # : 4 4 4 y i j V Z C S E ~ ^ ~ k e c ' ' #.$.-.*.^ ~ @.;.-.-.*.' ~ ~ ~ ! D Z j j V F F M 4 # @ . . . . . . . . . # # 2 4 M V F ~ @.@.' x , * * % 8 I 1.J.:X*X*X*XL.J.J.H.H.G.G.D.1. . .<.<.5.l.-.p o + X * u J &.9.8.8.8.T.|.-X-X-X{.E.E.E.M.z.l.$.! D i . . . . . X K [.:X3.<.7.k 0 ^ t.p.T.D.Z.G.H.(.}.E.o.E G : . O . . . . X *  .:XaXeX0XP.I.I.L.8XaXaXaX7X7XqX0X0XeXdXgXjXgXgXgXgXgXgXjXzXzXzXVXsXsX`.K                                                                                                                                                                                                                                                                 ",
"                                                                                                                                                                                                                                                                                                            . . . . . . . . . . . . . . . O + O O # # # # # : 5 g g h i j V V V F ! ~ ^ ! k w S ^ ' @.*.*.@.^ ^ ^ @.@.@.@.' ` ~ ! D F N M M V Z N i 2 # . . . . . . . . . # # 2 3 4 m j j S ! ^ ^ C * X & e d 2.G.K.*X7X7X*X*X9X9X>X>X(.G.e.1.T U U U W S h = X + + & 9 d %.q.8.w.y.^.&X1X-X-X|.Q.n.m.v.l.l.$.~ D g . . . . . X d /.,XC.,.z.! f ^ t.e.Z.Z.Z.G.(.(.`.0.w & : $ . . . . . . X ; Y H.*X*X*X7XXXK.K.XX:X*XP.K.P.7X0X0X0XdXgXjXgXgXgXgXgXgXjXzXzXzXhX>X4X5.s                                                                                                                                                                                                                                                                 ",
"                                                                                                                                                                                                                                                                                                            . . . . . . . . . . . . . O # # # + + # # # # o : i j V V g h j j x F ~ ~ ~ S f f ! @.@.#.#.#.@.' ^ ^ @.@.~ ~ ~ ~ ~ ! D Z N g g M N g 3 # . . . . . . . . . O # # 2 5 4 i u f x S ~ #.S & & L X. .G.H.J.*X7X*X7X9X9X9XiX>XH.2.<.<.<._ U J e X . . . + = 0 w d O.c.n.E.`.&X1X-X-X&X|.Q.n.n.c.0.k.$.! D g . . . . . X t F..XZ.2.z.D u W y.Z.Z.G.H.(.[.^.m.=.0 . . . . . . O . . X * H ..C.I.J.*X8XXXK.L.L.L.L.J.K.*X9X0XaXkXhXjXgXgXgXgXgXgXjXjXzXVXVX,X2.t 8                                                                                                                                                                                                                                                                 ",
"                                                                                                                                                                                                                                                                                                          = . . . . . . . . . . . . O O # # # + + # # # # o > y j Z F V h g f h V ~ ~ ! x f j D @.#.@.*.*.@.@.' ' ~ ~ ~ ! ! ! ! D S V g i i m m 5 # . . . . . . . . . . . # 2 5 4 i i h f x S ! #.C * * o.t.3.G.J.J.L.*X*X*X9X9X9X9X,X..T U U O.+.W f X . . . . = h k v J O.v.E.{.<X1X-X-X1X<X{.n.n.n.t.q.9.$./ ! g . . . . . X s C..XC.,.6.x * v n.F.(.oXoX(.^.t./ S > . . . . X X . . . X * H Z.H.K.L.*X8XXXL.L.XX*X:X.X.XoX>XiXaXaXhXhXjXjXjXjXjXjXjXjXjXVXVX2XI 8 8                                                                                                                                                                                                                                                                 ",
"                                                                                                                                                                                                                                                                                                          # . . . . . . . . . . . . O # # 1 1 1 1 # # 2 : 4 j j F ~ ~ V f y 3 3 j D E S x j f x ! ' #.*.^ ~ ~ ~ ! ! D D D D ! D A N N g i i i i : + . . . . . . . . . . O # 2 4 4 i i h j V C S ~ j , 0 P 2.G.H.G.C..X>X>X>X>X>X:X:XL...<.U K K v u & . . . . . & u k J 7.t.E.`.&X-X-X-X-X<X<X{.m.n.n.0.9.9.) ! ~ g . . . . . X s Z..XZ.,.) u & e T.!.oX;X-X^.M.Q ; * o . X q x ! F # . + * 8 <.;XiX9X8X7X7X*X*X*X8XiXsX;X3.3.C.H..X:X9X9X0XaXhXhXkXhXhXhXhXVXBX).e ; *                                                                                                                                                                                                                                                                 ",
"                                                                                                                                                                                                                                                                                                        + . . . . . . . . . . . O O # # < < 1 2 6 1 # 2 g N F D D ~ ! x f q 3 > u x S x x x x x C ! ~ ! C V V x x x V F F F D F V g m i 6 3 3 2 # . . . . . . . . . . . . # 2 4 4 i i g h j h f f > - u $.y.D.G.3...G.(.!.F.!.!.L.,X,X(.T.q.l 8 * % X . . X = > , u l O.)._.`.}.&X&X&X-X1X<X<X{.E.n.m.c.0.9.) ! ! g . . . . . X t F.(.Z.,.W , X 9 n./.=X;XW.c.l.c & = & & , E 6.x.x.y . + - * _ |.4X.X*X7X7X*X7X9X8X9XpX(.Y Y T ..J.L.L.K.J.J.K.J.J.J.J.G.Z.e.5.a X X ;                                                                                                                                                                                                                                                                 ",
"                                                                                                                                                                                                                                                                                                        . . . . . . . . . . . . # # < < < 1 1 2 6 2 # 4 N F D ! ! / ! x j f u u f x C c x x x x C S D C h h h f j j V Z Z Z F Z N i i 3 2 = o # . O . . . . . . . . . . . # 2 4 i y i g i u 3 > > > > p ^ 4.>.U H H H H H H H Y 1.!.(.~.Q.6.q X X . X X X o u x c $.6.v.'.`.|.}.&X&X&X&X<X<X<X{.).E.m.c.0.9.[ ! ` g . . . . . X t G.(.3.<.J % . 9 u.F.=X[.w.o.^ > . o & 9 d Q &.z.k.u & = y & 0 P <...K.qX7X*X*X*XL.L.:X~...C.(..X.X*X:XXXL.L.J.J.I.I.I... .Y e X . X ;                                                                                                                                                                                                                                                                 ",
"                                                                                                                                                                                                                                                                                                        . . . . . . . . . . O O # 2 2 2 7 2 2 2 3 2 2 g V F ! ~ ! E ! c z z z x C ! ~ E c C c x x C D C z h u u h h j j N Z D D Z i 4 2 = # + + . . . . . . . . . . . . @ # 2 5 i y g g g y : : 4 > = * 0 w t H Y Y Y Y H H H Y Y U U I J q X X X % - > - * u C ^ v.N.E._.W.|.}.}.&X&X&X&X<X<X{.`.E.).c.9.6.' ! ` g . . . . . X t D.(.3.<.l X . 9 w.F.=X].X.r q X . . * x Q X.X.O.W v ` ' C & X ; e H J.0XqX7XK.C.I.C..X:X.X:XpXaXaXaXhXhXhXaXaXiX9X8X:XoX(.e.J ; X % 8                                                                                                                                                                                                                                                                 ",
"                                                                                                                                                                                                                                                                                                      + . . . . . . . . . . O O < 6 6 6 6 6 6 2 3 4 y N Z F ~ ' / E L c c c C E ~ $.-.$.Q / ^ ! C c S S x h u u u q q y u N F D N 4 : = o # + . . . . . . . . . . . . . # # = 6 i i g j g y : = 4 > & & & ; 8 U oX4X;X[.!.G.u.u.,.I e * % . . . = y u V x u / &.9.N.'.).E.E.|.}.&X&X&X&X&X<X<X{.`.E.).c.9.6.) ! ] g . . . . . X e e.~.1.H 9 . . 9 y.R.[.|.%.* . . . . > / o.+.X.P d E x.B.! & X % e U H.9XqX9XL.....C..X9X9X0XaXkXkXkXhXVXVXVXVXVXVXhXkXaXiX4Xy.r w c r                                                                                                                                                                                                                                                                 ",
"                                                                                                                                                                                                                                                                                                      X . . . . . . . . . . . + < 6 6 5 5 4 4 3 i N Z F F F ! ^ / W ) o.%.&.&.&.9.z.l.9.4.=.=.*.^ / E C k u q w 0 , , > , q u u 3 = = # o # + . . . . . . . . . . . . . . . # 2 4 i M N j 4 : & > 0 , q z l t 1.oX5X>X:X.X(.!.R.E.6.q X . . . + 3 0 u c / / 6.M.m.).`.`.^.^.{.&X&X}.&X&X&X<X<X{._.E.).c.9.6.) ~ ` g . . . . . X e e./. .d ; . . 9 2.F.].{.6.X . . . . > / o.o.X.Q J L =.k.E 0 8 e d <.H.8X0X9X:XZ...C.*X0X0X0XdXdXdXkXhXhXVXVXVXVXjXhXkXaXaX>XF.U J ^ L                                                                                                                                                                                                                                                                 ",
"                                                                                                                                                                                                                                                                                                    + . . . . . . . . . . . . # 1 2 6 5 4 5 4 4 g D D D F x c / o.&.M.N.'.'.'.'.'.'.N.z.0.9.9.=.&.%.%.) Q / E J v c z k k k k h i 4 3 3 = # # + . . . . . . . . . . . . . # # 2 5 4 m M g y > * y x k c %.8.,.Z..X,X.XK.J.H.G.e.t.) - . . . . = h q w J $.&.0.N.).).'.`.`.`.{.&X}.}.}.&X&X<X<X{._.).).v.0.=.) / ' g . . . . . X e e.!.1.H 8 X . r i.D.T.m.) X . . . . > E o.X.X.( W Q &.-.v 8 e t H Y S.*X7X*X4X~...I.*XaXtXtXdXkXdXkXkXkXjXjXjXhXhXfXkXdXaX9XoXU r W                                                                                                                                                                                                                                                                   ",
"                                                                                                                                                                                                                                                                                                    . . . . . . . O . . . O + # 1 2 6 5 5 3 4 i j D ~ ~ F x c ~ &.9.M.'.'.'.'.'.{.'.'.M.0.9.9.9.9.l.z.z.z.c.x.z.l.k.6.=.-.$.#.' ] D N m : + + + . . . . . . . . . # # @ # # 2 5 m m B M 4 > : & > S c L +.c.T.F.~.H.H.H.G.Z.1.U L f X . . . . = C E E ) 9.l.0.m.E.).`.`.`.`.|.}.}.}.}.}.&X<X<X{.`.).).v.9.=.^ ~ ' g . . . . . X 8 2.F.2.:.c X . l u.e.i.4.S + . . . . & v Q X.+.( Q o.%.%.v 8 ( v.8.H <.:X:XJ.~.F...I.*XdXdXdXkXkXkXfXkXkXhXhXhXhXkXfXdXkXdXaXiX5.t W                                                                                                                                                                                                                                                                   ",
"                                                                                                                                                                                                                                                                                                    . . . . . . . O O . . O # # # 2 6 6 5 4 i j V F ! ! D S ! o.-.=.&.9.q.z.M.M.m.m.M.z.9.9.9.9.0.v.m.m.m.m.N.N.N.M.z.l.k.k.-.-.*.' G Z 2 . . + . . . . . . . . . # # # # # # 2 5 m M m 3 : > * & k E W ( O.5.w.2.2.2.T.W.v.U w 9 & . . . . . & x [ *.6.l.l.0.c.n.).`.`.`.W.].}.}.}.}.&X&X<X<X{._.).).v.9.=.^ ~ #.j . . . . . X 8 <.G.e.t.;.> X L p.e.,.( f . . . . . & z W o.O.o.o.o.$.&.K H v.1X_.H K ].].,.3.1.....P.0XtXdXdXkXfXhXjXhXhXhXhXhXfXkXkXkXkXhXsXu.t P                                                                                                                                                                                                                                                                   ",
"                                                                                                                                                                                                                                                                                                    . . . . . . O O O . O O + # # 1 2 2 3 i j N j V S ! D ! ! ' -.$./ P P Q X.o.o.%.4.9.6.9.9.9.6.c.N.N.N.N.N.N.N.M.z.l.z.k.&.-.h.#.G G 4 . . . . . . . . . . . O $ . . . # # # # 2 5 5 4 : : = * z ^ W J K K K K I I P W L w % X . . . . = 3 j ~ $.-.6.l.0.q.t.c.E.)._.E.E.].{.{.}.}.&X&X<X<X{.E.).).v.9.=.^ ~ ' g . . . . . . 8  .Z.3.t.o.* . v p.e.,.P f . . . . . X q c W o.o.) ) o.o.L I Q.3X].t 8 K I P 5.<.T ..J.7XqX0X0XtXdXfXkXhXhXhXhXhXhXkXkXkXdXaXiX:.t W                                                                                                                                                                                                                                                                   ",
"                                                                                                                                                                                                                                                                                                  . . . . . . . O O O . O O # # # 1 2 3 3 i g N j z C S S ~ ~ ~ #.^ E L W ^ ^ o.^ o.o.&.&.4.4.9.9.l.v.B.M.m.m.m.m.M.t.0.z.0.&.-.-.' F D 4 . . . . . . . . . . . O . . . . # # # # # # 2 2 = : # = z ' S q 0 , * 8 8 * ; ; ; X . . . . . + h S ' -.%.-.6.9.q.q.t.c.m.E.E.E.E.`.{.|.}.}.&X&X&X<X{.E.).).c.9.=.^ ~ ' i . . . . . . 8  .e.u.t.o.* . v p.e.8.( f $ . . . . . & e J ) %.O.o.( ) ) I w.1X_.e ; ; ; a O.U U 1.J.P.7XqXqXqX0XeXdXdXhXhXVXhXhXhXhXhXfXhX5X_ e W                                                                                                                                                                                                                                                                   ",
"                                                                                                                                                                                                                                                                                                  + . . . . . . . O O . O O # # # 1 : 2 4 i i h z x x x V D D D D E c C ~ @.$.*.*.$.*.=.9.9.9.9.l.z.l.l.l.z.M.M.M.c.t.t.t.0.6.=.=.` V V = . . . . . . . . . . . . O . . . . . O # # # # 2 2 # . + = 3 > X X X X X X X X X X . . . . . . = z D ' *.&.=.=.9.9.q.q.t.n.E.Q.m.E.`.{.|.}.&X&X&X&X<X{.E.E.N.z.6.&.^ ~ ~ y . . . . . . 8 <.Z.u.r.W & . v p.e.w.X.C : . . . . . X 9 E 6.6.4.O.( Q ) P _ |.].K 8 ; * z ~ K H 1.S.XX0X0XqXqX0X0X0XdXhXVXVXVXVXVXVXVXVXVX6X_ e E                                                                                                                                                                                                                                                                   ",
"                                                                                                                                                                                                                                                                                                  + . . . . . . . . O . . . O # # 1 : 6 m m g h j V x x V Z F Z F F C C D ! ~ ~ @.#.*.j.k.9.9.l.z.z.k.o.W ) &.q.c.c.c.z.z.z.9.-.-.! h u o . . . . . . . . . . . . O . . . . O # # . . . 5 B o . . . X X X X X X X X X + . . . . . . o = p z S @.$.$.%.&.6.6.q.z.c.v.m.n.n.E.].{.{.}.&X&X<X{.{.'.m.n.M.9.&.&.^ ' ! - . . . . . . t 2.Z.u.,.L & . k n.e.,.Q x 2 . . . . . . & E k.l.0.:.) Q ^ I H T.2XW.c.J 0 y z c H <.C.K.0X0X0X0XwXwXdXdXhXVXVXVXVXhXhXhXsX2Xn.d 9                                                                                                                                                                                                                                                                     ",
"                                                                                                                                                                                                                                                                                                  . . . . . . . . . O O . O O # # 2 3 i B Z N V Z C z h j j j N V x z x x x x x C C ^ j.j.k.-.-.6.-.*.^ E Q %.6.z.z.z.z.z.l.=.-.*.F y 3 . . . . . . . . . . . . . . . . . . . . @ . . . 2 m o $ o X % - u u , , > = + . . # # + . 3 g j z z S ^ ^ ) o.%.&.6.0.c.c.c.v.M.n.m.`.{.{.}.&X1X<X{.{.'.n.c.z.6.=.%.^ $.! & . . . . . . r e.Z.1.<.R & . v Q.e.,.L , $ . . . . . . X w $.l.l.6.$.^ Q K d u.oXoX1Xm.0 X > v I 1.C.J.0X0XtXtXtXdXdXdXkXkXdXaXaXaX9X,XZ.Y t 8 0                                                                                                                                                                                                                                                                     ",
"                                                                                                                                                                                                                                                                                                = . . . . . . . . . . O . O # # 1 2 3 m B Z N Z D F h 0 > > > 3 y y p u f z z x k f c -.k.k.*./ #.^ ~ ~ / ^ &.=.9.9.l.l.l.k.-.$.` j = o . . . . . . . . . . . . . . . . . . . . . . . . X * u ~ o.v e e v c k z V i o . . i B 2 = N G D S c c ^ o.o.o.%.&.4.0.c.c.c.c.n.m.N.`.{.`.{.&X<X<X{.'.'.n.c.z.4.=.-.$.*.D o . . . . . . r e.Z.1.<.Q - X L Q.e.t._ ; . . . . . . . . & / l.l.9.%.W E l t <.D./.1X).0 + & k U e.J.P.0XtXtXtXtXdXdXdXdXdXdXaXaXaX9X,XD.t ; ; 8                                                                                                                                                                                                                                                                     ",
"                                                                                                                                                                                                                                                                                                + . . . . . . . . . . . . O # 1 2 6 5 m N N M V D D x q * - - - , > , e u z z x k u k ~ j.j.#.! #.' ` ~ ~ ' *.-.&.&.=.=.-.$.~ D V : X . . . . . . . . . . . . . . . . . O O . . + . X > 0 e ^ c.v.4.( W O.$./ C F N o . . 3 i 2 i Z G ~ ~ E / o.o.%.%.&.6.6.q.l.z.t.c.n.E.'.'.`.^.|.<X<X{.`.'.).M.c.l.&.=.-.*.*.F + . . . . . . r u.Z.2.,.*.3 & P p.D.Q.O., . . . . . . . . X x k.x.l.=.^ c a u J U Q.<Xl.* X & d U G..X7XtXyXtXyXtXyXdXdXdXdXdXdXdXaX9XoXR.d ; & ;                                                                                                                                                                                                                                                                     ",
"                                                                                                                                                                                                                                                                                              . . . . . . . . . . . . . . # # # < 6 5 i M N N h V S C x z j f f u q e q k c c c v k k c E C f u S ` ` ` ' ` ' *.=.-.*.#.' S u h g o . . . . . . . . . . . . . . . . . . O O . + X X > ~ L P 8.m.y.w.r.v.c.9.$.! Z g o . + + = 3 i A S D ~ ~ ^ &.&.&.6.6.6.9.0.0.q.q.0.M.).'.`.`.^.`.{.{.'.E.N.m.z.z.9.$.-.-.*.#.Z . . . . . . . r e.Z.2.w.k.p & I e.D.T.5.9 . . . . . . . . X , ~ x.x.x.*.k - - 0 e ( z.R X . % d a.H.*X7X0XyXyXyXyXyXyXyXdXdXdXdXdXaX*XJ.u.r % & ;                                                                                                                                                                                                                                                                     ",
"                                                                                                                                                                                                                                                                                              X . . . . . . . . . O O . . . . # # 2 5 i g m h h j x S ^ $.^ ^ ^ / E / / o.%.%.%.o.o./ v r 9 ; X - u u z V Z ` h.j.*.#.' ] Z > > > $ . . . . . . . . . . . . . . . . . . . . . X % % c 6.U U :.r.r.5.5.0.0.$.R h y = + . . o = y i h N C ~ ^ $.-.6.6.6.6.9.q.0.0.6.8.q.c.E.).`.{.{.{.<X{.'.N.M.z.9.9.=.$.&.-.` ` N . . . . . . . l e.Z.2.w.k.u & K e.Q.W.0.q . . . . . . . . . X 0 S *.*.! 0 X . X X * 0 ; X . % t U G..XP.7XqX0XwXwXtXtXtXtXdXtXeXaX0XL.C.e.l X & u                                                                                                                                                                                                                                                                     ",
"                                                                                                                                                                                                                                                                                              + . . . . . . . . . O . . . . . # # = 3 5 i y u V C c ^ -.=.&.$.$.o.O.4.9.z.c.v.v.c.c.l.&.^ E x u , & & = & > V #.h.D z h g 4 o + + . . . . . . . . . . . . . . . . . . . . . X u / c O.5.X._ X.:.>.U K J E a 0 & o + . + o 2 i i u h z c ~ ^ $.=.6.9.9.0.0.l.0.0.q.q.q.q.m.`.`.{.{.{.<X'.N.M.z.9.&.6.6.=.=.#.V N 4 . . . . . . . l t.e.2.5.%.- % K e.R.W.c.a X . . . . . . . . . X * > > = X . . . X X % * - X & r _ Z.H.K.P.7XqXqXwXtXwX0X0XeXeX0X0X9XK.G.Q.k X *                                                                                                                                                                                                                                                                       ",
"                                                                                                                                                                                                                                                                                            o + . . . . . . . . . O . . . . . @ + # = 3 y y u D ~ / $.6.6.&.&.&.4.5.q.t.n.n.E.Q.E.E.).m.z.l.k.h.x & X o $ o = i y = X X X . . . . . . . . . . . . . . . . . . . . . . . . . ; E N.n.n.y.w.,.a.U I d e * 9 * X X . X . o 3 m M g h V S E ^ ^ $.=.6.9.0.0.0.l.0.q.0.v.t.8.m.'.'.{.'.'.'.).c.9.9.&.%.6.k.k.h.` j g : . . . . . . . v t.e.2.8.[ & X J e.D.Q.q.q o . . . . . . . . . . . . . . . . . . . . o = > & 0 R :.w.A.C.I.P.7X7X0X0XqXqX7X7XqX7X7X*XJ.u.X.* X *                                                                                                                                                                                                                                                                       ",
"                                                                                                                                                                                                                                                                                            + . . . . . . . . . . O O . . O . . . + o : u h V ` ' ^ $.&.4.5.4.5.8.y.n.T.R.W.W.W.^.|.].E.c.m.B.x.E * ; & = o # + . . . . . . . . . . . . . . . . . . . . . . . . . . . . . . * W v.n.n.y.e.e.<.U I I l 0 * o X . . . + : g Z N j V ~ ^ ^ / E ^ %.6.9.0.0.l.l.q.5.z.m.t.>.c.).'.`.).).).N.M.z.z.9.&.=.=.-.#.D h y # . . . . . . . r 8.e.2.r./ % X P D.Z.y._ 9 o . . . . . . . . . . . . . . . . . . . . . o & & - k J H U Y Y I.K.P.7X9X7X*XP.P.P.P.L.K.C.U e % X ;                                                                                                                                                                                                                                                                       ",
"                                                                                                                                                                                                                                                                                          . . . . . . . . . . . . O . . . . O . . + = 4 j F ' #.$.%.&.4.6.q.6.5.t.].|.[.[.[.&X=X-X1X-X].^.`.'.'.z.R u z h = + + + . . . . . . . . . . . . . . . . . . . . . . . . . . . . X 0 E 6.8.t.u.e.T.R.T.y.c.6.E - . . . . o 3 i N A A C D ~ ^ / c l L $.6.9.9.l.0.0.4.4.l.c.6.o.9.z.M.N.M.M.M.M.M.z.x.k.&.$.^ E C V g 4 + . . . . . . . e :.1.2.t.' & & ( T.e.w._ r y # . . . . . . . . . . . . . . . . . . . . . o & & * 9 r P U T 3.H..X:X:X:X.X.X.XK.H.H.~.W.( * & - e                                                                                                                                                                                                                                                                       ",
"                                                                                                                                                                                                                                                                                          . . . . . . . . . . . . . . . . . . O . # 3 h V ~ #.$.%.&.&.4.9.q.8.8.y.].=X=X-X-X-X;X2X2X2X-X-X<X<X3X@Xl.$.=.~ 0 X X X . . . . . . . . . . . . . . . . . . . . . . . . . . . . + - u / W O.5.2./.}./.T.v.6.k o . . . # i M M N A C C E ~ ~ W L J L o.=.9.9.9.0.0.&.%.l.z.&.Q &.&.=.9.=.%.%.;.$.-.=.-.$.' C k u u i 4 + . . . . . . . e X. .2.t.[ & & U e.3.w.X.v F 3 . . . . . . . . . . . . . . . . . . . . . + & & & & q l J I ( _ <.<.<.<.<.T T T U U <._ l ; * c                                                                                                                                                                                                                                                                         ",
"                                                                                                                                                                                                                                                                                          . . . . . . . . . . . . . . . . . . O # 4 g z x E ^ $.&.6.5.5.q.8.8.8.w.R.=X-X=X=X-X;X;X2X;X-X-X-X1X3X<XE.n.).c.) c k = . . . . . . . . . . . . . . . . . . . . . . . . . . . . X o & 0 0 k P _ W.<Xn.O.%.E > . . . . 3 Z Z V V A C C C ! ^ ) ) ) ) o.o.%.&.6.6.6.&.&.k.l.$.E ^ ^ ^ ^ ^ ^ ^ / / ^ $.*.$.$.E h y 4 4 4 $ . . . . . . . k 4.X.,.c.[ & & P u.3.w.+.L ' m . . . . . . . . . . . . . . . . . . . . . X o & & & * 8 ; ; ; ; ; ; ; ; ; * 8 8 ; ; 8 8 & % ;                                                                                                                                                                                                                                                                           ",
"                                                                                                                                                                                                                                                                                        # . . . . . . . . . . . . . . . . O . $ g V j z z c E ) %.6.8.q.8.8.r.u.2.D.[.oX[.(.oX-X;X;X;X;X=X-X1X2X3X&X1X1X<X'.N.z.E * X . . . . . . . . . . . . . . . . . . . . . . . . . . . + + o * e k K 4.c.P e e > . . . . o M F F Z Z C C C x c W $.%.%.%.o.) o.%.&.4.4.6.=.=.=.^ C ! ~ ~ ~ ~ ^ ^ ' #.#.#.*.*.#.` C h 4 4 5 # . . . . . . . p ) P O.v.$.& ; U 2.3.2.:.( #.V . . . . . . . . . . . . . . . . . . . . . . . X & * 0 w a w 9 8 * * q u - * > & X X o o X % *                                                                                                                                                                                                                                                                           ",
"                                                                                                                                                                                                                                                                                        o . . . . . . . . . . . . O O . O . + = N Z j z k J L ( O.5.8.8.8.8.w.u.w.D.[.oX/.F.!.(.[.oX;X;X;X;X;X;X2X2X2X2X3X<X`.m.o.0 & = + . . . . . . . . . . . . . . . . . . . . . . . . . . . X & > u e v v * X . . . . . . 2 m m M N Z Z A z u u E $.&.=.%.$.$.o.%.&.&.&.=.=.%.$.! z V C S D D ~ ~ ~ ` ` ~ ! E C C D N 3 2 2 O . . . . . . . & 0 e o.c.*.- ; U 2.2.2.>.o.*.V . . . . . . . . . . . . . . . . . . . . . . . o p c W O.6.:._ ( W Q $.-.C * = o X . . o , w                                                                                                                                                                                                                                                                             ",
"                                                                                                                                                                                                                                                                                        + . . . . . . . . . . . . . O . . O o = y V C C L W O.5.5.,.i.w.w.w.w.e.e.R.|.=X(.F.!.F.G.H.=X;X;X;X;X=X=X=X-X-X1X1X{._.v.o.~ D y + . . . . . . . . . . . . . . . . . . . . . . . . . . . . + & * 0 0 X . . . . . . . + + # # = : : = = & * z / [ $.*.*.*.&.%.%.%.%.%.*.$.' V > > 0 y y y i g g u u u u u u a C N = o # . . . . . . . . o - * E =.E & * U 2.u.u.>.o.$.z . . . . . . . . . . . . . . . . . . . . . . . = E =.5.8.r.w.8.5.5.8.t.z.W * X X . . . % c                                                                                                                                                                                                                                                                               ",
"                                                                                                                                                                                                                                                                                      . . . . . . . . . . . . . . . . . . # = = > z S ~ Q ) q.y.u.2.e.D.~./.R.R.R./././.[./.(.!.F.F.oX;X4X4X;XoX(.(.[.=X-X-X}.}.{.).B.x.D = . . . . . . . . . . X X X * 0 q u z z k a q * & & X . . . . . o + . . . . . . . X . . X X . . . . . . . = p z C ~ ' $.$.$.^ ^ $.$.[ ' ! h = X o o # = = = = = = = = - - q h u - o + . . . . . . . . : z q c E 0 X 9 :.u.Z.y.5.o.~ u . . . . . . . . . . . . . . . . . . . . . . . = c $.5.8.u.u.r.8.,.8.r.l.W * X . . . X X k                                                                                                                                                                                                                                                                               ",
"                                                                                                                                                                                                                                                                                      . . . . . . . . . . . . . O . . . . # 3 y p h C ~ ) X.r.D.D.D.R.(.-X;X-X[.[./.e.2./.&X=X=X[.[.=X;X4X4X;XoXoX(.(.oX-X=X}.}.{.'.N.x.h.i o + . . . + u u q 0 u a J $.5.q.n.W.W.W.E.n.r.O.o.C X . . . . . . . . = f x x E ^ / J c c v z z h 0 & X + = > N D ! ! ~ D S S ~ ` ' ] D h & . . . . . . . . X + X % ; ; ; 8 - % X . . . . . . . . . o 0 q E E * X u 8.u.A.e.8.o.x = . . . . . . . . . . . . . . . . . . . . . . . o * a O.0.r.r.w.8.5.8.t.0.W * . . . . X X                                                                                                                                                                                                                                                                                 ",
"                                                                                                                                                                                                                                                                                    = . . . . . . . . . . . . . . . . . . = i h z A C ~ W _ e.R.F.G.!.oX;X;X-X[.!.D.<. .^.[.&X=X=XoX=X;X;X4X;X;X;X;X;X;X=X[././.|.{.).M.x.S = # . . . X k k r d K K I ,.2.e.G.H.(.(.oXoX[.W.m.9.0 . . . O O . . . j k.q.c.'.{.{.{.{.{.{.{.'.'.N.-.y + # 5 Z Z Z Z Z V V V V x V N g : o & x S C L Q ( L w e r r r t r e e * & X . . . . . . . . . X * ! ' - X k 0.r.u.y.0.) w X . . . . . . . . . . . . . . . . . . . . . . . o % 8 L O.X.7.0.5.8.0.r.0.E * . . . . X ;                                                                                                                                                                                                                                                                                 ",
"                                                                                                                                                                                                                                                                                    = . . . . . . . . . . . . . O O O . + = i h k c E Q ( :.T.(.(.F.!.[.=X-X-X|.R.T.n.t.E.`.].].`./.|.oXoX-XoXoX;X;X;X;XoX(.F.e.R.].m.c.x.N o + . . . & v J P X.,.<.i.e.Z.C.C.H.H.L..X.XoXQ.v.6.0 . . . O O . . . f 9.8.w.Q.|.}.}.-X-X-X&X}.@X'.=.q o + < 1 1 = = = = = = = & o o + . . k 6XBXsXsXsXsXsXG.3.p.p.e.w.i.,.:.O.^ k & X . . . . . . . X * C ! - X u q.w.5.5.:.) k & . . . . . . . . . . . . . . . . . . . . . . . & 9 e W P d J ( ) o.O.O.%.R * . X o &                                                                                                                                                                                                                                                                                     ",
"                                                                                                                                                                                                                                                                                    o . . . . . . . . . . . . O O + # # = 4 h x x c W ( _ ,.T.[.[.R./.].W.E.E.Q.t.0.9.$./ W ) ) W P X.r.T.E.W.].-X2X2X2X=X[.R.Z.D.E.q.4.-.u o + . . . & J 5.t.W.|.(.(.(.(..X.X.X.X,X,X,X;XR.c.) & . . . O . . . . f 9.8.2.D.R.[.=X=X=X=X[.}.<X'.O.k 0 o . . . . . . . . . . . . . . . . b BXVXxXxXxXxXhX,XH.H.(.!.F.G.D.e.u.q.( e > = . . . . . . o - z C = X 0 ) >.:._ P W ~ z i o . . . . . . . . . . . . . . . . . . . . % k / O.q.>.K K R R l w a k u & X 3                                                                                                                                                                                                                                                                                         ",
"                                                                                                                                                                                                                                                                                  o . . . . . . . . . . . . O # # # # o 3 u A C c L ) O.5.r.y.W.T.,.8.+.l l l k q , * + . . X X . X % 0 r K I 7.Q.`.{.&X1X-X[.^.W.T.:.+.$.u = + . . . % L >.i.e.~.(.(.(..X.X.X*X,X:X;X;XoXr.) k X . . + + . . . . k 0.t.e.e.Z.R.[.oX[.(././.].^.n.c.&.a % % X X . . . . X o . . . . . . r sXVXxXxXxXxXaXJ.C.H.H.H.F.G.Z.e.2.,.( e * = . . . . . X = - u N = . & v ( X.U P L @.#.` 3 . . . . . . . . . . . . . . . . . . . X * L 5.0.c.q.J a a a 9 % % & & X X 0                                                                                                                                                                                                                                                                                         ",
"                                                                                                                                                                                                                                                                                  . . . . . . . . . . . . . O @ # # # o y k c J J L %.0.c.v.c.m.c.Q d 8 % X X X . . . . . . . . . . . X X X % * 0 w d >.}.<X&X}.|.W.:.%.$.u = + . . . X J X.,.2.A.R.!.(..X.X.X,X;X;X;X=XQ.l 8 & o + + o + + . . . k z.n.T.e.3.G./.(.(.R.R.R./././.`.z.( L ( ) L k q q e u f = . . . . . d iXVXxXxXxXxXiX.. .w.e.D.F.F.Z.e.2.<.U r 9 = . . . . . + - - y p + . X k O.+.( L L ~ #.#.i . . . . . . . . . . . . . . . . . . . X * J 5.q.q.X.t 8 8 ; ; X X X . . . -                                                                                                                                                                                                                                                                                         ",
"                                                                                                                                                                                                                                                                                + . . . . . . . . . . . . . O # # o o = q a v J Q ( 6.z.z.9.o./ E u & X + X . . . . . . . . . . . . . . . X o X X X X k '.@X{.<X]._.0.z.6.k & + . . . X d _ <.1.3.Z.(.oXoXoXoX(.H.!.~.W.q.* X o = = 3 > & X . . . v c.E.Q.e.e.!.(./.G.F.!.(.[.[.[.].5._ r.Q.W.y.X.P K J L S h X . . . . d 9XxXxXxXxXxX>XY K P _ >.w.2.3.u.1.<.( k q = . . . . . X & = - 2 . . X c 6.O.( Q W E ~ ` g . . . . . . . . . . . . . . . . . . X % 8 K <.5.r.4._ ( L J c k & . . . . -                                                                                                                                                                                                                                                                                         ",
"                                                                                                                                                                                                                                                                                + . . . . . . . . . . . . . # # o = = , k E ( O.9.9.&.J z u & X X X . . . . . . . . . . . . . . . . . . X . X X X X . & C ^ Q ) ) O.4.l.=.C - + . . . X e U 5.2.1.3.~.oXoXoX~.F.1.1.i.r.6.> X & - u ' *.S = . . . J c.m.y.i.u./.[.[././.(.[.[.[.[.].,.U y.R.A.Z.1. .a.X._ ) S & . . . . r 9XxXxXxXxXxX;XH d l H I U  .1.2.,.X.P r 0 = . . . . . . X o > 3 + . X 0 R ^ %.o.Q J c C u + . . . . . . . . . . . . . . . . . X & 8 I ,.i.u.r.t.c.c.l.k.' = . . . X *                                                                                                                                                                                                                                                                                         ",
"                                                                                                                                                                                                                                                                                + . . . . . . . . . . . . . # # o = , 9 c o.&.&.&.&.v ; X X . . . . . . . . . . . . . . . . . . X o = > - % % & + . . . . X X X ; 9 k ^ ! V u = . . . X * ( v.t.1.2.Z.F.R.F.C.Z.1. .,.5.*.> X - u C k.B.h.> . . . S 9.0.r.,.e./.[.oX;X;X=X[.[.[.-X/.U U i.Z.G.H.(.(./.R.t.c.*.= . . . . v aXxXxXxXxXhX;XY t d H U X.<.<.,.X.U v 8 & + . . . . . . X = 3 = . . . X 9 W 6.%.Q L c V u = . . . . . . . . . . . . . . . . . X & e _ r.w.u.u.v.n.n.c.k./ & . . . %                                                                                                                                                                                                                                                                                           ",
"                                                                                                                                                                                                                                                                                o . . . . . . . . . . . . . # o = , e d L o.4.&.&.*.f . . . . . . . . . . . . . o = = = = o % > p p N C z u u S A = o X X + + + & & , f z Z Z 3 . . . . ; ( 0.5.,.1.1.1.1.1.1.3.1.<.4.&.~ * X p x c ~ ' z o . . . c %.5.5.,.y.]./.(.;X4X;XoX[.[.1XW.U H U T 3.~.oX=X=XW.r.z.^ * . . . X U aXfXuXuXuXaX>XZ.1.<.,.w.u.e.w.,.I d w , & . . . . . . . X 3 i = . . . . * ~ =.%.o.Q / C u > o . . . . . . . . . . . . . . . . X ; e :.y.w.2.e.y.t.q.q.9.S & . . X *                                                                                                                                                                                                                                                                                           ",
"                                                                                                                                                                                                                                                                              = + . . . . . . . . . . . . . + = > q k E o.&.9.=.S u o . . . . . . . . . . . o 3 g g g g i p p h x x C ! ~ E ~ *.*.C j y = o + + + X X o = > > = . . . % 0 L O.X.<.<.,.,.<...Z.(.W.r.4./ u X X p C C V k - X . . X c -.4.5.,.T./.F.!.>X5X;XoX(.[.1XW.P d K H _ D.D.e.e.,.U Q v & . . . % U rXrXrXrXrXeX>X(.(.Q.D.e.e.2.u.8.K e e 0 = . . . . . . . X y g > . . . . & k c / $.o.~ C p > = o . . . . . . . . . . . . . . . X % e :.y.e.e.y.y.8.:.+.&.C & X + X *                                                                                                                                                                                                                                                                                           ",
"                                                                                                                                                                                                                                                                              + . . . . . . . . . . . . . . + = y f c / o.%.%.S * . . . . . . . . . . . . o : i V Z A N z V C E ~ ~ ^ $.-.$.$.$.' ! D Z y o + . . . . . . . . . . . X * r L ( U U U <.<.<.1.H.=X|.v.) u & + o q x V V h > X . . X C &.6.5.5.D./.F.(.4X5X4X;X(.[.1XE.W k v r K :.>. .<.U H K k & . . X % U rXrXrXrXrXeX*XH.!.F.A.Z.3.2.w.8.I d k u : . . . . . . . X 4 N 3 . . . . . * * x *.$.~ f * * & o + . . . . . . . . . . . . . . . X 9 o.t.p.T.E.E.q._ Q ^ x & o % % *                                                                                                                                                                                                                                                                                           ",
"                                                                                                                                                                                                                                                                            X . . . . . . . . . . . . . . . + > z S ^ o.&.=.@.u X . . . . . . . . . . . o y g h V x x k u C ^ [ -.$.%.&.=.=.=.=.-.~ ! ! Z g 3 # . . . . . . . . % & * k I U U U U Y U 1.e.F.(.[.W.t.J % X & & q f x V V 3 X . . X S -.4.5.,.e./.G.(.5X5X5X4X=X=X3X'.W k z q e K P X.>._ K c z & . . o ; T rXrXrXrXyXaXXX..C.C.Z.F.F.e.2.w.X.P v z 4 # . O . . . . . > j 3 . . . . . X , k ~ ^ / w * y > = : = . . . . . . . . . . . . . . X * ( p.T.R.W.'.m.( L E k * % & % ;                                                                                                                                                                                                                                                                                           ",
"                                                                                                                                                                                                                                                                            . . . . . . . . . . . . . . . . o u D ~ $.=.&.*.S * . . . . . . . . . . . o 4 j V j z k u w e l W [ $.$.$.%.%.%.&.=.) c C ~ #.#.G M o . . . . . . X ; 9 d U <.<.,.w.e.Z.Z.!.[.;X;X[.y.5.k X X > > q f x Z Z > X . . X S $.&.5.8.p./.!.=X5X5X5X5X2X2X6X'./ k u 0 0 r / 9.0.O.L E z = . . o ;  .rXrXrXyXuXaXL...1.1.C.R.(.D.2.,.X.( J z i : . . . . . . . - g y . . . . . . : j D S S S E ~ C z j i + . . . . . . . . . . . . . & 9 :.E.Q.Q.Q.'.N.( L c 0 & & - 8                                                                                                                                                                                                                                                                                             ",
"                                                                                                                                                                                                                                                                          + . . . . . . . . . . . . . . . o o p ! ^ -.=.-.! * = o . . . . . . . . o 4 M V Z x x c z c W / ^ %.6.=.%.%.%.%.&.&.&.) v k ~ @.` D Z 2 . . . . . . % e t Y  .u.e.Z.!.oXoX.XoX=X;X2X1Xn.L 0 X & 4 u f f f h g = + . . X S $.&.5.8.T.[.=X4XiX5X5X5X5X2X6X).E h u 0 0 f c / o.E k c h = . . o ; ..aXuXuXuXuXaXL...3.3.3.!.oXF.w.<._ X.W u i 3 # . . . . . . > j y . . . . . . o u V x c ^ $.' ! x z u X . . . . . . . . . . . . X e l r.^.W.T.n.).v.( L z * % & u                                                                                                                                                                                                                                                                                               ",
"                                                                                                                                                                                                                                                                          . . . . . . . . . . . . . . . + = * q ~ *.-.=.*.f X 3 4 . . . . . . . . : Z D D F x z c E $.x.x.z.z.z.l.4.%.%.&.4.6.6.%.L v ~ ~ F Z Z 4 $ . . . X X 0 ) 8.2.3.G.J.J.H..X,X,X.XoX=X].'.6.9 ; * , q h j f > & X X + + . % R o.&.>.w.^.-X>XiXiXiX5X5X5X2X6XN.v u y 4 u j 3 = 0 , - q 3 o . . X ; 1.fXuXuXuXfXaXL...3.3.Z.R.(.D.2.<.U :.W a g 4 # . . . . . . > j i + . . . . . + > h z x ^ $.' / c z f = X X . . . . . . . . . . & v U r.R.W.T.y.v.0.) W z * X &                                                                                                                                                                                                                                                                                                 ",
"                                                                                                                                                                                                                                                                        . . . . . . . . . . . . . O O . o > p u ! =.=.*.! > . # : . . . . . . . + = N F F C C S ^ ) =.z.x.x.z.l.9.4.%.&.4.6.9.l.z.$./ ~ ~ V N B 4 o + + & 0 e K v.(..X.X.X.X.XL..X*X:X;X-X}.:.J r ; 0 z k q j j y X X . . + + . % E $.4.q.p.^.&X;XiXiXiXiX5X5X2X3Xz.k p 3 > y 4 = $ X X o & o + . . X ; 3.fXuXuXuXfXaXL.1.3.3.3.G.F.Z.u.,.<.4.W k h 4 $ . . . . . . > g i o . . . . . X o , f x ! ^ @.^ ~ E C j u u = . . . . . . . . . & J U ,.D.W.T.t.0.5.%.^ k - X &                                                                                                                                                                                                                                                                                                 ",
"                                                                                                                                                                                                                                                                        . . . . . . . . . . . O O O O + = h z x c $.x.! 0 X . . . . . . . . . . 2 > g N z x ! $.=.6.k.l.k.l.l.6.&.&.%.4.9.q.0.z.c.&.^ ^ S j V M 2 # # : f C L U e..X,X:X*X:X*X*X*X:X:XoX|.'.k X ; * e E ~ f u j 4 X . . # o + . & S $.9.m.E.E.D.(.5X5X5XiX5X4X1X{.9.k p > = : # $ $ + + + + . . . . X * Z.xXxXuXuXuXaXL...2.2.2.2.2.e.A.y.5.4.J q h 4 $ . . . . . . > j i o . . . . . + + & f x S ^ ^ ^ ^ ^ ~ D D D N o . . . . . . . . * L U <.p.E.Q.t.5.4.=.^ u - X %                                                                                                                                                                                                                                                                                                 ",
"                                                                                                                                                                                                                                                                        . . . . . . . . . . . O O O O o = h D ~ $.' #.p . . . . . . . . . . . # 4 i h A u z ~ -.=.6.6.&.%.&.=.&.&.&.%.4.9.0.0.c.c.&.^ ^ F h N m 2 # $ & q J ( <.D.(..X,X*X*X*X*X*X,X;Xe.l k * X & k l L ) q & 4 : . X # : = + . o Z S E %.x.z.8.D.-X=X2X5X5X2X}.'.%.k 0 , - = = $ + + + + + . . . . & 8 G.xXxXxXgXfXaXH. .>.>.>.>.<.2.T.W.v.0.c 0 3 : . . . . . . . > z i = . . . . . . + o > f x D / ~ ^ ^ / S S F N o . . . . . . . . , P U >.n.E.Q.t.5.4.6.^ w & X %                                                                                                                                                                                                                                                                                                 ",
"                                                                                                                                                                                                                                                                      & . . . . . . . . . . . O O O + o = f ~ $.=.~ p o . . . . . . . . . . . + 4 i i N f k ~ $.-.-.=.$.o.o.&.&.&.&.&.&.6.0.z.c.z.6.o.*.` j j 4 : # $ X , c O.8.T.(..X,X*X:X:X:X,X=X&XO.X X X X * Q ( ( W * X $ $ . + = 2 = + . o j 0 * w R L U X.,.w.e.T.T.E.).N.W e 0 0 - - & o o + + + X . . . X 9 t ,XzXxXxXxXuX9XG.K J L P P U :.v.Q.v.&.a & o . . . . . . . . > z u & + . . . . . . + o > h z x C S E E S S D j = # . . . . . . . , P U >.n.E.Q.t.5.4.6.^ q & X %                                                                                                                                                                                                                                                                                                 ",
"                                                                                                                                                                                                                                                                      + . . . . . . . . . . . O . O o = - u / $.k.C & X . . . . . . . . . . . o 4 4 y h u k E ^ $.$.$.o.o.%.%.=.=.%.%.%.4.0.z.z.l.6.-.=.' j u 3 = o $ + & q W o.4.8.T./.[.-X-X=X&X&X@X-.X . . X 9 ( X.X.L & . . . . o : 4 3 o . . 3 0 * 0 v J P U U U U Y U O.9.z.^ q w e e * % X & = = o X X . X 8 I T :XzXxXxXfX9X,X2.r & % & * 8 r J Q E a & X . . . . . . . . . > z u & X . . . . . . . . o > > u z z x c C S F j 3 3 + . . . . . . 9 ( _ >.p.E.E.t.4.4.6./ q & o %                                                                                                                                                                                                                                                                                                 ",
"                                                                                                                                                                                                                                                                      . . . . . . . . . . . . . . # = > p k ! $.*.p X X . . . . . . . . . . . + 3 3 3 u u k C R ^ ^ ^ ) %.=.&.=.&.%.%.%.%.&.9.l.k.=.&.*.~ z h y > = # = + X X X % % * 9 r v K J J E ~ f . . . ; t U ,.8.L & . . . . = 4 i 4 o . . X * f k J Q 4.8.8.w.,.,.q.6.k u f k Q 4.O.J e * , > > - & % ; ; K 2.C.9XxXxXfXaXL.3.O.u . . . . X ; ; ; & % X . . . . . . . . . . > V h & X X . . . . . . . . + = > u u q u u f f p y 4 . . . . . . . 0 ) <.>.y.W.`.n.4.%.o.c 0 & X %                                                                                                                                                                                                                                                                                                 ",
"                                                                                                                                                                                                                                                                    o . . . . . . . . . . . . . + # 2 y h V ' ~ u o . . . . . . . . . . . . . . = = = > y h z C ~ ^ ^ ^ %.=.=.=.=.%.%.%.$.o.%.=.=.$.^ ' ~ V x h y : = = + + . . . . . . . X X X . . X . . . X e I  .2.r.L X . . . . : y i y o . . . & u c J U 5.r.y.y.y.p.n.9.> . X * _ Q.W.w.P l q 0 0 0 p f v K u.(.L.rXhXfXfX9XJ.e.) 0 X . X & 0 p 0 q q q > = . . . . . . . . . > z u - o X . . . . . . . . . # > 4 y p p q u f u i i . . . . . . . 0 %.5.>.Q.}.<XE.O.W L k , - ; ;                                                                                                                                                                                                                                                                                                 ",
"                                                                                                                                                                                                                                                                    X . . . . . . . . . . . . . + : 3 y f F #.C X . . . . . . . . . . . . . . . + + o = > p h C ~ ~ ^ ^ $.k.6.%.$.$.$.$.) Q Q ) ) W / ~ ~ D V j g 4 2 2 # # # . . . . . + + + + . . . . . . , P <.2.u.r.L & . . . = 3 y h u = . . . * k L P +.r.y.D.T.T.T.n.9.: . . ; U !.(.D.,.P a u u q u x J H T H.cX*XrXeXiX9X;XW.W q > = > u h f w w w f Z j # . . . . . . . . > h u - o X . . . . . . . . . . + o 3 i h h z x j N g . . . . . . X w 4.w.t.W.<X3X@Xz.Q J u - 0 ; ;                                                                                                                                                                                                                                                                                                 ",
"                                                                                                                                                                                                                                                                  X . . . . . . . . . . O O . . o 3 u j x F ` j . . . . . . . . . . . . . . . . . . + o = y u C ~ ~ ^ ^ $.k.k.&.o.Q ) o.$.o.) ) ^ ^ / ! ! F V j j i 2 6 2 # # O # # + = 4 4 4 2 # . + . . X w +.2.2.u.r.J & . . + > p p h z = . . . > c L _ 5.y.A.D.F.F.F.n.6.: . . % P (.oX(.F.,.K l k q 0 e r e H J.cXJ.K.,X*X*X;XT.l q p y u z x f r f u u j g : . . . . . . . . > u p - = + . . . . . . . . . . . . = y g j Z Z V Z M . . . . # $ X r 5.t.n.W._.`.'.M.k.$.x - * ; ;                                                                                                                                                                                                                                                                                                 ",
"                                                                                                                                                                                                                                                                  . . . . . . . . . . O . . . = 2 4 j F F V h & . . . . . . . . . . . . . . . . . . + = > p f V ! ^ ^ ^ ^ %.=.6.6.%.%.6.l.k.6.=.$.) ~ ! D F Z M g 5 2 2 3 # # # # o = i N N j g : o $ + . X d >.2.2.3.w.c X . . + > z z z C 3 . . . y c L _ 8.n.D.D.D.G.F.n.=.= . . X v W.oX.XoXF.<.I d r e 0 d e Y ,X>XC.I.J.J.J.!.w.r 0 q - 0 z S L ^ ^ ~ k , o . . . . . . . . . - p 0 - & + . . . . . . . . . . . . . = > h Z V j N 4 . . . . # $ % k 5.t.T.`.E.n.t.9.-.-.V & ; 8                                                                                                                                                                                                                                                                                                   ",
"                                                                                                                                                                                                                                                                + . . . . . . . . . . . . . . 3 g g V D D y X . . . . . . . . . . . . . . . . . . . $ 4 u h C F E ~ ^ $.^ ^ ) &.6.6.6.l.l.l.k.&.%.) ^ ~ ! F M i 4 2 # = = & & & & & 0 z C C V f > & & & % ; l :.,.1.2.5.k . . . X q c W ^ #.i . . X u v J _ >.u.e.e.Z.G.F.T.&.= . . . * K 2.H.(.(.!.e.X.K v e w e H [.;XC.I.J.J.C.G.w.K e 0 ; 0 E $.%.&.&.*.! > . . . . . . . . . . - y > - = o . . . . . . . . . . . . . . X : i 4 : # . . . . . . + X k q.r.v.W.`.E.q.o.E S p X ; t                                                                                                                                                                                                                                                                                                   ",
"                                                                                                                                                                                                                                                                . . . . . . . . . . . . . . + i N N Z D Z > . . . . . . . . . . . . . . . . . . . + : i j V D ! E E ^ [ ) ) ) &.6.6.6.0.l.l.9.%.o.) ^ ' ` j 3 : # # . o & * 8 9 e e w v S E S f > * , > 0 w I >.,.,.,.O.u . . . & u J ) =.-.p X . & f v J U :.,.2.3.3.G.F.T.4.= . . . . % H F..X:X>X-XR.<.P r e * * I 1.G.(..XL.H.F.r.I k v l K O.5.4.4.%.%.^ 0 . . . . . . . . . . - y > & = o . . . . . . . . . . . . . . . . $ X . . . . . . . . X % c 0.r.y.E.`.N.6.Q v q & . * l                                                                                                                                                                                                                                                                                                   ",
"                                                                                                                                                                                                                                                                . . . . . . . . . . . . + + = M V V Z F 4 + . . . . . . . . . . . . . . . . . # = 3 y j V S S ! E ~ ~ $.$.$.%.4.9.9.9.q.0.0.6.&.o.o.@.#.` h : # # . . o 0 r K ( +._ P L L / ^ S f q > e k K ( >.<.<.,.) 0 . . . - k L O.6.*.p X . : x v L ( :.,.2.1.3.G.!.T.&.= . . . . . 9 :.e.H.,X;X(.A.5.:.P e ; ; r R.;X.XH.H.!.y.P K _ U U >.>.:.X.+.o.W 0 X . . . . . . . . . - p > & o + + . . . . . . . . . . . . . . . . . . . . . . . . . X % J q.t.p.Q.`.m.+.v f , X . *                                                                                                                                                                                                                                                                                                     ",
"                                                                                                                                                                                                                                                              . . . . . . . . . . + + # o 2 y N F Z V 3 . . . . . . . . . . . . . . . . . . . o 4 j V C F S ! ~ ~ ^ [ %.=.&.&.6.0.0.q.q.0.t.q.4.%.o.$.*.~ h > : # @ # > a R ( 5.t.8.:.I H I W / E k e w v P O.,.<.<.,.) , . . X , z W 6.M.k.u X X > x v L _ :.,.,.1.3.F.!.T.%.- . . . . . . % 8 Y H.;X4X2X3X}.m.+.9 ; 8 8.(.H.H.H.R.D.<.U <. .1.2. . .U U _ P d , X . . . . . . . X > p y - o X + . . . . . . . . . . . . . . . . . . . . . . . . . X ; K 8.y.Q.`.'.M.W w q , X . *                                                                                                                                                                                                                                                                                                     ",
"                                                                                                                                                                                                                                                              . . . . . . . . . . + + # 3 M V V F Z 3 X . . . . . . . . . . . . . . . . . . . o i Z F D E ! ~ ^ ~ ^ $.=.=.&.&.6.9.q.q.q.0.0.0.9.&.%.$.*.~ z q > : # = g C J P 5.r.5.<.U H d J Q E k q r J _ <.<.<.,.5.) & . . . q c ( z.).k.p X + y x v W o.4.5.1. .2.F.!.E.O.* . . . . . . . X r r.}.2X-XoX/.y.<.d e e w./.Z.3.3.u.w.<.T  .1.(.(.1. .U U X.+.L k > . . . . . . . . > u p 3 = + . . . . . . . . . . . . . . . . . . . . . . . . . . & 8 K 8.p.W.{.|.0.v e q = . . &                                                                                                                                                                                                                                                                                                     ",
"                                                                                                                                                                                                                                                            . . . . . . . . . . . # # = i Z Z Z F j o . . . . . . . . . . . . . . . . . . . + o g S D ! ~ ~ ^ ' [ $.*.6.9.&.&.&.5.5.5.q.0.0.0.0.5.4.%.$.^ z u u 4 = = y x l I :.5.<._ U U K P &.W w e k W :.,.1.<.1.w.) X . . X u v P 4.l.$.0 + = h x c ^ o.4.5.,.<.3.F.!.E.O.* . . . . . . . . X 0 v U U 2.R.R.D.p.e.3.!..XC....... . . .1.3.=X;XZ... .U w.n.8.&.D $ . . . . . . X > u u u 3 + . . . . . . . . . . . . . . . . . . . . . . . . . . * r P t.Q.`.{.`.5.d 9 q & . . *                                                                                                                                                                                                                                                                                                     ",
"                                                                                                                                                                                                                                                            . . . . . . . . . . . # = 4 g Z D D D g . . . . . . . . . . . . . . . . . . . . o = g D ! ~ ~ ' $.$.$.$.&.k.l.6.&.&.5.5.5.q.0.0.0.0.q.4.&.%.) E C D S 3 = - 0 e l _ <.<.U U U I ( &.E 9 e d ( <.1.1.1.,.w.) X . . X q k v P Q R > o 2 j x R ) O.4.5.,.1.Z.!.!.W.%.* . . . . . . . . . . X 8 t :.W.|.[.=X;X.XH.J.C.C.C.Z.3...C.C.C..X.XC.1. . .D.|.Q.M.-.& . . . . . . X > u u p = . . . . . . . . . . . . . . . . . . . . . . . . . . . 0 L >.E.^.^.].`.+.r 0 q X . . *                                                                                                                                                                                                                                                                                                     ",
"                                                                                                                                                                                                                                                          + . . . . . . . . . . . o 3 M N F D ` N : . . . . . . . . . . . . . . . . . . . . # = j D ` ` ' $.%.%.%.%.4.l.z.q.5.4.5.5.5.8.0.c.z.0.q.6.6.&.%.$.' *.' h & = & 8 t I <._ U U U U o.%.L 9 9 d _ ,.,.1.1.1.w.Q X . . o u k J Q Q c * = 3 z c W o.O.4.5.,.1.Z.H.!.W.%.* . . . . . . . . . . X X % 0 v P U ,.D.G.H.(..X.X.XoXoX(.(.H.H..X.XJ.1. . ./.&XD.t.-.= . . . . . . X > u u y = . . . . . . . . . . . . . . . . . . . . . . . . . . X w ( r.]./.Q.E.E.O.d q > X . . &                                                                                                                                                                                                                                                                                                     ",
"                                                                                                                                                                                                                                                          + . . . . . . . . . . + = i N V Z F F 4 . . . . . . . . . . . . . . . . . . . . . = 3 V ` ` ' [ $.&.4.6.9.9.9.0.0.q.8.8.8.8.0.c.).m.l.6.6.&.&.&.%.-.*.#.D i 2 - 9 t P :.X._ X.X.X.O.%.L 9 9 d <.w.w.3.3.2.w.W . . . = z c L ( ) z & o > j c Q ) +.4.8.,.3.G.H.F.E.O.* . . . . . . . . o o . . . . X X ; d w./.-X2X;X;X;X;X,X.X.XL.L..X.XH.C.....oX;XF.t.$.= . . . . . . X > u u y o . . . . . . . . . . . . . . . . . . . . . . . . . . X J 5.Q.|./.T.Q.E.4.k 0 & . . . &                                                                                                                                                                                                                                                                                                     ",
"                                                                                                                                                                                                                                                          . . . . . . . . . . + = > g Z Z V V M : . . . . . . . . . . . . . . . . . . . . o 1 i F ' $.$.$.%.6.0.l.l.k.9.9.q.0.q.r.r.r.c.m.'.N.=.) $.) $.*.-.-.-.*.G i 4 p u v ) :.O.X.:.>.>.>.%.J 8 e K 5.y.e.e.e.3.w.E . . . > x E ( 4.9.S % + > f c ) ( _ >.w.2.e.F.H.F.Q.o.& X . . # g g 3 : 4 2 . . . . . X X q %.t.Q.^.].(.oXoX.X.X.X.X.X,X,X.XG.....=X>X!.t.o.* . . . . . . X > u u 3 o o = . . . . . . . . . . . . . . . . . . . . . . . . % ( n.^.]./.R.E.N.%.u & X . . . &                                                                                                                                                                                                                                                                                                     ",
"                                                                                                                                                                                                                                                        # . . . . . . . . . + = i g V Z Z V N > + . . . . . . . . . . . . . . . . . . . . # 2 i D ' *.h.k.k.l.z.z.l.=.%.&.6.0.0.z.z.c.N.N.N.=.a w k c E ^ ' ~ ! D M 2 = 4 h E ' %.O.O.5.0.8.5.4.L e e P 5.u.e.Z.Z.e.w.E X . . * C o.5.c.M.' o + & q c o._ X.,.w.2.Z.H.H.F.T.( & X . . = Z D Z j M 2 . . . . . . X X * 0 w r K U y.(.(.oXoX,X*X,X,X.XH......X>X!.t.O.> . . . . . . X 0 h u 3 o = 4 = . . . . . . O . . . . . . . . . . . . . . . . ; +.E.^.].^.Q.E.c.v * X . . . X                                                                                                                                                                                                                                                                                                       ",
"                                                                                                                                                                                                                                                        + . . . . . . . . X + 3 N V Z Z V V i + . . . . . . . . . . . . . . . . . . . . # 3 i m F ] *.j.x.k.k.x.x.j.^ E E Q ^ ^ ^ [ $.*.-.$.c ; ; 9 e u u 0 > * & o . . . X & > 0 w J O.7.4.&.%.J r r P ,.u.e.3.Z.Z.r.W . . . * E &.t.n.).' X . & 0 c %.X.X.,.2.2.Z.H.H.G.y.P & X . . = Z D D D N 3 o o + . . . . . . . . X % 8 ( n.W.[.oX,X,X,X.X(.G...T H.;XD.t.=.> . . . . . . X y h h y & o 3 3 + . . . . . O . . . . . . . . . . . . . . . . * :.Q.W./.T.D.n.O., X . . . . X                                                                                                                                                                                                                                                                                                       ",
"                                                                                                                                                                                                                                                      o . . . . . . . . . X o 4 N N V V V V 3 . . . . . . . . . . . . . . . . . . . . . < 5 m 6 2 3 y h h h u h z h q u a u w w e q w 9 9 a c l k v l w * % X X X . . . . . . . . X & w v l a r r r d U ,.w.e.C.A.A.v./ . . . , / 6.t.n.N.! . . o * c &.X.>.i.2.2.Z.H.H.F.y.K & . . . o Z G D ` F j y 3 o . . . . . . . . . . X * a K U 1.F.!.(.(.(.H.C.3.(.=Xp.M.=.> . . . . . . o p h j y * o o 3 2 # . . . . O . . . . . . . . . . . . . . . X 8 4.y.D.D.D.e.y.X.* . . . . . >                                                                                                                                                                                                                                                                                                       ",
"                                                                                                                                                                                                                                                      + . . . . . . . . . X = u N V V V N m = . . . . . . . . . . . . . . . . . . . . . . # # O . . . X X . . . X X & 0 u w e e e r d d d K U U X.>.>.U d r 9 & * o . . . . . . . X = h S k w e e r H U 1.2.3.C.F.R.T.E . . X 0 ^ 6.t.Q.N.S . . % 8 J &.X.>.8.2.3.F.H.H.R.y.K % . . . # Z ` ` ` ` D V i 2 o . . . . . . . . . . . X % 8 P t.T.W./.(.[.(.H.!.3.>.9.~ : . . . . . . X p h h i = o = 4 4 = + + . . . O . . . . . . . . . . . . . . X e r.T.e.D.R.Q.n.&., . . . . . p                                                                                                                                                                                                                                                                                                       ",
"                                                                                                                                                                                                                                                    # . . . . . . . . . X = 3 g j V V V y 2 + . . . . . . . . . . . . . . . . . . . . . . . . O . O . . . . . . . . & q w r t H H U <.<. . . . .3.A.A.w.<.:.I r k > X . . + # o $ o > j S S J E J K I _ i.Z.Z.C.!./._.R . . o u %.5.8.n.N.V . . & 0 J +.+.>.i.2.u.F.!.!.~.n.v X . . . : F ] ` ] ] ` F N i 2 . . . . . . . . . . . . . % 0 k v J K U 2.e.p.,.H d x 3 X . . . . . . & p u i 3 & X = y i = + + . . O O . . . . . . . . . . . . . . X t n.W.D./.1X1X<XM.0 . . . . . 0                                                                                                                                                                                                                                                                                                       ",
"                                                                                                                                                                                                                                                  o . . . . . . . . . . = i g g N N V Z 4 o . . . . . . . . . . . . . . . . . . . . . . . . . # . . . . . . . . . X ; r t Y 3.H.L..X.X.X.X.X.XK.H.H.H.H.Z.A.2.<._ J - X # # : = = = > p z c W ) Q P U <.y.Q.Z.C.H.oX{.R . . o c x.t.r.E.).x . . , q l P X.8.i.,.u.F././.W.t.v X . . . y ` @.@.@.] ` D Z m 2 . . . . . . . . . . . . . . . . . . X % d :.q.6.L r * . . . . . . . . = y p 3 = o X = i i : $ . . . . O . . . . . . . . . . . . . . X l W.|./.}.4X6X6X@Xf . . . . .                                                                                                                                                                                                                                                                                                         ",
"                                                                                                                                                                                                                                                  + . . . . . . . . . + i M N N V N N m 2 . . . . . . . . . . . . . . . . . . . . . . . . . o 0 * % X X X X X X X % 8 H T F.iXaXdXdXaXdXdXaXpX8XXXXXL.K.H.~.~.F.Z._ e ; % = 2 3 3 y u u k c L Q Q P U <.A.R.C.C.H.oX|.c . . = C k.0.5.t.x.x . X , q e r I +.:.<.<.2.u.2.>.( e X . . X j #.#.#.#.` ] ` ` V : . . . . . + . . . . . . . . . . . . . X u W %.$.k q & X # 2 # . . . . = y y 3 = o X = i g 3 # . . . O . . . . . . . . . . . . . . . % d E.}.[.=X&X{.<XN.u . . . . X                                                                                                                                                                                                                                                                                                         ",
"                                                                                                                                                                                                                                                . . . . . . . . . . . o j V N Z Z N i 2 + . . . . . . . . . . . . . . . . . . . . . . . . . ; t t t r r 8 8 8 8 9 t Y ..J.*XaXkXgXjXjXgXkXdXlX7XP.P.P.XXXXiXpXsXsX5Xu.t 0 0 y y y u f f r l L W P I I <.y.R.C.C.H.oX_.a . . o u E o.( L b : . o > , 9 e J o.4.5.,.,.>.X.( L 0 . . . X j #.#.@.@.' ` ' ' F = . . . . o = o + . . . O . . . . . . . . % > 0 - X X . . # g B g # . . & 3 y 3 > = X = i g 3 $ + . . . . . . . . . . . . . . . . . . ; K W.-X=X[./.p.m.=.- . . . . X                                                                                                                                                                                                                                                                                                         ",
"                                                                                                                                                                                                                                                . . . . . . . . . . . = M Z N N N g = + . . . . . . . . . . . . . . . . . . . . . . . . . . ; H 1.T.~.~.A.,._ <.,.3.Z..X8XaXkXjXjXjXjXgXkXdXdX$XP.P.7XpXdXVXVXVXVXVX5XU l u y y y u w e e d K P U I U <.e.F.C.C.H.(.m.0 . . + > h ! / k * X . o = & & * u / *.=.&.%.) W ^ ! > . . . X j @.@.*.$.*.$.$.#.D = . . . # 3 i y 3 : $ . . . . . . . . . . . X X . . . . y V F #.G 4 + X o = 3 y 3 > : 3 g i 2 # + . . O . . . . . . . . . . . . . . . 9 5.|.-X[.[.W.y.v.^ & . . . . &                                                                                                                                                                                                                                                                                                         ",
"                                                                                                                                                                                                                                              + . . . . . . . . . + o 3 M N j N M : . . . . . . . . . . . . . . . . . . . . . . . . . . . . ; U ~.:XiX8X:XOX~.~.~.H..X:X0XdXgXjXjXjXjXgXgXkXwX7XXXXXpXjXVXVXVXVXVXVXsXF.:.c q u u q 0 9 e d K P I I U <.e.A.Z.C.H./.r.- . . . = p j x u o . . . . . X X X * 0 u q 0 9 , p i = . . . o h *.*.$.*.-.$.$.$.S & . . . : i N V Z F y X X . . . . . . . . . . . . X X p x.B.#.#.h.Z = X X = 3 y y y i g g 4 = o # . . O . . . . . . . . . . . . . . X l E.1X;X=X/.T.u.t.c X . . X > k                                                                                                                                                                                                                                                                                                         ",
"                                                                                                                                                                                                                                            X . . . . . . . . . + y g y j N N N i o . . . . . . . . . . . . . . . . . . . . . . . . . . . . % Y ~.:X8X8X7XP.OXOXOXOX.X*X0XkXgXjXjXjXjXgXkXkXlX7XXXXX0XjXVXVXVXVXVXVXVX,Xy.) a w u q 0 r W O.O.) _ U U ,.y.Z.Z.C.H.R.7.* . . . + X $ & o . . . . . . . . . . . X X X X X + o . . . . X f *.-.*.=.-.*.$.$.C & . . o y g V F F D x > > o . . . . . . . . X q L J d Q N.x.~ ] h.G > . . = 3 y > y i g i : o o # . . O . . . . . . . . . . . . . . X P `.=X-X-X[.T.r.6.v X . X : V                                                                                                                                                                                                                                                                                                           ",
"                                                                                                                                                                                                                                            . . . . . . . . . + 3 N D N j j N g 3 + . . . . . . . . . . . . . . . . . . . . . . . . . . . . X K ~.8X0XqX7XXXXXXX*X*X8X8XwXkXgXjXjXjXjXgXdXdXlX7XXXXX7XkXzXzXzXVXVXVXVX>Xe.) a q q 0 0 w ^ 6.7.%.O._ <.w.A.A.C.C.G.T._ & . . . . . . . . . . . . . . . . . . . . . . . . . # # . . $ & x -.=.=.=.=.-.-.$.z X . . = i g Z F F D D V Z h & . . . . . . . X E p.t. .a.q.W c ' *.' u X . o > > 3 y i g y : o $ # O . O . . . . . . . . . . . . . . X P W.[.=X=X[.D.,.4.k X . X * z                                                                                                                                                                                                                                                                                                           ",
"                                                                                                                                                                                                                                          + . . . . . . . . . = g N D F j g g 4 # . . . . . . . . . . . . . . . . . . . . . . . . . . . . . % K ~.XX8XqXqXqX$XXX8X9X9X0XdXgXgXjXjXjXjXgXkXkXdX8XXX.XP.qXjXjXzXzXzXVXVX:X..( w 0 0 > , 9 v W W ( ( P U ,.e.Z.C.Z.G.T.W X . . . . . . . . . . . . . . . . . . . . . . . . . # # . $ = 0 E j.9.9.6.=.-.=.-.h X . . = g j Z Z Z D ` ' ] V : . . $ . . . . X c q.p.1...,.d v $.-.*.D = . X & > y i i g > = o $ # # . O . . . . . . . . . . . . . . % P W.(.=X-X/.u.>.&.c X . X & u                                                                                                                                                                                                                                                                                                           ",
"                                                                                                                                                                                                                                          . . . . . . . + = = = h j V V h g 4 # . . . . . . . . . . . . . . . . . . . . . . . . . . . . . . & H F.XX7X7XqX0X7XXX7X8X8XlXkXgXgXjXjXjXjXgXkXkXdX8XOXK.J.P.kXjXjXjXzXzXVX8X..P w , , , > * 0 e r r r d K U <.,.Z.Z.Z.r.v X . . . . . . O O # # # # # + . . . # # # # . # # # = 2 # o > e / x.k.k.k.=.-.=.h.z . . + 3 N j Z V V F ` @.] F y = o 2 = . . . X d i.G.H.=X=XU d *.=.-.-.h X . . = y i i y = o o o # # . . . . . . . . . . . . . . . . % _ W.!.[.-X/.2.>.%.v X . X & -                                                                                                                                                                                                                                                                                                           ",
"                                                                                                                                                                                                                                        X . . . . . . . # 4 y > j V h i g i : + . . . . . . . . . . . . . . . . . . . . . . . . . . . . . . X t A.OX$X7XqX0XqXXX7X8X8X8XdXgXgXjXjXjXjXgXkXkXdX8XXX~.I.P.dXjXjXjXzXzXVX7X..( 0 = : : : = * , p u w k L O.5.w.y.A.y.0.k . . . . . . . . . # # # # $ # # # $ # # # # # # # o = = o X * 9 E x.k.k.k.9.-.-.*.u . . . 4 j V Z Z F G ` ` D F N 4 > 3 3 $ . . X e ,.G.(.5XsX^.U %.k.k.k.! - . . $ 3 4 4 3 & o = # # # . . . . . . . . . . . . . . . . & +./.!.[.-XR.2.5.&.k X X X , 9                                                                                                                                                                                                                                                                                                           ",
"                                                                                                                                                                                                                                        . . . . . . . # = i N h N h y 3 3 3 # . . . . . . . . . . . . . . . . . . . . . . . . . . . . . . . . t Z.K.$XqXqX0X0X$X*X8X$X8X0XkXgXjXjXjXjXgXkXkXdX8XOXS.T J.dXjXjXjXjXjXhXXXT ( > + # $ $ + + o & = > u x E Q Q ) O.$./ > . . . . . O . . O . . @ . # # # $ $ $ # # # # # # = = o & 0 w w L 9.l.l.k.k.6.=.#.3 . . . 3 M V Z Z ` ] ` G D F V j g g 5 # . . . * U 2.G.>XsX5Xp.>.q.l.k.*.h X . . = > > 3 : & = o # . . . . . . . . . . . . . . . . . & >./.!.[.-X^.8.q.=.k X X & p                                                                                                                                                                                                                                                                                                             ",
"                                                                                                                                                                                                                                      . . . . . . . # 2 3 N D S N > > 4 > = # . . . . . . . . . . . . . . . . . . . . . . . . . . . . . . . . e 1.K.7XwX0XwX0X7XXX*X*X8X0XkXjXjXjXjXjXgXkXdXlXK.C.T Y I.wXgXjXjXjXjXkX.XY J & . . . . . . . . . . X o & & & * * - & X . . . . . O . . . . . . . $ # $ + + + # # # # # # 2 4 > f / $.o.%.0.l.l.0.9.6.j.#.> . . X 3 j V V Z ` @.` D D F V x N N y # . . . & P  .C.>XsXsX&Xi.q.0.9.j.! & . . $ = > 3 : & o # # . . O . . . . . . . . . . . . . . ; >./.F.[.-XR.:.o.^ u X . & u                                                                                                                                                                                                                                                                                                             ",
"                                                                                                                                                                                                                                    + . . . . . . . 3 i Z ` ] ` V 3 > m 2 # . . . . . . . . . . . . . O . . . . . . . . . . . . . . . . . . . 8 T S.7XdXwX0X0X7XXXXXXXXXpXhXjXjXjXjXjXgXdXtX8XI.Y Y t I.wXgXjXjXjXkXlX.XY v o . . . . . . . . . . . . . . . . . . . . . . . . O . $ . . . . . . . + + . + + $ . . # # o = q k -.z.M.z.z.z.z.l.0.9.6.j.' = . . X : g V F F ~ @.` S D F V V V Z y o . . . o ^ <.3.=X>X5X2Xu.8.q.9.k.-.p X . X o : > = o o # # . . O O . . . . . . . . . . . . X 8 >.R.G.(.-XD.U J e - o X & q                                                                                                                                                                                                                                                                                                             ",
"                                                                                                                                                                                                                                    . . . . . . . + > h S ] ' F u 3 = 4 # . . . . . . . . . . . . . . O . . . . . . . . . . . . . . . . . . . ; U C.7XdXwXqXqXXXXX.XK..X9XhXjXjXjXjXjXgXdXwX8X1.Y H t I.0XgXgXgXgXdX9XoXY 0 o . . . . . . . . . . . . . . . . . . . . . . . . . . $ . . . . . . . o : > > = = . . + o > > q / B.M.c.z.c.c.c.z.0.9.6.-.! & . . o = y j D ~ ` @.~ S S x x C V j y & . . . . A ( U 3.J.,X;XR.8.8.0.k.j.C = . . X = = = = o o # # . O O . . . . . . . . . . . . , J ,.D.e.R.&Xp.U L , X o o & 0                                                                                                                                                                                                                                                                                                             ",
"                                                                                                                                                                                                                                  . . . . . . X & p z z C D C z y - = o . . . . . . . . . . . . . . . O . . . . . . . . . . . . . . . . . . . X I C.XXlXqX7X$XXXK.H.H.K.8XkXjXjXjXjXjXgXdXwX8XC.H t t T 0XgXgXgXdX0X8XoXK ; . . . . . . . . . . . . . . . . . . . . . . . . . . $ $ + . . X X X X & x D D j > $ . + y ` -.$.9.m.m.m.c.c.m.v.c.0.9.6.-.x X . X & : q j D ~ ` @.^ S c x x C F V i = $ . . . o 0 t U G.:X5X;XD.r.0.l.k.` 4 . . X $ = = = o # # # . O . . . . . . . . . . . . . u +.8.e.e.R.|.y.+./ , X = 0 u                                                                                                                                                                                                                                                                                                               ",
"                                                                                                                                                                                                                                  . . . . . X X q x D C x z h g y = + . . . . . . . . . . . . . . . O . . . . . . . . . . . . . . . . . . . . X J 2.XXwXqX$XXXXXK.J.J.K.*XdXjXjXjXjXjXgXdXwX8XA.H s t I.0XgXjXgXdX0X:X~.d & . . . O . . . . . . . . . . . + . . . . . . . . . . . X X X X X & & & w ^ *.*.F y : o X f x.N.m.m.m.n.m.n.n.m.v.c.0.9.6.=.z X . . > f x S ~ #.@.@.^ ! c C F D D Z V 4 o + . . . X ; Y G.=X>X5X;Xp.q.z.k.h.x X . X + o = o # # # # . . O . . . . . . . . . . . . f O.>.2.e.^.|.r._ C * X & p C                                                                                                                                                                                                                                                                                                               ",
"                                                                                                                                                                                                                                  . . . . X & > x E ~ ! k q p p 4 o O . . . . . . . . . . . . . . . . . . . . . . . . . . . . . . . . O . . . . w U H.8XqX7X7XXXK.J.S.J.XXaXhXjXjXjXjXgXdXwXiXA.H s H J.0XkXgXgXdX8XOXA.r X . . O O . . . O . . . . . . # + + + . . . . . . . + + X * 0 q k v v c Q $.=.-.z > > & X k z.v.n.v.v.n.m.m.m.m.n.c.0.9.=.=.h . . . 3 F ! ~ ^ *.-.*.~ E C C C D D F F u o X . . . X % H 3.G..X>XsXR.8.z.l.j.C % . . . $ o # # # # # . . . . O . . . . . . . . . . e +.<.<.3.^.^.8.Q v & . X & a                                                                                                                                                                                                                                                                                                               ",
"                                                                                                                                                                                                                                . . . . . = V ! ~ ^ ^ ! k q y > : # O . . . . . . . . . . . . . . . . . . . . . O . . . . . . . . . . . . . . . % t C.7XqXqX8XXXK.J.S.J.L.8XdXjXjXjXjXgXdX0XiXA.t s T K.0XkXkXgX0X:XA.r.v . . . . O . . O O O O . . . . . # # # $ + + + . + + o - q k ! ) 9.l.4.&.4.$.^ ' k * > * & c 0.t.c.v.v.n.m.m.m.n.v.0.0.9.=.=.u . . . y ~ ! ! ^ *.-.*.~ E C C E D D F F i o X . . . . X d 2.G.J.:XsX[.w.0.9.=.~ * . . . + $ # # # # # . . . . . . . . . . . . . . . 9 +.>.<.2.^.|.q.Q x & . X -                                                                                                                                                                                                                                                                                                                 ",
"                                                                                                                                                                                                                                . . . . X y ] *.^ ^ ^ c x f > o + . . . . . . . . . . . . . . . . . . . . . . . . . . . . . . . . . . . O . . . X 8 T OXXX8X8X8X.XK.J.J.K.XX0XhXjXjXjXgXdX0X8XZ.s t 1.XX0XkXgXkX8XOX1.W y . . . O . . . . O O . . . . . . # $ $ $ $ $ $ $ o = u x c W ( ( 5.r.8.8.q.O.E c u & * q k ( q.r.c.v.v.m.m.m.m.m.v.t.t.l.k.-.u . . X h ~ ! ! ^ @.-.-.$./ E ~ ` ~ ~ F C j > o . . . . X v `.&X(.;XsX-Xe.8.0.=.~ 0 X . . . + $ # # # # . . . . . . . . . . . . . . X w >.u.2.3.^.{.r.Q C = X X -                                                                                                                                                                                                                                                                                                                 ",
"                                                                                                                                                                                                                              + . . . . o u ! ~ S c E x f j 3 + . . . . . . . . . . . . . . . . . . . . . . . O . . . . . . . . . . . . . . . . . * H T S.XX8X8XXXOXK.J.K.P.9XhXjXjXjXgXdX0X8XF.t H S.XXqXdXkXlXOXT._ 8 o . . O O . . . . . O . . . . . . # $ $ $ $ $ $ $ & y ~ *.o.o.X._ :.8.,.,.r.%.J k u * 9 Q %.9.c.c.c.v.m.m.Q.Q.E.m.n.t.0.0.k.#.y X X > Z ` ~ ~ ^ @.$.*.$./ E $.*.~ ~ V F ` F 3 . . . . X w ).|.G.,XsX5XD.,.0.9.-.E 0 X X . + $ # # # # + . . . . . . . . . . . . . 0 J c.`.D.D.W.|.q.E C = . X -                                                                                                                                                                                                                                                                                                                 ",
"                                                                                                                                                                                                                              . . . . + o p x x k v E S u h 3 . . . . . . . . . . . . . . . . . . . . . . . O O . . . . . . . . . . . . . . O . . X 8 t T OXpX8XXXOX.XK.K.XX8XkXkXkXkXkXdX0X8X~.Y T S.P.7X0XdX8XC._ l % . . O O O O O $ . . . . . . . . # $ $ $ $ + + + + & p $.k.6.O.X.X.>.8.5.,.q.o.k 9 q 9 r 6.N.v.v.v.v.m.m.Q.Q.E.E.m.n.t.q.9.k.~ y X = j ` @.^ ~ ~ ^ ^ $.^ E / -.*.E C k ! -.*.D = . X . . * o.>. .G.iXiX!.e.v.z.6.-.~ p = . + $ $ # # # + . . . . . . . . . . . . o x ) E.}./.W.^._.5.! V o . X 0                                                                                                                                                                                                                                                                                                                 ",
"                                                                                                                                                                                                                            $ . . . . + = p z z c S ` ' j > o . . . . . . . . . . . . . . . . . . . . . . . O . . . . . . . . . . . . . . . . . . . % 8 U (.8X8XXXOXK.K.K.P.P.XX7XqXqXwXlX0X8XOXT ..S.P.XX$X8XOXY s * X . O O O @ @ @ O # . . . . . . . # $ $ $ + + + X X X > ~ 9.9.O.X.X.>.8.5.4.6.E q & % a ) c.N.m.m.v.m.m.E.).).).Q.m.n.c.q.6.-.V > o 4 F ' @.' ^ ^ ^ ^ o.^ E / ' ' C k k ~ -.h.*.h X . . . X 9 H  .G.:X5X-X/.T.v.0.=.-.#.N + . . + # # # + . . . . . . . . . . . . & C O.n.]././.].).6.! g + . X 0                                                                                                                                                                                                                                                                                                                 ",
"                                                                                                                                                                                                                            . . . . . o = y z x z c ! ` V = . . O O . . . . . . . . . . . . . . . . . . . . . . . . . . . . . . . . . . . . . . . . X % t i.R..XOXOXK.K.K.K.K.K.P.$XqXqX0XqX$XK.S.S.J.K.S...1.} e % o . . O O O @ @ # # # # O . . . . . . . . . + + + + X * q ~ 6.6.O.+.:.5.8.5.&.j.C , & & W c.m.Q.m.m.m.m.E.).).).E.E.m.m.v.0.=.#.p X o f ~ ' @.^ @.^ ^ ^ ^ ^ / / ~ ~ c u c ^ -.h.h.` 3 X . . X X l 8.e.Z.!.;X2X/.Q.t.4.-.*.C o . . + $ # $ . . . O . . . . . . . . . * W 4.y.R.R.R.W.).=.z 3 . . X -                                                                                                                                                                                                                                                                                                                 ",
"                                                                                                                                                                                                                          + . . . . $ = = 4 x V z z z j y = . . O O . . . . . . . . . . . . . . . . . . . . . . . . . . . . . . . . . . . . . . . . . . % 8 H w.~.~.H.K.K.P.P.P.$X$X$X$X$XXXXXOXOXK.K.H.1.t t e ; X . . O O O O @ # # # # # + + . . . . . . . . . + + + X * e / &.%.+.4.>.5.q.6.-.*.h o % * ) m.N.m.n.m.E.E.).).).).).E.m.m.c.6.-.! > . X u ~ @.@.^ $.^ ^ ^ $.*.$.^ ^ ~ v w ~ *.*.-.h.*.Z = . . . . k 8.2.1.3.=X4X[.R.y.>.o.[ x X . . . $ $ $ $ . . O O O . . . . . . . , o.5.r.e.e.e.t.m.^ & . . . . -                                                                                                                                                                                                                                                                                                                 ",
"                                                                                                                                                                                                                          . . . . + = > y u Z Z x j g 3 = o . . . . . . . . . . . . . . . . . . . . . . . . . . . . . . . . . . . . . . . . . . . . . . . . ; H _ 1.C.S.S.K.K.XXXXP.P.P.XXP.K.K.K.K.S.A._ s ; % X . . O O O O # # # @ # # # + + . . . . . . . . . . $ X o q k Q &.O.+.O.4.5.q.6.-.D = X X 9 Q c.N.m.n.n.E.E.E._._._._.).Q.v.z.6.$.V & . X u ' $.$.^ $.' ^ ^ @.-.-.[ ' / k q ~ -.-.=.j.j.h.V + . . . - W >.2.e.[.5X=X/.y.>.X.^ k o . . . . + + . . . . O . . . . . . . . 0 4.8.w.2.<.1.r.M.c . . . . . &                                                                                                                                                                                                                                                                                                                 ",
"                                                                                                                                                                                                                        . . . . . = y h N V F F V V g 4 = + . . . . . . . . . . . . . . . . . . . . . O . . . . . . . . . . . . . . . . . . . . . . . . . . X % 8 P <.1.3.S.H.~.OXOXOXOXOX~.F.S.C.1.1.7.J & X X . . . O O # # # # # # # o o o o + . . . . . . . . $ $ X * S / o.&.4.:.>.4.5.9.%.^ z & X X k $.z.m.m.E.E.E.E._.`.'.`._.).Q.v.l.k.$.z & X X j @.$.[ ^ $.-.*.$.@.-.-.' ' R k w S =.=.k.k.k.x.h.y X . . X r U 2.Z.(.-X=X(.D.2.>.o.c , X X . . + . . . O O O . . . . . . . . q 5.t.y.p.2.y.E.'.^ X . . . . &                                                                                                                                                                                                                                                                                                                 ",
"                                                                                                                                                                                                                      . . . . . . o i N N V Z V j V i 2 # . . . . . . . . . . . . . . . . . . . . O . O . . . . . . . . . . . . . . . . . . . . . . . . . . . . % * w r d K U _ <.} T T U Y H t t t e 0 & . . X . O . @ # # o = = = = = & = 3 - & . . . . . . O . . o X 0 ^ ) o.&.4.>.>.>.5.4.) v > o X X S -.l.n.E.).W.W.W.`.|.].]._.E.m.v.0.k.-.Z & . X V #.$.) ^ $.-.*.@.$.*.*.' ~ z q e S -.=.k.k.k.x.j.Z + . . X 9 K <.Z.F.F.F.F.D.e.8.>.O.L u * . X + . . O O O O . . . . . . . . u q.u.e.p.e.W.<X6Xk.& . . . X                                                                                                                                                                                                                                                                                                                   ",
"                                                                                                                                                                                                                      . . . . . . = i N N g N j y i > o + . . . . . . . . . . O . O . . . . . O O O . . . . . . . . . . . . . . . . . . . . . . . . . . . . . . . . . . X % ; ; 8 8 8 ; ; % % X X X . . . . . . . O O # o = = 3 i p y y y y y , - X . . . . . O . . + X 0 ~ o.O.4.5.5.5.:.4.4.) q X X . & ^ k.c.m.).'.].].].|.|.|.`._.Q.v.r.4.%.-.C = . & C @.$.) ) $.%.$.$.$.#.#.' ! z 0 0 ~ =.9.9.k.k.k.j.` > . . . % r ,.e.D.e.3.D.G.D.e.,.5.%.E u . X . . . O O O . . . . . . . . X k t.w.<. .<./.3X6Xx.o . . . X                                                                                                                                                                                                                                                                                                                   ",
"                                                                                                                                                                                                                    . . . . X o o y N N g y i 4 3 2 = + . . . . . . . . . . . . . . . . . . O O O O O O . . . . . . . . . . . . . . . . . . . . . . . . . . . . . . . . . . . . . + + + . . . . . . . . . O . . @ # # o = = > h F D C C A k h q w , : > > = $ . . . + X , ^ $.%.7.5.q.0.O.+.%.^ * . X . * $.M.m.E.`.`.{.{.}.}.}.].W._.T.c.0.O.%.*.S > . & S o.o.o.$.$.$.$.$.@.@.#.#.~ x w k $.k.k.9.0.0.k.k.h.V o . . X 9 X.u.u.2.3.D.F.G.e.2.w.r.%.E * X + . . . . . . . . . . . . . X v v.e.1. .<./.3X6Xx.o . . o -                                                                                                                                                                                                                                                                                                                   ",
"                                                                                                                                                                                                                  . . . . . > u j D F V i = = = 2 2 o . . . . . . . . . . . . . O O O O . . O O O O O O . . . . . . . . . . . . . . . . . . . . . . . . . . . . . . . . . . . . . . O . . . . . . . . . . O O O @ # # # > > u c ^ ^ $.[ ^ / E z ! S F F x u : o + + + X * E $.%.7.0.r.0.+.W Q k % X . X k 9.m._.`.`.].{.}.<X}.}.`._.E.n.c.0.4.=.=.~ > . = ! o.%.$.%.$.$.$.o.o.@.` ! x z E $.=.k.x.z.z.q.l.x.x.#.y . . . % r _ i.e.e.D.G.F.R.D.e.n.c.=.! > + + . O . . . . . . . . . . X v n.T.e.e.T.}.<X<X*.X . . = x                                                                                                                                                                                                                                                                                                                   ",
"                                                                                                                                                                                                                  . . . . X h ` ` ' ! Z y = $ = 2 = + . . . . . . O O O . . O O + O O O . . . + . . O . . . . . . . . . . . . . . . . . . . . . . . . . . . . . . . . . . . . . . . . . . . . . . O O O . O @ @ # # # = > u x ^ &.%.O.%.O.o.) ^ %.&.$.^ S u > o $ + X X % k ) O.7.0.0.0.) E c - X . X 0 o.c.E.].].].|.[.&X<X<X{.`.E.E.n.t.0.5.=.-.! : . > / o.%.%.&.%.$.) ) ^ / x f w C @.-.x.z.x.z.z.z.z.x.x.x.F o . . X ; l :.e.D.e.G.R.].R.e.p.n.c.k.j X . . . . . . . . . . . . . X k t.D.p.D.].&X{.).' . . . >                                                                                                                                                                                                                                                                                                                     ",
"                                                                                                                                                                                                                $ . . . X > D *.' ~ D V 4 o . # 2 # O . . . . . . O O O O . + + + O O O . O O O . . . . . . . . . . . . . . . . . . . . . . . . . . . . . . . . . . . . . . . . . . . . O . . . . O O . @ @ # # # # o = u x J ) 9.4.4.4.O.O.4.4.9.9.&.$.E q , & o $ X X ; v ) O.4.5.0.6.) c 0 X X . & / z.E.].|.|.}.}.}.&X1X<X{.`.E.E.n.r.q.6.=.h.F = . q ^ %.%.:.&.&.&.$.o.@.~ f 9 k *.k.k.x.v.M.M.M.M.c.x.x.x.#.: . . . X * K w.D.p.D.~.[./.e.e.E.m.x.S X . . . . . . . . . . . . . X a r.e.3.F.[.&XQ.%.C . . . >                                                                                                                                                                                                                                                                                                                     ",
"                                                                                                                                                                                                                o . . + : Z ` *.*.@.V h 3 $ . o = # . . . . . . . O O . . . # # @ O O . . O O O . . . . . . . . . . . . . . . . . . . . . . . . . . . . . . . . . . . . . . . . . . . O O O O O . . $ # # # # # # # : > u E / o.6.5.5.5.>.4.0.q.0.%.( ^ ~ w = o $ X X * 0 W %.:.4.5.4.%.E 0 X . . X * &.).].[.=X-X-X1X1X3X3X1X{.W.E.E.v.r.8.6.=.-.V o . f o.$.&.%.&.7.&.$.) / C k 9 k -.x.x.B.M.N.m.m.m.c.x.z.x.h.y o + . . X r <.e.p.D.F.!.R.D.Z.Q.m.9.E & . . . . . . . . . . . . . X w 8.u.e.F.(.&Xn.l o . . X 0                                                                                                                                                                                                                                                                                                                     ",
"                                                                                                                                                                                                              # . . . o > C ' -.=.h.V y 4 # . + O . . . . . . . O O O . . . O O O O O . . O O O . . . . . . . . . . . . . . . . . . . . . . . . . . . . . . . . . . . . . . . . . . . . O O O O $ $ $ # # # # # # # 3 y w / o.%.4.5.5.0.5.5.5.4.4.( J c x q * X . X X & e ) 7.5.5.5.>.) v X . . X X 0 0.`.|.oX-X2X2X2X4X4X2X1X|.W.E.Q.v.q.q.9.h.*.N o . f $.$.%.&.4.7.&.^ c e k E d c =.z.B.N.N.N.N.).m.v.l.z.x.j.N y = . . X 8 U w.p.D.D.C.D.G.D.T.E.l./ , o . . . . . . . . . . . . X w 8.e.G.F.!.}.n.r X . . X >                                                                                                                                                                                                                                                                                                                     ",
"                                                                                                                                                                                                            = $ . . o = 0 c ~ [ -.*.D g 4 # . . . . . . . . . . O O O O . O O O O O O O O + + + . . . . . . . . . . . . . . . . . . . . . . . . . . . . . . . . . . . . . . O . . . O O O O O O @ @ # # # # # # # # 3 p u ^ O.4.4.5.5.5.5.q.5.4._ L J k h > o X . X & u L ) 5.w.w.8.:.^ k X . . X ; c v./.}.-X;X4X4X4X4X4X2X-X|.`.E.E.v.0.0.k.h.h.N X X f $.*.%.%.%.&.%.W k 9 w ^ *.&.z.B.N.N.N.N.N.).).c.0.l.v.B.' C 3 . . . % d i.D.G./.(./.!.F.R.T.v.%.k * . . . . . . . . . . . . . k t.R./.(.[.&Xn.f X . . X 9                                                                                                                                                                                                                                                                                                                     ",
"                                                                                                                                                                                                          = o . . X > u k R E / ~ D D m 3 # . . O . . . . . . . O O . . . . O O + + + O O + + O . . . . . . . . . . . . . . . . . . . . . . . . . . . . . . . . . O . . O O . . . O O O @ @ @ @ # # # # # # # # # = > q k o.&.4.5.5.5.4.4.0.4.%.W c k k u o $ X . X 0 ^ 6.5.5.u.u.r.+./ z X . . % v O.E.|.-X2X2X5X5X5X5X5X2X}.].].E.E.t.8.0.k.h.h.j X X f *.%.%.%.) [ [ E v e e ^ k.x.v.M.N.).N.m.m.N.N.c.0.z.x.B.k.#.j X . . X w >.W.(.=X;X;X=X(.!.R.m.l.Q q % X . . . . . . . . . . X c E.].&X=X=X1Xm.f = . . o                                                                                                                                                                                                                                                                                                                       ",
"                                                                                                                                                                                                        o o X . . > V E ~ / / / C h i 4 2 # . O O . . . . O O @ . . $ . . . . O + # # + + + # O . . . . . . . . . . . . . . . . . . . . . . . . O . . . . . . . . O . . . . . . O O O O @ # # @ # # # # # # # # o = > q c $.&.5.5.5.5.4.&.&.$.^ c u , > o . + X X , k o.q.r.u.y.y.w.) C p . . . 0 4.v.W.|.-X2X4X5X5X5X5X5X2X|.].].W.E.t.8.0.j.-.*.y . o x *.$.$.) W W E E / k w ^ k.z.B.N.N.).).).N.m.m.c.c.c.v.z.k.*.V o . . X 9 o.E.[.;X>X:X:X,X[./.E.v.&.~ 0 X . . . . . . . . . . & v y.].&X[.=X2Xm.f 3 . . &                                                                                                                                                                                                                                                                                                                       ",
"                                                                                                                                                                                                      X . . . X X u ~ / / / ~ C z u 4 2 # . O O . . . . . . O O . $ . . . . . O O + O O O O O O . . . . . . . . . . . . . . . . . . . . . . . . . . O . O O O . O O . . . . . . O . . @ @ # # # < < < < # # # # o - 0 k W %.&.4.>.>.4.&.%.[ / C f , o + . . . X > b Q 4.q.y.p.D.y.>.^ k & . . X v v.Q.W.].-X2X4X5X5X5X5X5X1X|.|.].E.E.c.8.9.@.x V : . o z ' ' ^ E v a e v ' ~ E ^ k.z.M.N.N.).).).).N.m.m.m.M.c.z.k.*.E u : X . & J w.(.;X>X:X:X>X;X(.W.m.l.k.! = . . . . . . . . . X 9 K ,.^.(.(.=X2XM.0 # . . >                                                                                                                                                                                                                                                                                                                       ",
"                                                                                                                                                                                                    o . . . . X * k [ ' ~ R C z u 4 = # . O . . . . . . . . O O . . $ $ . . . O O O O + + O O . . . . . . . . . . . . . . . . . . . . . . . . O O O O O . O O O . . @ @ O @ O O O O @ # # # # < < < < < # # # # = 0 x R o.=.&.4.O.O.%.$.^ R k u > + . . . . X & k o.4.8.r.p.T.T.t.5.$.u X . . X v m.E.W.].-X2X4X5X5X5X5X4X-X].].W.E.Q.c.q.6.C & & + + o u ! ~ E c u 0 0 k ~ $.*.=.k.z.c.M.N.N.).).).).).E.m.m.c.z.l.k.' ~ Z = . X e >./.;X>X>X>X>X>X[.].E.c.x.h.i . . . . . . . . . & k U ,.^.(.(.=X3Xc.: . . . >                                                                                                                                                                                                                                                                                                                       ",
"                                                                                                                                                                                                  o + . . X X - u E -.$.~ C u p y : + . O . . . . . . . . . . . . @ @ @ @ @ @ O O # # # # @ . . . . . . . . . . . . . . . . . . . . . . . . O @ @ # @ @ $ . $ . $ @ @ @ @ @ O O O @ @ # # # 7 7 7 7 7 7 # # # = y h R ^ $.4.&.O.O.O.O.) ~ x p - o . . . . X & e L O.6.8.u.e.D.D.r.4.$.y . . X % L m.E.W.].-X2X4X5X5X6X5X2X-X].W.Q.T.E.c.0.=.x X X . o = f D D z u q 0 q x ^ -.-.k.l.z.c.B.M.N._.'.).'.'.).).m.v.c.z.k.-.#.D & . . & I p.=X>X>X>X:X;X(.W.E.m.x.h.m . . . . . . . . . & v X.1.!.[.&X-X3Xz.= . . . >                                                                                                                                                                                                                                                                                                                       ",
"                                                                                                                                                                                                X . . . . X , E ^ [ -.' D h y 3 2 $ . . . . . . . . . O . . . . O @ @ @ @ @ # @ @ # # # # # . . . . . . . . . . . . . . . . . . . . . . . . O @ # # @ @ @ @ $ . . . . @ @ @ O O O O @ # # 7 7 7 7 7 7 7 # # = > h c ^ $.%.&.O.O.O.o.) ~ C u > o . . . . X > f c ) &.8.r.e.e.e.y.>.L k o . . X ; ( ).E.W.].-X2X4X5X5X5X5X2X-X|.W.T.Q.Q.c.9.*.f X X X 4 N j V j y q , 0 w C ' -.-.k.x.z.z.c.c.N.'.'.).).'.'.m.v.c.c.z.l.=.-.! & . . X 9 ( T.(.,X:X:X=X(.D.T.m.z.h.N X . . . . . . . . * L >.2.!.[.=X-X3Xk.* . . .                                                                                                                                                                                                                                                                                                                         ",
"                                                                                                                                                                                              = X . . X X & k ^ ) [ ^ E h 3 : : o . . . . . . . . O O O O O . O O @ @ @ # # # # # # # < # # O . . . . . . . . . . . . . . . . . . . . . . O @ @ # # @ @ . . . . . . . O @ # @ @ # # # # < 7 7 7 2 7 7 # # # = > C / o.%.%.&.O.O.o.o.^ ~ N y = X . . . . - f L ) &.5.0.u.y.A.e.y._ 9 % . . X u L O.m.E.Q./.-X2X4X5X5X5X4X2X-X|.^.T.Q.n.c.4.$.f X X + N ] g g y 3 y 0 p h S ^ $.*.=.k.x.x.z.z.N.)._.).).).'.m.0.0.z.x.x.k.j.@.= . . . X e >.e.G.oX;X;X[.W.Q.n.v.x.' - . . . . . . . X e ( i.2.F.(.[.[.{.%.& . . .                                                                                                                                                                                                                                                                                                                         ",
"                                                                                                                                                                                            $ + . . X & u c o.$.) ^ E z u > = = . . . . . . . . . O O O O O O O O @ @ @ # # # # # # # < < # . . . . . . . . . . . . . O . . . . . . . . . O # # # # @ @ $ . . . . $ . . @ # @ # # # # < 7 7 7 7 7 7 # # # = > u E $.&.O.O.>.O.o.o.^ E x h > o . . . . = 0 c ^ &.4.5.r.y.e.u.2.t.W & X . . , ^ 0.0.n.Q.T.W.|.1X2X2X5X5X4X2X-X|.^.Q.Q.n.c.&.^ p . . + N ] i 3 4 y u h j x C ~ ~ ~ ' -.=.k.k.z.M.N.M.m.).).).m.0.0.l.c.z.k.j.-.u X . . X * P u.Z.G.oXoX[./.W.Q.m.v.h.A 2 . . . . . . X e ( i.2.G.!.!.R.E./ X O . o                                                                                                                                                                                                                                                                                                                         ",
"                                                                                                                                                                                          + . . . X X 0 ^ =.6.%.) ~ C h u 3 = o . . . . . O . . . . . O O O O @ @ @ # @ # # # # # # # < < # . . . . . . . . . . . . O . . . . . . . @ # @ # # @ # @ @ @ . . . $ $ @ $ @ # # # # # # # < 2 7 7 7 7 = # # = > q x W %.5.>.>.>.O.o.) ~ c h h i > + . . : u e v ) 4.4.5.r.r.w.,.,.5.k X . . . u %.l.q.t.y.y.Q.].}.[.=X2X4X2X2X1X}.`.Q.n.m.z.$.x > . . + 5 B 3 3 4 i g N V V C S E ! / ~ $.-.6.l.v.c.l.c.).'.).m.c.c.c.c.z.9.=.j.~ > X . . % d 5.e.G.!.(.(.(./.W.E.v.k.*.S = . . . . . X w X.i.2.G.F.F.e.8.k . . . +                                                                                                                                                                                                                                                                                                                         ",
"                                                                                                                                                                                        o . . . X X % v 6.6.&.$.^ ~ V u 4 3 = # . . . . . . . . . . . . . # @ @ @ @ # @ # # # < < < < < # O . . . . . . . . . . . . . . . . . . . # # # # # # # @ @ @ $ $ . $ @ @ @ @ # # # # # # # = 1 2 2 7 7 7 # # : 3 y q v L +.5.5.>.>.:.o./ C x z j g 3 o . $ g Z k c ) O.:.5.5.5.5.<.X.$.u X . . . v 6.0.q.r.r.u.T.].|./.].-X2X2X3X1X}.^.m.n.M.l.^ q + . . + # 2 # 2 4 i M Z Z C C S S E E ~ ^ $.=.l.z.z.0.l.m.).).m.v.c.c.z.l.6.-.k.j.` * . . X 0 >.Q./.(.(.(.[.[.].].T.l.h.' 2 . . . . X & k >.w.e.G.!.!.G.t.k . . . X                                                                                                                                                                                                                                                                                                                         ",
"                                                                                                                                                                                      $ . . . . & u e ) z.z.k.*.^ D j y 3 = o $ . . . O O . . . . . . . @ @ @ @ @ @ @ # # # < < 2 7 < # # . . . . . . . . . . . . . . . . . . . . # 2 # # # # # @ @ @ . @ @ @ # # # # # # # # # # = = 2 : : # # 7 # = 4 g j k v W O.5.5.>.>.%.o.E z x z y = : $ . = j S E E ( _ O.>.>.:.X.X.o.-.z X + . % ^ l.r.r.r.i.<.y.W.R.T.^.&X1X1X1X1X{.^.Q.n.c.9.! : + . . O # # # 2 4 i M Z Z F D ! D D S ! ~ $.-.k.z.z.l.t.m.m.m.m.v.v.c.l.9.=.&.k.x.j.h . . . & J E.].[.(.(.[.[.[.|.E.c.k.*.u + . X X X & l 5.u.e.G.!././.E.c . . . .                                                                                                                                                                                                                                                                                                                         ",
"                                                                                                                                                                                    . . . . . . y -.6.9.z.l.=.' S V g 5 = $ + . . . . O O . . . . . . . . @ @ @ @ @ # # # < < 2 2 2 2 # . . . . . . . . . . . . . . . . . . . . # # 2 2 # # # # @ @ O . . @ @ # # # # # # # # = 1 2 2 2 : : # # : : : g V V v c Q %.4.4.>.4.%.) c x C x 4 = = o . > V S E W W ( _ X._ _ _ o.o.#.N + + . , =.c.r.r.8.,.<.t.Q.n.T.Q.^.}.<X1X1X{.`.m.n.c.9.F o . . . $ # # # 2 3 i N F F D D ` ! ! S ! ! ~ $.6.k.z.l.0.c.M.n.n.n.v.v.c.9.9.6.6.x.x.Z . . . X 9 >.E.|.]./.(.[.[.}.W.r.O.[ D 3 + + X X & d 5.p.3.e.R.(.].'.^ + . . .                                                                                                                                                                                                                                                                                                                         ",
"                                                                                                                                                                                  . . . . . . X u k.c.0.9.6.' E z h y 3 # X . . . . . . . . . . . $ . $ $ @ @ @ @ # # # < < 2 2 2 2 # . . . . . . . . . . . . . . . . . . . O # 5 2 2 # # # # + @ @ O . . @ @ # # # # # # # = 1 2 2 2 2 : : 7 # : 2 y V C c c ^ o.O.O.:.5.5.O.Q / E S V j h y & X u F E E W W ( ( ( ( _ o.) C Z y X X & k k.v.t.t.r.8.,.t.E.n.Q.E.E.^.{.1X<X{.'.m.M.z.9.V + . . O # # # # 2 4 i M Z D D ` ` ] ` ! E S E ^ -.k.k.9.0.c.c.M.c.v.v.m.M.l.l.k.6.x.x.Z . . . . % k 6.E.Q.T./.[.[.[.W.w._ ) #.Z : X X X X 9 O.y.,.2.G.R.T.N.! + . . .                                                                                                                                                                                                                                                                                                                         ",
"                                                                                                                                                                                . . . . . . . & z -.k.6.=.*.` D M i 2 = # . . . . . . . . . . . . @ $ @ $ @ @ @ @ # # # < 2 2 2 2 < # O . . . . . . . . . . . . . . . $ # # 7 5 m 5 # # # # # + @ @ O + . . # # # # # 7 = 2 2 2 : : : 2 2 : : : : 4 j F E E W ) ( _ O.4.5.8.O.) $.~ ~ ! D Z h & X u C E W W W ( ( ( ( ) ) / q = o X X 0 / c.m.n.n.n.n.8.t.E.E.E.E.E.E.W.}.{.`.'.N.M.B.=.j . . O O # # # 7 2 6 5 g V Z F D ` ] ] ~ ! S C ! $.=.=.=.9.l.c.M.c.c.z.M.c.9.z.x.k.k.x.D = . . . X & C 0.8.,.T./.[.(.W.D.5.%.$.! q X X X . & ( t.2.e.R.W.<.E y . . . o                                                                                                                                                                                                                                                                                                                         ",
"                                                                                                                                                                              + . . . . . . . , L $.%.$.$.~ F Z M 4 # + . . . . . . . . . . . . . $ $ # @ # @ @ @ # # < 2 2 2 2 2 # . . . . . . . . . . . + $ . . O # # 2 2 2 5 2 # # # # . . . # @ . # # # # o o # < 2 2 2 2 2 2 2 2 2 : : 2 3 > u V S / ^ Q ) ( X.5.w.r.q.5.&.$.^ ^ ~ ! C u * & f c E W Q ( ( _ ( ( ) ^ h & . . X & k %.M.m.n.p.n.n.w.8.m.'._.E.E.E._.{.`._.`.E.M.B.-.y . . O O # @ # # 2 4 5 i M N Z F G ` ] ] ` S C S ~ *.-.-.=.9.z.c.z.z.z.z.l.9.z.x.k.=.-.@.Z = . . X X 0 J Q _ 8.R./.W.~.W.T.q.4.$.~ > X . . % W t.y.p./.{.) * o . . . -                                                                                                                                                                                                                                                                                                                         ",
"                                                                                                                                                                            o . . . . . X * u E L W ^ ^ ~ Z M g 5 : . . . . . . . . . . . . . @ $ $ # # # # @ @ # # # < 2 2 2 2 # . O . . . . . . . . . . + . . . # # 2 5 5 2 # # # # @ @ @ . . # . O + # # = 3 3 6 3 3 3 3 4 3 4 4 3 2 : : : 4 y j x S / o.( ( _ +.5.w.r.r.0.l.6.$.' ~ S j 4 & * f S E W ( ( ( o.) ^ ^ ~ 0 X . . X , R 6.m.).).E.n.n.n.n.E.'.E.E.E.E.|.|.).E.).E.M.B.@.> . . O O @ # # # 2 6 4 5 g m B Z F G ` @.] D S S ! ' $.-.&.6.9.z.9.l.l.l.k.k.x.l.l.=.$.#.` i + . X X & 0 r d a.p.R.R.~.~.R.n.0.6.-.j & . . % W c.w.u.R.'.Q & + . . +                                                                                                                                                                                                                                                                                                                           ",
"                                                                                                                                                                          X X . . . . X u ^ &.9.o.^ / E C j i 2 : # . . . . . . . . . . $ @ $ $ @ $ # # # # # # # # 7 < 2 2 2 # # O . . . . . . . . . $ + + . # # 2 2 5 5 2 # # # # # @ @ @ . + . + + # = 2 3 i 4 4 3 2 3 3 4 4 i 4 3 : : : 4 u j C S E / o.o.X.X.:.5.w.8.8.8.0.6.$.^ S z u > & * k E / ( ( ) ( ) ) ^ ~ ~ > . . . X k $.0.m.).`.{.{.{.`.`.'.`._.E.E.E.'.E.n.E.E.N.M.B.~ = . O . O O O # # 7 2 4 5 5 g M B Z F G @.] ` D D ! ! ~ *.%.=.9.k.9.9.6.9.9.k.l.l.k.=.^ ' ! g o . . . X X % 8 K i.D.R.R./.W.T.t.0.=.! > X X & Q v.8.i.T.'.W % . . . X                                                                                                                                                                                                                                                                                                                           ",
"                                                                                                                                                                        o . . . . . . 0 *.z.z.0.9.=.~ C j y 3 o $ . . . . . . . @ O . @ . . . $ $ $ $ # # # # # # # # < < 2 # # . . . . . . . . + o 3 3 + . . # 6 5 5 2 2 # # # # # @ @ @ $ $ . O # = 3 i m m 4 3 3 3 : 3 i i i i 4 4 > : 4 h V D ! ! / ^ o.+.+.+.>.,.,.>.>.:.%.%.^ C z f y : X , b E ) O.%.O.Q W Q W ~ D = . . . & c 6.z.m.E.E.].}.<X{.{.{.`._.E.n.q.c.0.r.n.m.m.B.k.F $ . . . O O O # # 7 2 2 6 4 5 m M N Z D G ` G ! ~ ~ ~ ~ $.*.-.=.k.=.%.%.=.=.%.6.9.&.o.E ~ ! Z 3 . . . . . X % d X.y.T.R./.~.T.y.r.9.$.z * + & Q t.8.u.Q.'.W X . . . X                                                                                                                                                                                                                                                                                                                           ",
"                                                                                                                                                                      = + . . . X . X u k.z.0.6.&.-.D j i 3 # . . . . O . . . . @ . O @ . . @ @ $ $ # # # # # # # # # # # # # . . . . . . . . + # 3 N m $ $ # 2 m m 2 # # # # # # # @ # @ # # # # # 6 i N B N i 4 4 i 4 i m m g i 4 3 > : y j V S S / / ( ) O.O.O.>.>.<.:.O.+.) W E c z h y > , k E Q ) O.&.o.P J E / S 0 X . . X q W 6.0.m.E.`.|.&X<X<X}.{.`._.).v.>.:.>.8.M.m.M.z.-.f X . . . O O O @ # # 7 2 2 6 6 5 g m B B F F F F ~ ' ' #.*.$.$.*.-.*.^ ) o.) E ) %.o.o.Q $.h.#.Z = . . . . . X q o.8.p.F.R.~.R.T.y.q.&.~ z o % v O.>.e.}.<XE X . . . X                                                                                                                                                                                                                                                                                                                           ",
"                                                                                                                                                                    = o . . . X X % * J z.z.9.o.^ E x u 3 = . . . . . . . . . . . . O @ . . @ @ @ # # # # # # # # # # # # # . . . . . . . . + = 3 i B g o # : 2 5 5 2 # # # # # # # # # # # # # 2 4 i g M N M i i m M M M m g g i 4 3 3 > u N V C C E / ( o.O.O.O.:.:.O.O.+.) Q L c x x j q > z ~ ^ ) o.o.) W J J E ! x & . X X , E &.9.t.m.E.{.}.1X1X1X<X}.]._.).v.5.+.+.5.t.M.M.z.@.> . . . . . O @ @ @ # # 7 2 2 2 6 5 i m M N N V Z D ~ ~ ~ ! ! ^ ^ ^ ~ / / W L J ^ %.9.9.9.k.k.j.' Z = . . . . . - E 0.y.e.R./.~.R.T.t.q.&.~ y % 9 d U w.|.<XE X . . + %                                                                                                                                                                                                                                                                                                                           ",
"                                                                                                                                                                  $ X X . . . & k k v O.9.9.$.E x p y 3 = + . . . . . . . . . O O O O @ O O @ @ @ @ @ # # # # # # # # # # . . . . . . . . + o 3 M m m : $ o 4 2 2 2 2 # # = # # # # # # o # : 2 y g j g i i m M M N N N N N g g y y 3 3 y h Z S S S / Q ) o.O.%.%.%.O.O.) ) ) W E c x x j q q S $.o.^ Q W L c v E E C u X . . > c o.9.0.c.m.`.}.1X1X1X3X1X<X{._.Q.c.5.O.O.5.t.c.B.k.~ & . . . . . O @ @ # # # 7 7 2 2 6 5 5 5 g g j M N Z V x x x C S S E E E E E L L Q =.z.z.c.x.x.h.h.' i + . . . . . u &.8.i.e.R./.R.T.t.8.4.$.z & % * d >.`.'.c . . . =                                                                                                                                                                                                                                                                                                                             ",
"                                                                                                                                                                + X . . . . . , $.9.6.9.%.$.~ x u 3 = = # + . . . . . . . . . . . . . . . . @ @ # # @ # # # # # # # # # O . . . . . . . . o 4 j Z N m # . o 4 5 # o # # # # # # o o = : 2 4 i g g j j m i y i N N N N N N N g i y 3 3 y u z C C S / ^ ) o.o.%.%.%.O.+.$.) ^ ^ / E C V j g 3 q C o.^ Q W v v c v S S x > . . o z ^ %.9.t.M.E.`.}.1X1X1X1X1X<X{._.m.0.5.4.O.4.0.c.z.=.x X . . . . O . . @ # # # # 2 2 2 6 5 5 5 5 g g j j j h f u u z x C C c c c E W P ( 9.c.M.M.B.k.-.#.#.D = . . . . . = E $.>.w.A.R.R.D.e.i.4.&.E , X X & d 4.z.q . . . :                                                                                                                                                                                                                                                                                                                             ",
"                                                                                                                                                                . . . . . . X 0 o.0.z.6.o.~ F j g 3 = # + . . . . . . . . . O . . . . . . . @ @ # # # # # # # # # # # # O . . . . . # o o : j D D F y . . $ 2 2 # o # = = = 2 2 : : 4 4 i g g j N V V N g i g N V N N N g g h y 3 > y u h C S ! ~ ^ o.o.o.o.%.%.%.%.%.$.^ ^ E R C Z V j 4 > f E ^ ^ ^ W c v c c F z > o . . = D *.&.9.t.v.E.].}.}.}.}.}.}.{.{._.m.0.6.6.+.O.9.z.z.*.3 . . . . . . . . O # # # # 2 2 2 6 5 5 5 5 5 g g i 5 y y > > f x x z b v c c Q o.9.c.M.M.M.B.=.@.~ ' ] i . . . . . . - z P :.e.D.F.G.e.8.5.&.;.k & . . X q f * . . . 3                                                                                                                                                                                                                                                                                                                             ",
"                                                                                                                                                              + . . . . & - a l Q 9.&.^ c x h 4 4 2 # + . . . . . . . . O O O . . $ $ @ $ @ @ @ # # # # # # # # # # # O O . . . . . 4 i 3 h F ` D V = . . $ = : # # o = = 2 2 3 4 i g m M V V V V V V N N M h N N N N g h i y 3 > > p f x D E ~ ) o.o.o.%.%.%.%.%.%.%.) ) ^ E C Z V V h > > z ~ ^ ^ W W J c c C F y X . . . : ~ -.&.q.t.y.E.`.{.}.|.|.|.].|.].).m.c.0.9.+.+.9.z.x.@.> . . . . . . . . . + # # # 2 2 2 5 6 5 5 5 4 6 2 : : 4 4 > > q x x x v C E W o.9.x.M.M.m.M.l.-.*.~ ' #.Z # . . . . . . % 0 P t.T.F.^.^.y.8.4.9.^ , . . X & X o $ . X >                                                                                                                                                                                                                                                                                                                             ",
"                                                                                                                                                            . . . . . = c ^ %.O.o.&.$./ z p > = # # # . . . . . . . . . O O O @ $ @ @ @ $ @ @ @ # # # # # # # # # < # . . . . . . . i Z h j D ! F g o . $ $ # # # o o : : 3 3 y h g N N V C C Z Z Z V z j h i h N N g i y 3 > > > 3 u j S ` ~ ^ o.o.o.o.o.%.%.&.%.$.) ^ ^ / E C A V V f 0 q C ^ ^ Q W W W / E C Z 3 . . . . 3 ` -.&.8.t.v.E.].{.{.{.{.].`.'.'.).m.l.9.9.O.&.0.z.x.@.> . . . . . . . . . O # # # < 2 2 2 2 2 2 2 = # # o = = > > u k x v L / o.&.=.9.z.M.c.c.c.z.-.^ ^ ~ ` ] G = . . . . . . . X k q.T./.[.-X^.y.t.z.&.f X . X o + + . . o                                                                                                                                                                                                                                                                                                                               ",
"                                                                                                                                                          + . . . X X u ' =.0.0.4.$.~ V j y = # # O . . . . . . . . . . O O O . @ @ @ # # # @ @ # # # # # # # # # < # . . . . . . . y S V V D ! F i + . $ # o # o o = > > y g h j j V Z C D D Z Z Z V j j g N N g h i 3 > > > > > y j x ! @.$.) o.%.o.o.O.O.%.&.%.$.) W E E S Z N j h p 0 k E ^ ) ) ( ( Q ^ ~ C j = . . . # u ' -.4.8.t.n.E.].{.{.{.'.`.`.'._.).m.0.&.9.q.9.z.z.x.#.> . . . . . . . . . # # # 1 1 2 2 2 2 2 2 = o $ o = : > q f C ~ ~ ^ $.-.6.9.l.z.z.z.x.k.k.=.^ c ! C C D Z = . . . . . . . . 0 o.n.(.=X-X}.W.p.t.&.c * X . + + . . . &                                                                                                                                                                                                                                                                                                                               ",
"                                                                                                                                                        + . . X o & 9 E 6.9.6.4.o.^ S 0 > : o + . . . . . . . . . . O . . . O . @ @ @ # # # # # # # # # # # # # # < # . . . . . . = u z C D ! ! C y + . # # # # # = > y u x x x V V V F F D D Z V N N j j j V N y > > = = : > > y h V D ! @.-.%.$.%.o.o.) ) %.&.%.$.) ^ E E S Z N h f u z / ^ ) ) ) o.+.) ) ^ x > X . . $ 4 V @.&.4.q.t.n.W.|.{.{.'.`.`.'.'._.).m.q.) 4.z.0.l.z.k.' : . . . . . . . . $ o 2 2 2 2 2 3 3 2 = = = = = > y j V D @.-.j.j.6.k.l.l.l.l.l.9.6.=.-.=.-.E C D V h i i # . . . . . . . . o f 8.^.&X=X=X].T.i.+.Q u & $ $ . . . . o                                                                                                                                                                                                                                                                                                                               ",
"                                                                                                                                                      $ . . X & z / W $.6.4.&.%.^ S z y = + . . . . . . . . . O . . . O . . . . @ @ # # # # # # # # # # # # # # # # O . . . . . = y j C F E ! ! x > . . # # # # # : 4 h x V V V V V x z x x V j j j g h j N N i = o o = = > > y h V ! ~ ~ [ =.6.&.%.$.o.Q ) %.&.*.^ / E R C C Z V h u f ~ $.%.+.+.+.O.O.o.) ~ h X . . . & u F ' $.&.8.t.n._.].|.`.`.'.`._._._.).m.4.P o.q.9.9.l.-.~ = . . . . . . . . # = 2 3 2 2 3 g m i i 3 4 y u j V F D ' -.j.k.k.l.z.l.k.9.6.=.&.&.*.*.#.! V V g p 3 o X . . . . . . . . . . & P n./.(.(./.R.w.>.o.x & o . . . . . &                                                                                                                                                                                                                                                                                                                               ",
"                                                                                                                                                    3 X X % & q / %.%.&.6.O.) E E z y 3 o . . . . . . . . . . O O . . O . . . . @ # # # # # # # # # # o # # # # # . . . . . . # y V V C S S E S V > . . # # # # 4 i g z x V x x V C x f f f j j g g i g j j i > o + + = > 3 y h z V ~ ~ ~ $.-.&.%.%.o.) ^ $.*.%.^ E E C c c V V N u p k ) &.4.O.O.+.O.&.%.) ~ u . . . o y x S ^ o.&.8.t.E.`.`.`.`.`.`._._._.).E.m.O.J ) q.6.$.^ ! x o . . . . . . . $ # 2 2 4 4 3 i g N Z V g h h V D ~ ~ ~ *.=.=.k.k.l.l.l.9.=.&.$.$.$.@.' ! V h y 2 = + . . . . . . . . . . . . . e U i.e.F.R.F.D.w.5.^ g : . . . . . &                                                                                                                                                                                                                                                                                                                               ",
"                                                                                                                                                  : & X X 0 a c o.o._ O.6.%.E z u y = o $ . . . . . O . . . O O O . + . . + @ # # # # # # # # # # # # o o o o o # . . . . . . : g V C S S S S S V 3 + . # # 2 4 i g g j z x z z V V x f h j j j h g y y y y > o + + + # > y u j C S ~ ~ ~ $.=.&.( Q L J / *.$.$./ E E c c x j j h u q k $.4.4.:.+.O.:.4.$.^ ! 3 . X = y N C ! ^ o.&.8.v.E.`.`.`.`.`._._._.).).E.M.O.J o.9.9.^ f q > . . . . . . . . # # 7 : 3 4 4 4 5 g N N j x x F ! ~ ~ ~ o.-.-.=.6.6.k.k.6.%.$.*.%.' ~ F h 3 = o . . . . . . . . . . . . . . . . X 9 K a.2.e.G.F.D.t.=.` N # . . . . &                                                                                                                                                                                                                                                                                                                               ",
"                                                                                                                                                = + . X * C E W o.( ( O.&.^ z u > = o # . . . . . . . . . . O O O . + . . # . # # # # # # # # # # # $ # # o o # + . . . . . o 3 j x x c C C C C x > + + # 2 5 m i i g N V z z u h f h h j j j j g g g i 4 : o X + + # = > y h V ! ~ ~ / ^ ^ &.=.) Q W W o.$.^ ^ W E S S x z f u p u v ) &.4.:.:.:.:.4.6.$.S j o . + y V D ! ~ ^ o.&.q.n.W.`.`.`.'.`._._._._._.Q.v.O.v o.9.k.! * X X . . . . . . . . @ # # : 2 4 5 4 2 4 i u j V D ~ ~ ~ ! ! ^ $.$.o.%.%.=.k.-.^ ~ ~ ~ z q > o + . . . . . . . . . . . . . . . . . . . X 8 H X.8.p.R.R.n.9.*.D = . . . . X                                                                                                                                                                                                                                                                                                                               ",
"                                                                                                                                                o . . X u ^ o.( _ ( Q ^ ^ E j u > o # + . . . . . . . . . . . O O O . . # O # # # # # # # # # # # # $ # # # + . . . . . . . = u h j z z x c c c x 3 + + # 5 m m i M N M g h u u p u u u h h u g g g g y 3 o X $ o o = : 3 u z C ! ~ ~ ^ ^ ^ ) $.o.) O.%.$.o./ / / E S c x f u y u u / %.4.4.>.>.:.:.4.=.' x > . . = j Z D ! ~ ^ ) >.r.Q.W.W.W.W.`._.E.).).W.E.E.c.o.J &.l.x.S X . . . . . . . . . O $ # # # : 2 4 4 3 4 i i j V D ` @.^ ~ E ^ ^ ^ ^ $.$.' -.$.E u 0 , & X . . . . . . . . . . . . . . . . . . . . . . X % 9 J 4.n.W.W.n.0.=.C & X + . . o                                                                                                                                                                                                                                                                                                                               ",
"                                                                                                                                              = + . X & z ^ ^ Q ( ( Q ^ c x g 4 > # + . . . . . . . . . . . . . . . + . + # # # # # # # # # # # # # # # # . . . . . . + + o > h h z z z z z v c C y o # # 5 m m i M B m i u p p u y u u g u h i g g g 5 : o + o : = = > y f V F ! ~ ~ ) $.$.o.o.o.o.%.&.$.) W E E E S x j f p u f v ) &.7.4.>.>.:.:.&.[ C f & . . 3 N V C C ~ Q ) 5.c.E.W.W.E.E.E.E.E.E.E.E.E.).v.( Q 6.l.x.! o . . . . . . . . . . . # # # : 2 4 4 4 i g h z V D @.@.^ / E / / ~ ~ ' ~ S ! S u & X X X X . . . . . . . + + X X X X X X X X o o . . . . X % 0 W 9.t.T.n.8.O.c * X + . . X                                                                                                                                                                                                                                                                                                                               ",
"                                                                                                                                            o . . . & 0 k L L W Q Q ^ ~ x u i 4 2 # $ . . . . . . . . . . . . . . . . . . @ # # # # # # # # # # # # # # # . . . . . + + & - p z z x x x z k v c C y $ # # 5 g m i i i 4 3 > > 3 y y u i h g g g g g g 3 : # o : 4 3 > 3 u z V C E ~ / ^ -.=.$.o.o.o.%.&.%.$.W E C E S x f y > q x ^ O.4.5.5.,.>.:.4.=.~ 0 - o X . y Z V C C / ^ +.q.n.W.W.E.E.E.E.E.E.E.E.E.E.).v.P P &.l.B.' o . . . . . . . . . . . # # 7 2 2 4 4 i N j j V x S ^ @.~ E c c S ~ ~ ` D u 0 > & + + X X X X * > > y i M N u p u k f k h q u j f > # $ . . . % q k _ 8.y.8.X.J 9 , & . . X                                                                                                                                                                                                                                                                                                                               ",
"                                                                                                                                          o . . . X p x E E L L L L ! D V 4 2 : # . . . . . . . . . . . . . . . O . . O @ @ # # # # # # # # # # # # # # O . . . . . + 2 y u x C c c c c v v v c F 3 + # 2 5 m m 5 3 : = = 3 y y 4 y y i g N M g g g 5 : # o o : y 5 4 u j V C C E E c c ) &.o.o.%.o.%.&.%.) E J E ! F x f 0 0 f ! $.&.5.5.8.5.>.:.O.-.C o X X . X f V V C S ~ ) O.t.E.W.W.Q.n.Q.E.E.E.E.E.E.E.E.t.I P %.l.B.] o . . . . . . . . . O . # # 7 : 6 4 5 M Z Z V F F ! ~ ~ C c x u z F F F j = + X + $ o = = > u E ' ~ ' h.j.h.' E ^ [ ) $.) E E ~ x f u = . . . . X X 9 U t.w.>.P L ! y . . X                                                                                                                                                                                                                                                                                                                               ",
"                                                                                                                                        : + . . = u V C C c J E / C x V M 4 # # # . . . . . . . . . . . . . . . . . O O @ @ # # # # # # # # # # # # # # . . . . . . o g V c c c J J L L L c c S C > + # 2 5 m 5 3 : = = 2 3 y y y i i g N N N g g 5 3 : o o = : 4 y h j V V C C / / c v L ^ o.o.%.&.&.%.) J J R C C x f 0 0 k ! $.&.5.>.8.8.5.4.&.$.' h . X . o : h C C C E ~ ) O.c.E.W.E.T.p.n.n.E.E.E.E.E.E.E.4.L L %.x.x.A X . . . . . . . . . O # # 7 2 2 6 3 i N F D D D ~ ! ! S S ! V h > 3 3 > & + X X X * > f C ^ %.l.v.M.M.m.N.c.q.5.q.q.q.9.&.$.) / v k f > o . . . . X % K n.E.n.t.c.v.' & . X                                                                                                                                                                                                                                                                                                                               ",
"                                                                                                                                      2 # . . + y V C C C R R E S C V N i 2 # # $ . . . . . . . . . . . . . . . . O O O @ # # # # # # # # # # # # # # # # . . . . . + > C / E W W Q Q Q / E S ~ V & . # 2 2 2 2 3 = : 2 3 4 y i g g g M N N N M i 3 > : = : 4 4 y i N j V C C c E ^ ^ ^ ) o.%.%.&.=.&.%.^ c c c x x z w 9 a E o.%.4.>.,.i.8.8.5.&.$.~ > . X X p x C S C S ! ^ ) O.n.^.^.W.T.n.n.n.E.E.E.E.E.E.m.%.c v E $.! 3 . . . . . . . . . . . # # 2 2 2 4 5 j V F G ` ` ` ~ D S F D F y & o o X X + X & q k v W %.q.c.n.E.|.{.{.`.`.E.Q.y.t.r.8.5.4.O.( J c x h : . . . . . . r q.E.^.W.E.z.~ - X X -                                                                                                                                                                                                                                                                                                                             ",
"                                                                                                                                    + $ $ . . : i j x C C E C C x x N g 2 # # # $ . . . . . . . . . . . $ . . + . O @ @ # # # # # # # # # # # # # # # @ @ # + . . . . & c ^ Q ) _ _ o.o.) W E ^ h X . . # 2 : : 2 : : 2 3 3 y i g g N j N N N j 4 = : > > 4 i g M N V V V S ! S E ^ $.*.%.%.%.&.&.&.$.^ ^ c k k k k f w r L ) O.O.>.,.,.i.8.8.9.&.~ D = . X , c / / E S E ! ^ o.4.E.].].^.Q.n.n.n.E.E.E.E.E.E.M.) k k z S y X . . . . . . . . . . . # # 2 2 2 4 i m V D G ` ` ` ` D V j V N : $ X X X X & * q b L o.4.c.m.W.].|.1X3X3X<X<X}.].W.T.y.r.8.5.>.X.Q E c j 4 $ . . . . . & X.E.^./.E.8.) z & X X %                                                                                                                                                                                                                                                                                                                           ",
"                                                                                                                                  + . . . $ # y g j z V C c z k h g g 4 # # # . $ $ $ . . . . . . . $ . . $ . # . O @ @ # # # # @ @ O # # # # # # # # # # o o . . . . & c $.O.O.+.+.O.%.o./ E ~ p . . . # 2 : 2 2 = = : > 3 y i g h N j j N j h > & = 3 3 4 i g N V V V V D ! ~ E ^ $.*.%.%.&.&.&.$.E c / R k k f k k k L ) O.4.>.,.,.i.8.8.9.6.Q c D > . & c ^ o.o.W L E / ^ o.5.`.|.].].W.Q.T.n.Q.E.E.E.E.E.M./ w 0 , u = . . . . . . . . . . . $ # # 2 2 2 4 i m V D G G G G G D j y 4 : o X X X X * 0 k v L ( 5.c.E.`.|.&X-X2X2X2X4X2X-X}.].^.W.T.y.r.8.5.&.$.! f 4 $ . . . . . . r M.^.^.W.n.r.6.u X . & q                                                                                                                                                                                                                                                                                                                         ",
"                                                                                                                                o + . . . # 3 f h h j z V z u p 3 > : # # # . . $ $ . . . . . . . . . . . . . @ @ @ @ @ # # # # @ @ # O # # + $ O # # # # 2 2 # + . . & S $.O.O.O.4.4.&.$.^ ! z o . . . o 2 2 : 2 2 2 3 4 4 y i g M N j j V j h u > 3 y i g g N A A V Z C S ! ~ W / ^ ) ) ) o.$.$.^ R c c R z u u k c L Q O.4.5.8.8.8.8.8.6.=.E , , y = - c &.0.q.9.O.Q / / ^ o.6.E.|.[.|.|.^.E.Q.Q.Q.Q.E.E.).M.E & X X X . . . . . . . . . . . . # # # 2 2 3 4 i g N Z D F F Z B M 3 o X . . . X X & 0 k v P _ 5.t.Q.W.].}.-X2X2X4X4X2X2X-X-X}.|./.W.T.y.r.q.0.9.~ u > o . . . . . . X c t.T.R.W.E.).$.= X > *                                                                                                                                                                                                                                                                                                                         ",
"                                                                                                                              o . . . . o = 4 f j N g h j u y 3 : = # # # O . . @ . . . . . . . . . . . . # # # $ @ @ @ @ # # # @ O # # # $ . # . # # # 2 3 3 2 # . . X k ^ O.O.4.5.6.6.o.E z , . . . # # # 2 2 2 3 4 4 4 4 y i g N N N V x j h f h u i g m N A Z V V C C S ! ~ ~ / ^ ^ E / ^ ^ ^ / E k u c z a k c E ( O.4.5.8.8.w.r.8.8.&.$.f X X & = C $.9.t.n.m.c.O.X.o.o.X.5.n.|.[.[.}.|.^.E.Q.Q.T.Q.E.'.M.k X . . . . . . . . . . . . . O @ # # 2 2 2 3 4 i i g N V N M m 5 2 $ . . . . . X * e f v P X.>.8.p.W.^.].-X2X2X4X4X2X2X;X-X-X-X}.|./.Q.n.t.q.9.&.! u 3 = . . . . . . . & K 8.T.W.W.W.c.z > * X &                                                                                                                                                                                                                                                                                                                       ",
"                                                                                                                            : + . . . $ > > y j V V y y i y > > : o # # O O . . . . . . . . . . . . . . . @ @ O @ @ @ @ @ # # # @ # # # @ O # # # # # 2 2 5 5 6 2 o X . * c ( O.4.4.5.&./ k 0 & . . + o 2 2 2 2 2 3 3 4 4 4 y i g g N N N z h h h j j j g N N A S C C F S D E ! / ^ ^ ^ E E E ! E R R z w v C R R W Q ) :.4.8.8.r.r.r.8.6.-.@.j X X & h *.-.4.q.n.).E.c.5.O.+.X.>.w.^.[.}.&X}.`.W.E.Q.Q.Q.E.'.M.k X X . . . . . . . . . . . O . @ # # 2 4 4 4 4 i i i g M m i 3 # @ . . . . . X , f c c P +.4.8.t.D.W./.[.1X2X2X2X4X2X-X-X-X-X-X-X[.].W.T.y.5._ P c z u 2 . . . . . . . . , U p././.W.c.$.V * . %                                                                                                                                                                                                                                                                                                                       ",
"                                                                                                                          $ . . . . . = j f q j V j y y y 3 > = = # # O O O O . . . . . . . . @ . . . . # @ @ @ $ $ $ @ # # # # # # # # # @ # # # # 2 3 3 5 5 5 6 2 = o & q J O.4.7.4.$.c q - o . . o 2 4 g 5 4 4 i i i i i i g g g N V V j u h j j N N N N V Z S D D D D ! ! ! ~ ~ ~ ~ / C c S C C z u a R [ $.$.) _ :.5.8.r.r.t.v.8.o.$.~ D g o . & C -.6.q.t.n.E.E.E.t.5.>.>.>.w.W.].[.}.&X|.W.E.E.E.E.E.N.z.u X . . . . . . . . . . . . . $ $ # # : 2 4 5 5 i i i i 4 3 = # . . . . . . & > f S ^ Q ) 4.5.w.y.D.W.].}.-X1X2X2X2X;X=X=X-X-X-X-X=X[.].W.T.t.>.o.W / z > = . . . . . . . X w 8.W.~.Q.T.=.h.u . o                                                                                                                                                                                                                                                                                                                       ",
"                                                                                                                          . . . . $ o 3 V V x V h y > y 4 3 = = # # + O O + O O . . . . . . . . . . . . $ $ $ @ . . . . # # # # # # # # # + # # # = 2 3 4 i i i 4 i 4 = o * k _ %.4.4.W w q & + . . $ : i m m g y i i i i g h h h z z x V j f j j j j j j N V C S D D ! ! ! ! ~ ~ ~ ~ ! C C V C V f q 0 u R ) %.$.) O.:.5.r.t.r.t.n.5.W ! F M : . . = C $.&.q.r.t.y.n.n.v.t.t.8.,.u.R././.|.}.].`.W.E.E.m.E.m.$.* . . . . . . . . . . . . . . $ $ # # # : 2 4 4 5 4 4 3 = + . . . # o o $ 3 z c S / Q ) O.4.5.w.u.D.W.[.[.=X-X2X2X2X-XoX-X-X-X-X=X=X}.].W.W.E.c.q.o.^ V y 3 $ . . . . . . . & L r.T.R.T.k.x.V . X >                                                                                                                                                                                                                                                                                                                     ",
"                                                                                                                        o . . . o y h j V V V V y > > 4 3 = # # # + + O + # + # + + . . . . . . . . . . $ $ $ # @ @ # # # # o o # # # # + # # # o = 2 4 4 i i i i i 4 = & * k W %.%.) c 0 0 = X X o # : g M j h u h h h h j j z z V V V z h h j j j j N N N V C S D ! ! ~ ` ~ ! ~ ! ! S C D F F V p , 0 q k W ) O.:.>.>.8.r.t.8.c.m.9.E u 3 2 $ . . > ~ =.4.5.8.8.r.y.y.n.Q.E.n.w.w.T.Q.T.].}.{.|.].W.E.E.N.z.C X . . . . . . . . . . . . . . . @ $ # # # # : : 2 = # o + . . . . : 4 3 y C E / ^ Q ) O.:.4.5.8.u.D.W.[.[.[.-X-X2X;X=X=X-X=X-X-X-X=X=X[./.^.E.n.z.4.%.! z u o . . . . . . . X 9 P u./.Q.z.k.V . . X                                                                                                                                                                                                                                                                                                                     ",
"                                                                                                                      + . . . . # N F C C V x N y = : : # # . . . O O # # # # O O . . . . . . . . . . $ $ $ # # # # # # # # o o # + + + # # # # o = 2 4 i i i i i i : o o o 0 C $.$.E a 0 0 = o o : 4 q h j h h V V x z x V C C S S C C z z x x j j j N N V Z C S D ] ` ` ' ' ! ! C C D D D Z Z j 3 > y z c W +.>.5.5.5.w.r.r.5.0.l.-.C o . . . . X 0 ^ =.4.5.5.8.w.u.y.E.^.W.W.D.e.e.e.D.W.{.}.}.{.`._.).m.&.q . . . . . . . . . . . . . . . . . . . $ $ # # # $ $ + . . . . . + : y i j / W ^ ) ) +.:.4.5.5.5.w.A.~.[.[.(.oXoX-X-X-X=X=X=X-X-X-X=X=X[./.W.T.n.v.0.%.^ C f 3 o . . . . . . . X 8 _ E.Q.c.=.z X . . &                                                                                                                                                                                                                                                                                                                   ",
"                                                                                                                    + . . . . . : j V V z h h N i > o # + . . . . . O + # # # @ # @ . . . . . # . . # # . . # # # 2 2 2 # # # + + + + + # # # # # = 2 4 i i i i i 3 o + + . X u ` ' ! z q 0 0 0 X > V V x C c k C E E E E E ~ ~ ~ ~ D C x C V x x V V N V Z Z Z D ! ] ' ' ~ ! ! ` S ! ` ~ ! Z j i y = 0 ~ ) _ 4.r.w.5.5.r.t.t.q.&.) ' j . . . . + = f $.&.O.4.5.,.8.u.p.W.]./.W.T.T.D.e.Q.|.|.<X<X{.|.`.).N.o., . . . . . . . . . . . . . . . O . . . . . . . . + + . . . . . + = > h V C W Q ) O.+.+.:.>.5.5.5.w.y.R.(.[.(.(.[.=X-X-X=X=X-X;X-X=X=X=X[.].W.Q.v.c.0.&.^ ! F N 3 . . . . . . . . X J v.Q.v.4.k X . . X ;                                                                                                                                                                                                                                                                                                                 ",
"                                                                                                                    + . . . . = 3 i h f p p y y 2 o . + . . . + . . . # # + + . # @ # . @ $ @ @ . + # # . . # # 2 2 2 2 # # # + + + + + # # # o = = 3 4 i i m i 4 = o + + . . o 3 N C x e 8 * u k x ^ ^ W L J J E ^ ^ ^ ^ / ^ ^ ^ ~ ~ ! S S C V x N N V Z Z Z C S D ! ] ' ` ! S S S D ` D Z V i > y u z ~ o.+.:.5.w.8.w.r.t.c.6.^ C V y . . . . + = f ^ o.O.>.>.,.w.e.D./.[.-X].R.R.T.e.D.|.}.<X<X{.].`._.m.$.0 X . . . . . . . . . . . . . . . . . . . . . . . . . . . . . + : i h V S E ^ ) +.O.O.+.:.>.5.5.5.i.e.D.R.~.(.(.(.oX-X-X-X=X=X[.[.(.[.]././.R.T.v.t.0.=.*.^ F N 3 o . . . . . . . X r 5.T.Q.v.o.> . . . %                                                                                                                                                                                                                                                                                                                 ",
"                                                                                                                  = . . . . . : 4 g u p y y 3 3 = + . + . + + . O . . + O O . . . . @ . $ . @ @ @ # # # . @ # # 2 7 2 # # # # + + + + + # # # # : 2 3 i i g m i : = o + . . . . . = u k w e r J ) o.) ( ( ( ( o.%.$.%.%.$.) ^ ^ ^ ~ ~ ~ E S C V x N N V Z Z Z S D ! ~ ] ! ! D C V S D D Z N g y > > u C ^ o.X.>.,.w.r.r.y.c.c.=.! V j : . . . . . = u E Q o.+.>.8.u.e.D./.[.-X=X[./.R.Z.D.].}.1X}.|.]._._.N.$.> . . . . . . . . . . . . . . . . . . . . . . . . . . . . . . = y V D ! / Q ) o.O.O.O.:.:.>.5.5.5.5.w.e.T.W.|.[.[.[.[.[.].(./.R.R.R.R.R.R.T.T.n.c.l.9.=.^ C z h i 3 + . . . . O . X * ( t.y.v.z.C o . . X                                                                                                                                                                                                                                                                                                                 ",
"                                                                                                                = o . . . . $ : 4 g u y 4 3 > = # + . . + + . . . + # # O . . . . . @ @ . @ @ @ @ # . . # # # # # # # # # . O + + . . + # o o 1 2 3 4 i m g i 3 = = + X . . . . . . > z E ( %.7.5.>.<.:.O.:.4.5.6.6.&.%.o.) ^ Q W W ~ ! S S C V x V V V Z Z C F E ! ! ! D S C D D D D Z j g 4 > > > u / o.+.X.>.2.u.u.y.v.c.z.=.S V g # . . . . . = 0 c W ( +.>.w.e.A.D.!.[.2X4X5X2X(.R.R.(.-X&X|.].^.W.).m.^ * . . . . . . . . . . . . . . . . . . . . . . . . . . . . . $ : h C ~ ~ W ) o.O.O.O.O.O.:.>.4.5.5.5.8.u.T./.|.|./.R.D.p.e.p.p.p.p.p.D.e.e.e.y.r.t.q.%.^ k 0 , y i y = . . . . . . . ; K 5.t.t.c.$., X % X                                                                                                                                                                                                                                                                                                                 ",
"                                                                                                                o . . . . . o 2 4 i y 4 3 : = # + . . . . + + . . # . # . . @ . . @ @ # . # # # # # # # # # # # # # # # # O . . . . . $ # # = 2 3 4 i g m g i : o o . . . . . . . . X k ^ 4.t.t.w.2.w.y.t.8.8.0.5.9.5.4.O.) ( Q W W / E S S C V V V Z V C C C F D S S S F V V D ` D D Z g 3 : > q q c $.%.>.,.2.e.e.e.y.t.t.l.&.S j 4 $ . . . # o = & * e c ( +.i.e.D.!.(.(.2X6X6X5X-X[.oX-X-X[.]./.R.T.n.c.E & . . . . . . . . . . . . . . . . . . . . . . . . . . . . . # > j S ~ / W ) ) O.O.O.O.O.:.:.4.5.5.8.r.u.y.T.W.^.R.p.2.,.,.2.2.w.u.y.y.y.e.u.w.8.q.O.Q d , ; & & > > = o + . . . . . X e ) 8.8.c.=.h % = o                                                                                                                                                                                                                                                                                                                 ",
"                                                                                                              X . . . . . . # 2 3 4 3 : = o # + . . + . O . . . . . @ @ . . @ . . @ . . . . @ # . @ @ # # # # # # . . . . . . . . . + # # = 2 2 6 i i m m i 4 = + + . . . . . . . . . & J 4.5.,.2.u.e.D.y.r.8.q.q.5.5.&.+._ ( Q W E E E E S C C C C C Z C C C F S S S S C V V D D D C j 3 : > f f k c o.4.8.r.e.e.e.e.y.r.q.6.$.c > o X . : i i = o X X ; e W X.<.e.R.(.[.(.-X5X6X6X5X;X=X-X-X|./.W.R.D.t.l.c & . . . . . . . . . . . . . . . . . . . . . . . . . . . . + : y x ! ^ / Q ) ) ) ) O.O.X.O.:.:.5.5.r.r.u.y.y.p.e.e.p.w. . .<.,.i.w.u.u.u.w.5.,.5.:.( L w ; & & & > 3 - & o X X . . . X & r P X.q.k.x X X X                                                                                                                                                                                                                                                                                                                 ",
"                                                                                                              o . . . . . . . # 2 2 = o # $ + . O O + . . . . . . . @ @ @ O @ . . . . . . . O # @ $ @ # # # # @ . . . . . . . . . . # # = 2 2 3 4 i m m i i : + + + . . . . . . . . . X k $.O.<.2.e.e.u.w.5.8.r.5.4.4.O.o._ ( Q W E E E E S S C C C C Z C C C F S D S C C C F F C V z y > > p V C v J O.5.8.u.e.e.e.y.y.r.4.%.' u X X . X u C u = . . . % 8 J ( U e.F.!.[.oX4X6X6XiXiX5X;X-X-X[./.W.R.D.t.9.x * . . . . . . . . . . . . . . . . . . . . . . . . . . . . + : f V ! ^ ^ ( ( _ ) ) X.X.X.X.+.:.4.5.8.w.w.u.u.e.w.w.u.w.<. .<.,.8.8.r.u.r.8.,.>.:.U L J v q , - - > y > & & X X X X X X X ; t U 4.=.x X . X                                                                                                                                                                                                                                                                                                                 ",
"                                                                                                              o . . . . . . . # # # $ . + + . . . O + . . . # # @ @ @ @ @ . . . . # # # . . . # @ # # # # # # $ . . . . . . . + + + o = 2 2 2 3 4 g m m i 4 = + + . . . . . . . . . . . = u J a.,.2.u.w.,.<.5.0.5.4.O.+._ ( ( Q Q W / / E E S F C V V V Z C C F S S C C C F F F C x u 0 0 u C ~ E J L :.8.u.e.e.e.y.y.t.5.+.^ S * X . . * c ~ z & . . . X % u K U 2.A./.oX;X5X6X6XiXiX5X2X2X-X[.].~.R.T.t.4.x > . . . . . . . . . . . . . . . . . . . . . . . . . . . . o > j C ~ ^ Q ( ( _ _ _ _ _ X.X.O.O.:.4.5.8.8.w.8.r.8.i.8.i.>.X.X.>.8.8.5.,.,.:.:.:._ U ( ) W k w u p u u p y - & & X X X . X % r I +.o.f X . X                                                                                                                                                                                                                                                                                                                 ",
"                                                                                                              o . . . . . . . . . . . . . . . . . . + . . . @ # @ @ @ # . . . . @ $ # # . . # # @ # # # # # . . . . . . . . . . + # o 2 2 3 2 5 5 m M m 4 2 + + . . . . . . . . . . . . . . X e H U i.y.,.,.5.5.4.O.+.+._ ( ( ( ^ ^ ^ / E E S F C x x V V C C C C C V C S C D F C V h q u c E Q L P _ >.w.u.e.e.2.w.y.8.X.Q c u % X . % k ' #.C & . . . . . * r P ,.A.(.oX;X5X5X5X6X5X4X4X2X-X[././.R.T.t.O.k > . . . . . . . . . . . . . . . . . . . . . . . . . . . o > u x c ! / Q Q ( _ _ _ _ _ _ _ _ _ +.O.:.4.4.4.>.>.+.X.X.X.a.U U X.X.X._ _ U _ X.X.X.+.4.9.&.^ C C C C C k u u 0 > - & X . . X e I ( E , . . X 0                                                                                                                                                                                                                                                                                                               ",
"                                                                                                                + . . . . . . . . . . . . . . . . . # # @ O O # @ # . . . . . . . . . # . . # # # # # # # # . . . . . . . . . . . # o 2 2 3 6 5 5 m m m 3 o . . . . . . . . . . . . . . . . . X ; I y.Q.T.y.8.>.>.>.O.+._ ( o.o.o.o.^ ~ ~ S S D S C V V V V C C C V C S S C D C V z z k c E Q O._ _ :.,.w.u.e.e.w.u.y.8.+.v f * & X & q ~ -.-.~ & . . . . . X * K >.T.[.1X4X5X5X4X5X5X4X4X;X-X[.(./.!.T.0.) x & . . . . . . . . . . . . . O O . O . . . . . . . . . . = > h x C ! E W Q Q ( ( ( ( ( ( ( ( ( Q Q ( ) ) ) _ K K K I I I K I I P U U U _ <.:.:.>.O.q.0.=.$.^ ^ ~ ' ' ! x C V k h p & X . X e L Q E q X X X >                                                                                                                                                                                                                                                                                                               ",
"                                                                                                                o . . . . . . . . . . . . . . . . . . . # # . @ @ . . . . . . . . . . . . . # # # # # # # # . . . . . . . . . . + o = 3 3 3 6 5 4 5 5 2 # # . . . . . . . . . . . . . . . . . . % L v.`.W.Q.t.8.5.>.>.+._ ( ) o.o./ / ^ ! C C D S C C V V C C C C C F D F F F z h h x E W ) ( _ >.5.8.u.w.e.D.e.w.r.c.q.4.k , X & & 0 v o.&.&.^ = . . . . . . X e _ r.E.1X4X5X5X;X;X4X5X5X2X-X[.(.(.!.T.0.$.C = . . . . . . . . . . . . . . . . . . . . . . . . . . . o - h V S E E W W L W W P P P P P L L L L J L J J v d d v v K K K I P _ _ O.:.5.r.y.n.n.v.m.v.%.W J W W [ $.%.^ E ! R C j - . . X e E Q ~ C - X X *                                                                                                                                                                                                                                                                                                               ",
"                                                                                                                o . . . . . . . . . . . . . . . . . . $ @ . . . . . . . # . . . . . . . . # # # # # # @ # # . . . . . . . . . # # # 2 2 2 3 6 6 3 6 2 # # . . . . . . . . . . . . . . . . . . . X r q.`.`.`.Q.u.,.>.>.>.+.( Q Q W L C E E c C S S F F F C C C C C C F D D F F N h f C ^ ) %.:.>.w.r.y.D.D.e.y.y.i.8.c.6.*.x & & * 9 k J O.4.4.W * . . . . . . X ; l ) v.oX4X5X5X>X;X4X5X4X2X;X[.!.(./.E.z.*.x o . . . . . . . . . . # # # # . . . . . . . . . . . . X & - h C S L W W L L L L J J J J J c c c v k k k k d r r d K I I U X.>.8.t.n.T.W.{.}.{.}.{.}.`.r._ K K L ) ) %.[ ^ ~ E E V > X . X 0 E / ^ ^ z % X *                                                                                                                                                                                                                                                                                                               ",
"                                                                                                                $ X . . . . . . . . . . . . . . . . # # O . . . . . . . # . . . . . . O . # # # # # # . # # . . . . . . . . . # = 2 2 3 3 2 2 2 2 2 # # . . . . . . . . . . . . . . . . . . . . . % L ).|._.T.w.<.,.8.q.4.o.W W E E E L v c S S ! ! D D S D S S C C V F C Z D C x C W $.O.5.t.n.T.T.T.Q.T.y.y.t.8.5.4.^ x q X & * e c P o.%.:.Q 0 . . . . . . . X ; a 7.].2X5X4X2X;X2X4X4X2X;X[.!.(.W.E.l.~ y . . . . . . . . . . # # # # # . . . O . . . . . . . . + = 0 j C S E E E E c c c c c v v v k k k w e 9 e r d H H I >.8.8.y.Q.W.].|.&X=X;X;X-X=X-X1X1X-X].n.8.>.5.4.O.%.$.^ W E R x p o . X > S ^ $.*.' p * % *                                                                                                                                                                                                                                                                                                             ",
"                                                                                                                  X . . . . . . . . . . . . . . . . # # . . . . # # # O . . . . . . . @ . # # # # @ . . O O . . . . . . . . . # 2 6 6 6 3 3 2 2 2 # # . . . . . . . . . . . . . . . . . . . . . . . & k ( :.,.i.w.y.p.t.>.+.Q ( ) ) ^ / E ^ ^ ^ ~ ~ ! ! ! ~ ! S S F F C C x x S ' ) ) O.O.t.E._.W.Q.W.W.T.y.r.t.0.&.^ x > * & q k d L Q +.O.:.o.0 . . . . . . . . X 0 L c.}.1X2X-X[.oX-X2X2X-X[././.R.E.B.@.> . . . . . O . . . @ # # # # # # # $ . . . . . . . . . . o > u x x c R E C c c c z k k k k r e e e e e t H U 2.e.T./.[.[.[.&X=X-X;X;X;X;X;X;X;X;X2X-X-X&X|.^.R.Q.t.5.+.+.W K L J x f & . . = c ^ o.*.*.D > X X                                                                                                                                                                                                                                                                                                             ",
"                                                                                                                    X X + X . . . . . . . . . . . . . . . . . . # # # O O @ . . . . . @ # # # $ . . . . . . . . . . . . . + # # 2 5 6 6 3 2 2 2 # # # . . . . . . . . . . . . . . . . . . . . . . . . X * v X.w.Q.W.W.E.8.X.( ) %.$.) Q Q ) o.^ ^ ~ ~ ~ ~ ~ ~ ! S F C V V x x ~ -.%.o.X.5.n.`.`.W.W.W.Q.v.t.r.z.l.) z > * : y V ! L Q ( _ O.4.o.p . . . . . . . . . X w 5.{.}.[./.[.(.[.1X-X=X[././.W.m.B.@.> . . . . . . . . . . # # # # # # # @ . . . . . . . . . . $ = 3 u f z V C x z x z f w w w r r r r r r K <.w.F.(.=X;X;X;X;X:X;X;X:X>X:X:X:X>X>X>X;X-X=X=X=X[.[.].^.Q.p.8.8.+.P L L E x = . . = C ~ ^ $.$.! > . X                                                                                                                                                                                                                                                                                                             ",
"                                                                                                                          o $ . . . + . . . . . O . . . . . . . + + + # # # . . . @ # # . # . . . . . . . . . . . . . . + # # 2 5 6 6 2 2 2 = # # # . . . . . . . . . . . . . . . . . . . . . . . . . . & u $.v.E.|.|.`.w._ X.%.O.O._ ( ( ) o.$.' ^ ^ ~ ~ ~ ' ~ D C C x x C E ^ &.%.+.X.8.n.`.]./.W.E.n.v.z.q.9.k.C * X X = j D ^ ) ) ( _ :.:.) u . . . . . . . . . . * J v.y.T.Q./.(.(.[.[.[.[.(./.W.m.z.~ : . . . . . . . . . . # # # # # # # # . . . . O . . . . . . $ & > p h z h u u u u e 0 e e r d K I U >.t.W.[.-X;X;X;X:X>X>X>X>X>X>X:X:X:X:X>X>X>X;X=X[.[.=X=X[.[././.R.p.p.8.+.+.( ^ C , . . o z ! o.*.$.~ y . X                                                                                                                                                                                                                                                                                                             ",
"                                                                                                                                      + . . . . . . . . . . . . . . . . . . # @ @ @ @ # . . . . . . . . . . . . . . . . # # 2 2 4 5 2 2 : # # # # . O . . . . . . . . . . . . . . . . . . . . . . . . . . = k P >.p.Q.Q.w.<.8.n.r.8.O.O.O.o.$.%.$.^ ^ ^ ^ ~ ^ ~ E C x x S ~ ^ $.4.O.X.X.8.Q.].|.].T.y.u.v.0.&.) ` u X X X > C ^ $.%.O.( _ :.+.W p . . . . . . . . . . X & d I 8.T.~.(.~.(./.(./.~.W.E.m.9.~ > . . . . . . . . . . . @ # # # # # # . . . . O . O . . . . . + o = > u p > , 0 0 9 9 e d K _ >.8.y.Q./.[.;X4X>X:X;X>X>X>X>X>X5X5X:X;X:X:X>X5X4X;X=X[.(.(.(.(.(.^.^.R.e.p.t.8.8.4.^ C 0 X . X > c o.%.$.#.h . . &                                                                                                                                                                                                                                                                                                           ",
"                                                                                                                                        $ . . . . . . . . . . . . . . . . . . $ . . # . . . . . . . . . . . . . . . . # # 1 2 3 3 3 2 1 # # + . . . . . O . . . . . . . . . . . . . . . . . . . . . . . . . X & 9 +.t.y.w.,.p.`.].W.y.r.q.4.%.%.o.^ ^ ^ @.^ ^ ^ E v k z / $.%.&.4.4.>.>.,.y.`.].W.e.u.5.r.0.) C h : X X * f / $.%.4.>.O.X.X.P l , . . . . . . . . . . . X & d >.v.T.R.~.!.~./.~.R.W.E.m.z.$.0 . . . . . . . . . . . . # # # # # # . . . . O O O . . . . . . . X & = * & % * * 9 e d I U 8.Q.Q.^./.!.(.=X4X5X:X;X>X>X>X5X5X5X5X:X;X,X:X:X5X5X-X(.!./.].|.^.W.Q.Q.Q.y.p.r.5.8.4.o.S 0 . . . & k ^ $.$.*.j X . &                                                                                                                                                                                                                                                                                                           ",
"                                                                                                                                        $ . . . . . . . . . . . . . . . . . . . . . . . O . . . . . . . . . . . . . O 2 2 2 2 2 2 2 = o # + . . . . . . . . . . . . . . . . . . . . . . . . . . . . . . . . . X , Q 5.<. .2.D.R./.].^.E.n.q.4.O.o.) ) ) $.@.' ' / J c L ) %.&.4.4.5.8.>.>.8.n.T.p.,.5.5.0.$.c k = . . X 0 v E O.4.>.4.>.X._ L w & . . . . . . . . . . . . X ; l _ q.y.R.W.W.].W.T.Q.E.m.M.-.y . . . . . . . . . . . . # # # @ @ # . . . . O . O . . . . . . . X X X X X % * e r J ( :.8.y.T.R.R.F.F.F.!.oX;X;X;X:X>X>X>X5X>X>X:X;X=X;X;X;X2X-X/.p.t.n.c.5.+.+.+.>.>.8.>.4.4.&.o.! > . . . > x S ^ $.-.V o . -                                                                                                                                                                                                                                                                                                           ",
"                                                                                                                                        $ . . . . . . . . . . . . . . . . . . . . . . . . . . . . . . O . . . . . . # 2 2 2 2 2 2 = o + . . . . . . . . . . . . . . . . . . . . . . . . . . . O . . . . . . . . X 0 J _ X.i.D.R.(.[.]./.E.c.5.O.O.o.o.) o.^ ^ ) ^ Q Q o.%.%.4.5.5.8.8.:.>.8.,.,.i.>.5.4.O.R u > X . . & v / W O.4.>.>.4.O.%.^ q . . . . . . . . . . . . . . . & e P 5.n.E.E.E.E.Q.T.n.m.c.*.0 . . . O . . . . . . $ $ $ $ # $ . . . . . . . . . O O . . . . X X X X X % 0 a c L +.5.8.u.u.D.F.F.G.G.G.G.G.(.oX=X:X:X>X>X>X>X>X;X=X[.&X1X<X<X`.q.K w q q , * , 9 0 e k v L Q Q ^ ! > . . . > x c ~ $.-.F & X ,                                                                                                                                                                                                                                                                                                           ",
"                                                                                                                                        + . . . . . . . . . . . . . . . . . . . . . . . . . . . . . . O . . . . . . # 2 2 2 2 2 = # # . . . . . . . . . . . . . . . . . . . . . . . . . . . O O . . . . . . . . . X * c &.8.p././.[.|.].W.n.8.5.&.%.o.o.o.o.O.o.o.O.%.4.4.&.4.4.5.8.q.>.:.5.:.:.,.,.8.4.J 0 & X X X - x ^ ) O.:.,.>.>.5.%.=.' > . . . . . . . . . . . . . . . . X , J O.l.v.v.v.v.v.v.v.z.[ 0 . . . . O . . . . . $ $ $ . $ $ . . . . . . . . . O O . . . X X X % % & u R [ O.:.5.5.8.w.3.e.D.F.D.G.F.G.G.G.H.(.;X:X:X>X;X;X;X=X[.W.m.l.*.j 3 & X X . . . . . . . X X % & & 9 f j o . . . > j x ~ $.*.D * X >                                                                                                                                                                                                                                                                                                           ",
"                                                                                                                                        . . . . . . . . . . . . . . . . . . . . . . . . . O . . . . . O O O . . . # 2 2 2 2 = o # + . . . . . . . . . . . . . . . . . . . . . . . . . . . . . . . . . . . . . . . . X , ^ 5.c.Q.R.W././.R.p.t.q.5.4.>.O.+.O.X.O.O.O.4.9.6.>.5.5.5.q.t.8.:.>.:.>.8.q.0.9.E 9 X X . & c $.%.%.4.4.4.,.8.q.&.$.C o . . . . . . . . . . . . . . . . . X & 9 k L ) O.5.r.v.c.=.' y . . . . . . . . . . $ . . . $ $ . . . . . . . . . . . . . . X X X * q k / &.0.0.0.8.8.w.u.3.e.D.D.Z.D.G.G.D.G.F.!.=X:X:X;X;X;X2X&XE.( u - X . . . . . . . . . . . . . . . . . . X o . . . . : j x S @.*.! = . y                                                                                                                                                                                                                                                                                                           ",
"                                                                                                                                        . . . . . . . . . . . . . . . + . + + . +           . . . . . . . . . + + # 2 2 1 # # . . . . . . . . . . . . . . . . . . . . . . . . . . . . . . . . . . . . . . . . . . . . X q J +.5.u.Q.W.R.T.D.y.y.r.8.q.r.r.8.5.5.8.q.0.0.q.5.6.6.8.q.t.q.>.,.,.5.r.t.0.6.^ k = X X u W $.=.6.5.q.0.w.r.v.9.~ u . . . . . . . . . . . . . . . . . . . . . % ; 0 v ^ &.k.=.^ E , . . . . . . . . . . + $ . . $ $ . . . . . . . . . . . . . . X & * q c ^ %.0.r.r.w.w.w.w.e.3.e.e.Z.Z.D.D.D.D.G.F.!.oX;X;X-X=X&X{.E.Q & X X . . . . . . . . . . . . . . . . . . . . . . . . . o y u z ! #.D - . 0                                                                                                                                                                                                                                                                                                           ",
"                                                                                                                                        . . . . . . . . . . . . . $                           . . . . . . . . o = # 2 2 # . . . . . . . . . . . . . . . . . . . . . . . . . O . . . . . . . . . . . . . . . . . . . . O X & e P 8.n.T.e.D.D.D.y.y.t.t.t.y.v.E.Q.m.E.m.c.t.q.q.q.q.t.t.r.8.w.w.r.t.c.9.o.^ C u * 0 W [ &.6.6.0.z.c.r.t.m.x.` y . . . . . . . . . . . . . . . . . . . . . . . X > 0 h C V z u & . . . . . . . . . . + . . . $ $ $ . . . . . O . . . . . . X * 0 a J Q %.4.0.r.r.w.w.w.w.e.u.3.e.e.Z.D.D.D.D.D.F.!.(.(.[.].E.8.o.c * . . . . . . . . . . . . . . . . . . . . . . . . . . . . . & > u V @.F = . -                                                                                                                                                                                                                                                                                                           ",
"                                                                                                                                          + . . . . + o o X X                                 . . . . . . . . = 2 = # = # . . . . . . . . . . . . . . . . . . . . . . . . . . . . . . . . . . . . . . . . . . . . . . . . X ; v 9.c.t.t.y.n.T.T.y.y.r.w.e.y.T.W.W.`.`.n.t.q.q.q.0.t.t.t.t.y.y.v.y.r.) l c S h q v ) $.%.4.6.0.r.r.8.t.c.k.` 3 . . . . . . . . . . . . . . . . . . . . . . . . . . + = = & X X . . . . . . . . . . . . . . $ $ $ . . . . . O . . . . . . % u c E ^ ) O.4.8.t.y.w.w.w.w.w.2.e.e.e.e.e.D.D.D.T.D.T.T.p.,.P d * X X . . . . . . . . . . . . . + $ . . . . . . . . . . . . . . . . X y V ` V & . &                                                                                                                                                                                                                                                                                                           ",
"                                                                                                                                            . . + . o                                         . . . . . . . . # o + . + . . . . . . . . . . . . . . .         . . . O . . . . . . . . . O . . . . . . . . . . . . . . . . . X 9 E ^ 4.8.r.y.y.e.n.v.y.e.y.e.D.R./.|.].E.t.q.r.r.t.t.t.t.y.T.T.Q.n.q.( v ! D u u J ^ ) O.O.4.0.q.0.8.t.0.-.F o . . . . . . . . . . . . . . . . . . . . . . . . . . . . . . . . . . . . . . . . . . . . . . $ $ $ . . . . . . . . . . . X , z E ^ ) ( ) :.>.i.r.u.u.u.u.w.2.3.e.e.e.p.D.p.p.p.t.8.0.+.r ; X . . . . . . . . + + o o = = = = : : # # $ . . . . . . . . . . . . . o > h h y & . &                                                                                                                                                                                                                                                                                                           ",
"                                                                                                                                                                                              + . . . . . . + . . . . . . . . . . . . . . . +                     # . . . . . . . . . . O . . . . . . + # . . . . . . . . . . X & 0 L +.5.t.t.y.n.T.T.D.W././.].].].^.E.t.r.r.r.r.t.t.t.n.T.T.Q.E.t.O.E ~ D x v E Q ) ) O.:.0.0.8.8.0.9.-.Z o . . . . . . . . . . . . . . . . . . . . . . . . . . . . . . . . . . . . . . . . . . . . . . $ $ $ . . . . . . . . . . . o q v E Q ( P ( _ U :.,.w.u.u.u.w.w.e.e.e.e.T.p.y.t.8.>._ J k * X X . . . . . . . + = = > 3 i y y 3 4 y 4 3 : + . . . . . . . . . . . . X = : = = o . %                                                                                                                                                                                                                                                                                                           ",
"                                                                                                                                                                                                + . . . . . . . . . . . . . . . . . + $                           # O . . . . . . . . . O . . . . + + + $ . . . . . . . . . . . . o q v _ 5.8.u.u.y.T.W.1X3X2X1X[./.R.D.r.8.r.r.q.r.r.t.n.Q.Q.n.8.t.6.^ ! S S E W ( ) ) O.:.5.q.q.q.4.o.~ 4 . . . . . . . . . . . . . . . . . . . . . . . . . . . . . . . . . . . O O . . . . . . . . . . $ . . . . . . . . . . . . . & u c J L P P ( ( P X.>.,.8.w.w.u.u.y.y.u.u.u.>.+.O.Q l 0 & & X X X X X X . + + o > y u h u j V Z f u j j g 4 = . . . . . . . . . . . . . . X X X X . X                                                                                                                                                                                                                                                                                                           ",
"                                                                                                                                                                                                + . . . . . . . . . . . . . . . +                                 . . . . . . . . . . . . . . + + + + + $ $ . . . . . . . . . . . . X * r ( 4.8.u.y.Q.].3X2X2X2X[./.R.y.w.w.r.q.0.8.8.r.n.Q.Q.y.:.O.&./ k k S / Q ) ) _ X.+.4.q.q.9.$.E y + . . . . . . . . . . . . . . . . . . . . . . . . . . . . . . . . . . O O O . . . . . . . . . . . . $ . . . . . . . . . . X : f c J J P U ( U U X.:.,.8.r.r.r.t.t.y.t.8.i.X.L L q & X . . . . X + o % & - y p u k R ! C S S ~ x V V j f y > o $ . . . . . . . . . . . . . X X X X X                                                                                                                                                                                                                                                                                                           ",
"                                                                                                                                                                                                o . . . . . . . . . . . + o .                                   # . . . . . . . . . . . . . . # $ + $ $ $ $ . . . . . . . . . . . . . . & k W >.r.e.p./.-X;XoX(././.R.y.r.r.r.r.8.8.8.r.t.y.y.t.+.U J e 9 k ! ^ ) %.O.O.O.O.O.:.O.$.^ f X . . . . . . . . . . . . . . . . . . . . . . . . . . . . . . . . . . . . . . . . . . . . . . . . . $ $ . . . . . . . . . . o p z c v K P P P P U X.:.8.t.t.r.r.t.t.t.8.>.X.W c q & . . . . . . + % * - q u x v v J ^ ) ^ ^ ~ ^ ! E j f u 0 > : # $ . . . . . . . . . . . . . . X X X                                                                                                                                                                                                                                                                                                           ",
"                                                                                                                                                                                                + . . . . . . . . . + +                                       o . . . . . . . . . . . . . + $ # $ $ $ $ $ $ $ . . . . . . . . . . . . . . % u o.q.t.e.D.-X2XoX!.[.|.T.T.y.r.r.r.5.5.5.8.t.r.8.8.O.l 9 9 f v / ^ ) %.%.O.+.+.) ( Q E k > . . . . . . . . . . . . . . . . . . . . . . . . . . . . . . . . . . . . O . . . . . . . . . . . . . . . . . . . . . . . . X - f z c J J P P P P U U <.,.w.r.r.r.q.5.4.&.P d e , & X . . . . . . = p 0 u c c J J L Q ) o.$.o.$.$.W / v x k q 0 > = = $ . . . . . . . . . . . . . X X                                                                                                                                                                                                                                                                                                             ",
"                                                                                                                                                                                                + . . . . . . . +                                             # . . . . . . . . . . . + $ # # # $ $ $ $ $ . . . . . . . . . . . . . . . . . * S %.>.,.p.oX;XoX(.oX}.R.T.v.r.r.w.5.4.,.>.>.8.5.&./ 0 , 0 u c / ) $.$.o.o.o.o.) W R k * . . . . . . . . . . . . . . . . . . . . . . . . . . . . . . . . . . . . . . . . . . . . . . . . . . . . . . . . . . . . . . X y x v c J J P I P P U U X.>.8.8.q.q.&.o.W v 9 & % X . . . . . . . . : V k z J ^ W Q Q ) o.o.O.O.%.%.) Q J v k u u q > : # . . . . . . . . . . . . . X *                                                                                                                                                                                                                                                                                                             ",
"                                                                                                                                                                                                  . . . . . .                                               o + . . . . . . . . . . . # o o o # $ $ $ o + X . . . . . . . . . . . . . . . . X 3 f P a.e.(.oXoXoX[.].W.W.E.y.5.5.5.>.>.:.>.5.4.o.k * , q k c / $.$.$.o.) / E / E u & . . . . . . . . . . . . . . . . . . . . . . . . . . . . . . . . . . . . . . . . . . . . . . . . . . . . . . . . . . . . . . . - x ~ E c v K J I P I U _ X.:.8.+.O.&.^ c 0 % X . . . . . . . . . . X > C C c J O._ _ +.O.O.+.O.%.O.+.+.o.W J v f u u p 4 : $ . . . . . . . . . . . X -                                                                                                                                                                                                                                                                                                               ",
"                                                                                                                                                                                                    # +                                                     + . . . . . . . . . . + # # = = # o $ $ $ X $ + $ . . . . . . . . . . . . . . . . . o w U y./.[.oX1X].T.T.Q.W.y.<.<.<.:.5.4.0.0.%.^ q & > q k c / $.$.^ ^ E c w e q & . . . . . . . . . . . . . . . . . . . . . . . . . . . . . . . . . . . . . . . . . . . . . . . . . . . . . O . . . . . . . . . . y C ~ E J l d K I L P ( _ _ O.4.o.E x q & X . . . . . . . . . . . . X p C / ^ W O.%.>.+.+.O.O.+.O.O.+.+.%.Q E C k u u h g 3 # . . . . . . . . . . . *                                                                                                                                                                                                                                                                                                                 ",
"                                                                                                                                                                                                                                                          $ . . . . . . . . . . + o # = : : = # o $ $ X $ + $ X . . . . . . . . . . . . . . . . . & v t.E.^.|.}.W.D.e.A.y.r.,.<.<.5.0.0.0.0.$.c * , > q x J E ^ ^ W E v f q & X . . . . . . . . . . . . . . . . . . . . . . . . . . . . . . . . . . . . . . . . . . . . . . . . . . . . . . . . . . . . . . . . + 3 C E L J J K K L W W ) ( ( Q ^ ! q X X . . . . . . . . . . . . . + = u C ^ Q ( O.:.:.+.>.>.>.>.>.+.+.O.%.Q E c k k z h g 4 # . . . . . . . . . . o                                                                                                                                                                                                                                                                                                                   ",
"                                                                                                                                                                                                                                                          X . . . . . . . . + + o : : : : : = # $ $ $ o $ $ $ $ . . . . . . . . . . . . . . . . . X 0 ^ +.5.E.`.E.T.y.u.2.i.,.,.,.r.r.z.l.6.^ u & > q u v v E ^ E c k w 0 > o . . . . . . . . . . . . . . . . . . . . . . . . . . . . . . . . . . . . . . . . . . . . . . . . . . . . . . . . O . . . . . . . . . = z E L L L L L W W Q W E c k u > X . . . . . . . . . . . . . . + = > p E ) ( ( O.>.>.>.5.>.>.>.>.>.O.O.%.( W c f z V N g 4 : . . . . . . . . . . &                                                                                                                                                                                                                                                                                                                   ",
"                                                                                                                                                                                                                                                        o . . . . . . . . + # o # 2 2 : : = # # $ $ $ $ $ $ $ . . . . . . . . . . . . . . . . . . . X - 0 v O.v.T.T.e.1.2.2.1.2.y.v.c.c.l.) v u - 0 u f v k z S k f u > * o X . . . . . . . . . . . . . . . . . . . . . . . . . . . . . . . . . . . . . . . . . . . . . . . . . . . . . . . . O . . . . . . . . . o p v J W W W Q Q J E k > , & X . . . . . . . . . . . . . . . + = > 0 u ~ ^ ( _ +.4.>.>.8.8.5.5.>.>.>.O.O.o.Q E x x x x j g : . . . . . . . . . X                                                                                                                                                                                                                                                                                                                     ",
"                                                                                                                                                                                                                                                        . . . . . . . . . # = 2 2 2 : : : = # # $ $ $ o $ $ $ . . . . . . . . . . . . . . . . . . . . . X X ; r X.w.u.2.e.D.A.y.T.v.r.v.6.J 9 * 0 f k k c k w u j h p > = & $ . . . . . . . . . . . . . . . . . . . . . . . . . . . . . . . . . . . . . . . . . . . . . . . . . . . . . . . . . . . . . . . . . . + * q v / E E ^ E c u & . . . . . . . . . . . . . . . . # $ # = > y p k E ) o.O.>.5.8.8.t.q.8.5.>.>.4.4.O.O.o.^ E E C x j h > $ . . . . . . . . o                                                                                                                                                                                                                                                                                                                     ",
"                                                                                                                                                                                                                                                      + . . . . . . . . + # = 2 2 2 : : : = # # $ $ $ $ $ $ $ . . . . . . . . . . . . . . . . . . . . . . . X ; t I i.A.D.F.Q.R.Q.v.0.l.^ a * % q k c E R k q , y u y > = = o + . . . . . . . . . . . . . . . . . . . . . . . . . . . . . . . . . . . . . . . . . . . . . . . . . . . . . . . . . . . . . . . . . . X & 0 z C x E C z , X . . . . . . . . . . . X X X X $ = = > y y y u x R ) O.4.8.q.t.t.t.q.8.>.>.5.5.5.4.4.O.) Q ~ S V x f > $ . . . . . . . .                                                                                                                                                                                                                                                                                                                       ",
"                                                                                                                                                                                                                                                      . . . . . . . . . $ o 2 2 2 2 : : : = # $ $ $ $ $ $ $ o X + . . . . . . . . . . . . . . . . . . . . . . % 8 K >.e.R.R.T.T.Q.c.6./ u * ; ; e k C / E C x 0 & = > = o = o + . . . . . . . . . . . . . . . . . . . . . . . . . . . . . . . . . . . . . . . . . . . . . . . . . . . . . . . . . . . . . . . . . . . X * > p 0 V V > & . . . . . . . . . . . X = = = = & 3 > y u p p u z c ) &.8.q.r.t.c.c.0.5.>.>.>.5.8.8.5.&.o.^ W E c z f > # . . . . . . . +                                                                                                                                                                                                                                                                                                                       ",
"                                                                                                                                                                                                                                                    . . . . . . . . . . $ = 2 2 2 = = : : # $ $ $ $ $ $ $ $ $ $ $ $ $ + . . . . . . . . . . . . . . . . . . . X u o.4.y.T.T.T.n.r.6.^ u q * 0 r k c E C C E C y * o X . X + + . . . . . . . . . . . . . . . . . . . . . . . . . . . . . . . . . . . . . . . . . . . . . . . . . . . . . . . . . . . . . . . . . . . . . $ X + X : : + . . . . . . . . . . . . X - p p y y f f h h u u u w k ( 4.8.q.r.r.t.t.q.8.5.5.5.5.5.5.5.4.O.o.^ / C z u > $ . . . . . . .                                                                                                                                                                                                                                                                                                                         ",
"                                                                                                                                                                                                                                                    . . . . . . . . . . + o = 2 = 2 3 : : # $ $ $ $ $ $ $ $ $ $ # # # $ . . . . . . . . . . . O . . . . . . . . p ~ 6.c.t.8.t.t.4.*.E 0 & - h C c ~ ! c x C z 3 = $ X . . . . . . . . . . . . . . . . . . . . . . . . . . . . . . . . . . . . . . . . . . . . . . . . . . . . . . . . . . . . . . . . . . . . . . . . . . . . . . . . . . . . . . . . . . . X X > h j f z f z z z h k u e w Q 5.q.r.r.r.t.t.t.t.8.8.8.8.8.5.5.>.>.O.) ^ E c u > o . . . . . . .                                                                                                                                                                                                                                                                                                                         ",
"                                                                                                                                                                                                                                                  $ . . . . . . . . . . + o o = : : : : = o $ $ + + $ $ $ $ o o o # $ $ + + + . . . . . . . . O . . . . . . . . X > R =.) Q &.%.^ ~ z , * > z S R ~ D V z u > = $ . . . . . . . . . . . . . . . . . . . . . . . . . . . . . . . . . . . . . . # #                   $ . . . . . . . . . . . + . . . . . . . . . . . . . . . . . . . . . . . . . . . . . . . . & p u z k x u z z z k k u u w W 6.r.t.r.r.t.t.t.t.8.8.8.8.8.>.>.>.4.O.O.$.^ E z > o . . . . . . X                                                                                                                                                                                                                                                                                                                         ",
"                                                                                                                                                                                                                                                  $ . . . . . . . . . + # # o o & * = = # $ $ $ + + + # o # o o o o $ $ $ $ $ $ + . . . . . . O . . . . . . . . . . , C C C / C k u * X = 4 V D ! D V u 0 = o + . . . . . . . . . . . . . . . . . . . . . . . . . . . . . . . . . . . . . . #                                             o o $ X . $ . . . . . . . . . . . . . . . . . . . . . . . . . . . X y x k c k a k k v z k k u u q R 4.0.y.t.u.u.u.t.y.y.t.w.i.i.>.>.>.>.:.4.&.) ^ R z > + . . . . o                                                                                                                                                                                                                                                                                                                           ",
"                                                                                                                                                                                                                                                  + . . . . . . . . + # o o o o & = = = & $ $ $ + + # # o o o = # o # $ $ $ $ $ # # + . . . . O . . . . . . . . . . . & p y y y & X X . o 4 j S ` S u = X X . . . . . . . . . . . . . . . . . . . . . . . . . . . . . . . . . . + + + .                                                             # o o . . . . . . . . . . . . . . . . . . . . . . . . . X u ~ / / c a a a v v z x k u u c $.0.v.y.y.u.u.u.y.y.y.t.w.8.i.,.>.>.>.5.5.%.$.^ E N > X . . . -                                                                                                                                                                                                                                                                                                                           ",
"                                                                                                                                                                                                                                                = + . . . . . . . . # # o o o & = > = = o o $ $ $ $ # o o o o = = o o o $ $ o o o o # + . . . . . . . . . . . . . . . + + + . + X . . . . = 5 N D M : X . . . . . . . . . . . . . . . . . . . O . @ O . + + . . . . # o                                                                                     + . . . . . . . . . . . . . . . . . . . . . . . . q ^ o.$.~ C k k v c z x x u u c ) 5.y.y.p.y.y.t.y.y.e.u.w.i.8.w.w.8.r.8.5.4.4.o.^ E u X X . X >                                                                                                                                                                                                                                                                                                                           ",
"                                                                                                                                                                                                                                                # . . . . . . . . O # o o = = = & = = & o o $ $ + $ # o o o = = : = o o o $ o o o o # # $ + . . . . . . . . . . . . . . . . . . . . . . . . # 2 4 = . . . . . . . . . . . . . . . . . . . . . @                                                                                                               $ + . . . . . . . . . . . . . . . . . . . . . X > ~ ^ [ ) E c v v c c v c k a v Q 4.t.y.n.y.y.u.y.y.e.u.u.w.w.u.u.u.u.r.8.>.5.O.) ~ C p > X X -                                                                                                                                                                                                                                                                                                                           ",
"                                                                                                                                                                                                                                              o $ . . . . . . . . + # # = = = = = = = & & o $ + + $ o # = = = = : = o o o $ o o o o # o o # # # . . . . . . . . . . . . . . . . . . . . . . . . . . . . . . . . . O . . . . .                                                                                                                                   X . . . . . . . . . . . . . . . . . . . . . . : C / $.-./ J J c v c R c v v r J O.0.y.T.y.t.w.y.y.e.p.p.p.y.e.e.p.y.e.t.8.8.4.%.$.' S k , * *                                                                                                                                                                                                                                                                                                                           ",
"                                                                                                                                                                                                                                            + . . . . . . . . . . . # # = = = = = = = : & o o + + $ o # = = = = = = o o o $ o o # o # # o o # # + . . . . . . . . . . . . . . . . . . . . . . . . . . . . . . . . . . #                                                                                                                                           X X . . . . . . . . . . . . . . . . . . . . & f c ' *.) / W J c c E c v v w d ( 5.c.m.v.y.u.y.e.e.T.T.T.T.R.R.R.W.W.R.T.y.q.9.=.*./ c q 9 * q                                                                                                                                                                                                                                                                                                                         ",
"                                                                                                                                                                                                                                            # . . . . . . . . . . + # o o = = > > > = : = & $ $ X + $ # = = = = = = = o o $ $ o o o # # o o # # + . . . . . . . . . . . . . . . . . . . . . . . . . . . . . . . . .                                                                                                                                                 = + . . . . . . . . . . . . . . . . . . . X & k ^ ^ ) ^ ^ W L v c v k d e e v ) q.m.t.y.y.y.e.e.D.R.R.R.!.[.[.=X[./.].W.T.v.0.6.) E c r 8 0                                                                                                                                                                                                                                                                                                                         ",
"                                                                                                                                                                                                                                          . . . . . . . . . . . . . # # o o = = > = = & & o o $ . + $ # = = = = = = = = o $ $ o o o # # # # # = # + . . . . . . . . . . . . . . . . . . . . . . . . . . . . . . .                                                                                                                                                     o . . . . . . . . . . . . . . . . . . . X * j C E ^ ) ) W J J J c v k e e v J %.0.0.r.y.e.D.D.D.R.R.R.!.[.[.-X=XoX-XoX[.].n.v.9.&.) J 8 9                                                                                                                                                                                                                                                                                                                         ",
"                                                                                                                                                                                                                                      o . . . . . . . . . + + + # + + . + + o = = = = o o o $ $ X X o = = = = = = = = = o $ $ o o o # # # o # = # # . . . . . . . . . . . . . . . . . . . . . . . . . . . . . .                                                                                                                                                         + + $ $ $ $ . . . . . . . . . . . . . X : j h c / ) ) Q L L L J c k e e w d J O.0.r.y.y.D.Z.F./.[.[.(.(.[.=X;X;X;X=X-X}.W.n.c.r.7.W r 0 k                                                                                                                                                                                                                                                                                                                       ",
"                                                                                                                                                                                                                                    3 o . . . . . . . . + $ o o # $ + . . X + o & & o o o o $ $ $ o # = = = : > = = = = o o o o = = # # o o o = # # $ . . . . . . . . . . . . . . . . . . . . . . . . . . . .                                                                                                                                                                     # $ $ $ . . . . . . . . . . . X > q k E [ ) ) / W E L J l w w 8 0 d l ( 5.r.t.D.D.R.!.[.=X[.(.[.[.;X;X,X=X=XoX/.W.Q.v.0.:.W w q u                                                                                                                                                                                                                                                                                                                     ",
"                                                                                                                                                                                                                                  $ . . . . . . . X X X o o = = o o X X X X X X + $ $ $ $ $ $ $ $ # : = : : : : = = = : o & & * = = # # # o o o # # $ @ . . . . . . . . . . . . . . . . . . . . . . . . . .                                                                                                                                                                           # o . . . . . . . . . . . . = > f E [ ^ $.) ) Q W W L v r 8 ; 9 e t I +.r.T.!./.!.(.=XoX(.(.(.=X;X.X=X;XoX[./.T.E.n.q.%.u * > u                                                                                                                                                                                                                                                                                                                   ",
"                                                                                                                                                                                                                              o + . . . . . . . . X o o & > > > > & X X X X X . X X . . X X $ $ $ # o = : : : : = = = & & & * = : : = # # o # # # # # @ . . . . . . . . . . . . . . . . . . . . . . . . .                                                                                                                                                                               # + . . . . . . . . . . . . * 0 k / / ^ %.o.) ) ( Q J d 9 ; ; * ; 8 d >.D.!./.(..XoXoX(.(.(.[.[..X=X=XoXoX/.W.E.E.v.o.k * X = >                                                                                                                                                                                                                                                                                                                 ",
"                                                                                                                                                                                                                            o . . . . . . . . . X o * = : 3 > > > > & X + X X . X . . . . . . $ $ $ $ o : = = : = = = o & * * * : : = # o $ $ . . . . . . . . . . . . . . . . . . . . . O . . . . # #                                                                                                                                                                                     + . . . . . . . . . . . . X X , x E W 6.%.O.o._ ( L v u - * * ; % * P t.R.!.(..X.X,X.X!.G.!.(.(.(.[./.W.W.y.,.r.6.J k > X o X >                                                                                                                                                                                                                                                                                                               ",
"                                                                                                                                                                                                                          # + . . . . . . . . $ $ & : > 3 4 3 y u q > * o + X . . . . . . . . X $ $ $ # = = = = = = & o & : : : > : = # o $ $ . . . . . . . . . . . . . . . . . . . . . $ # $ $                                                                                                                                                                                           $ . . . . . . . . . . . . . . * z c E =.4.%.O.O.o./ E C h u 0 * * 8 K <.A.F.(..X.XoX,X(.G.F.R./.R.W.t.<._ P K P Q ^ E x > X X & g                                         u 0 p 3 - 3 - & & X X X                                                                                                                                                                                                                                             ",
"                                                                                                                                                                                                                        o . . . . . . . . . + $ o = : 3 y q q u f u 0 > > o X . X . . . . . . . . . . $ o = = = = = o # : : > > > : = # o $ $ . . . . . . . . . . . . . . . . . . . . .                                                                                                                                                                                                   o . . . . . . . . . . . . . . o 0 q v ) &.4.4.5.&.o.^ ! V u q 9 8 e K _ u.e.F.(.oX=X;X-X[.T.D.p.w.5.( K t t K d W $.Q J w * & X & - >                       k z k u a p - * * ; % X & & % % % X ; u                                                                                                                                                                                                                                           ",
"                                                                                                                                                                                                                      # + . . . . . . . . . . $ o : : > y y u f u q u q > = o + X . . . . . . . . . . + $ # = = = = = = : : : > > : = # $ $ . . . . . . . . . . . . . . . . . . . .                                                                                                                                                                                                         . . . . . . . . . . . . . . . X & a L o.&.4.q.6.&.$.~ x u q e r l P X.,.2.Z.F.~.oX(.(.W.y.t.8.X.P K d r r d r P o.( O.) J f y = & y             k q 0 w w a k v R R E R / Q J J v R W J J c v k k v C                                                                                                                                                                                                                                       ",
"                                                                                                                                                                                                                    o + . . . . . . . . . . . $ o > > > 3 u f q q w f u > = = : = o X . . . . . . . . . $ $ o o o o # # : : : : : = = o $ $ . . . . . . . . . . . . . . . . + $                                                                                                                                                                                                             + . . . . . . . . . . . . . . . X 0 v / ) &.q.9.=.*.~ c k k r d I U X.>.,.2.e.F.R.D.u.,.5.0.) K d d t d K ( +.8.8.5.q.c.k.$.S y = > 3 > & & 0 q k J W %.6.l.z.v.N.N._._._._.).).Q.E.E.m.c.c.c.0.$.R a 0 p                                                                                                                                                                                                                                   ",
"                                                                                                                                                                                                                  o + . . . . . . . . . . . . $ o > u u > u f f f w w f p q u j h > & o . . . . . . . . . . . + $ $ $ o = : = : = & & o $ + . . . . . . . . . . . + + + +                                                                                                                                                                                                                     . . . . . . . . . . . . . . . X & 0 c Q &.9.9.6.%.^ ~ c v K K K ( :.5.,.,.2.e.D.y.<.U ( P d r e t H _ c.E.].].].].W.E.v.6.' u . . . . X . X u =.c.).'.@X@X@X@X1X3X3X1X}.}.}.}.[.|.|.|.|.].`.E.v.-.c , & q                                                                                                                                                                                                                                 ",
"                                                                                                                                                                                                                  o X . . . . . . . . . . . . $ o = y u q q , e f w w w f z ! ' ! f q > & X X o + . . . . . . . . . $ $ o & & & & & & & + . . . . . . . . . . . o                                                                                                                                                                                                                               . . . . . . . . . . . . . . . X * w E %.4.9.6.&.^ ) L J L P P U O.5.5.5.w.w.y.8._ K r e 8 8 t I ,.].}.1X;X2X;XoX|.W.n.6./ 0 X . . . X ; 0 Q ).'.@X3X3X3X1X1X1X3X2X3XoXoX-XoXoXoXoXoX=X-X}.|.'.M.-.C y > 0                                                                                                                                                                                                                               ",
"                                                                                                                                                                                                                  o . . . . . . . . . . . . . $ o > q > > q 0 , w r w d c c ^ =.' c k 0 q 0 & * = & X . . . . . . . . $ $ o & & o o o o + . . . . . . . . . .                                                                                                                                                                                                                                   + . . . . . . . . . . . . . . X & e c ) $.6.&.) Q o.W L P P U P ( O.5.5.5.8.0.O.W e e 8 8 t <.W.}.2X2X4X5X4X;XoX[.].m.6.J 0 * * * , w J %.m.'.{.<X3X3X3X3X3X1X1X2X2X;X;X;X;XoXoXoXoX=X=X}.{.'.N.x.#.Z > & &                                                                                                                                                                                                                             ",
"                                                                                                                                                                                                                  o . . . . . . . . . . . . . + o > y 0 q q e e e k k d E / ) *.[ ^ c k x q 0 > > : o . . . . . . . . . $ $ $ o $ $ $ X . . . . . . . . . $                                                                                                                                                                                                                                       + . . . . . . . . . . . . . . X > x ~ ^ $.) ^ Q %.( Q Q P P P ( o.+.O.4.+.%.^ c 8 r K P w.W.-X2X4X4X4X4X4X;X;X[.W.z.O.L k u k c W 4.v._.{.}.}.1X6X6X6X6X4X2X4X4X4X;X2X2X2X2X;X;X-X}.}.|.`.).c.k.#.Z > X X ,                                                                                                                                                                                                                           ",
"                                                                                                                                                                                                                  + . . . . . . . . . . . . . + o > 0 q u w w k w c c k E W ) $.) ^ / E c q * , > & o + . . . . . . . . . . + + . . . . . . . . . . . .                                                                                                                                                                                                                                             X . . . . . . . . . . . . . X = f x c / E ^ Q ( ) Q P L J L Q W Q Q W J v k r e P 8.Q.|.1X2X4X4X4X4X:X:X4X2X}._.0.( W v J o.9.M.'.{.}.1X1X2X2X6X6X6X6X6X5X5X5X5X5X5X4X4X4X2X;X=X[.|.`.E.z.4.=.' V 4 X X &                                                                                                                                                                                                                           ",
"                                                                                                                                                                                                                  X . . . . . . . . . . . . . X X * * k k k k v b c c L L E ) $.) ) W W c w * * & o X + + + . X . . . . . . . . . . . . . . . . . . .                                                                                                                                                                                                                                               o X . . . . . . . . . . . . . + : q u C c E L L Q W L L L L E E c v k w 0 8 r P 0.`.1X1X1X4X5X5X4X4X;X;X;XoXW.r.( I J J ) c.E.|.1X3X2X4X5X5X6X6XsXsXsXsXiX6X5X6X5X4X4X4X4X2X;XoX[.^.n.z.%./ / C u > o X X >                                                                                                                                                                                                                         ",
"                                                                                                                                                                                                                  + . . . . . . . . . . . . . X X - q k c k k v c C c J W W Q o.Q W Q W k w q , * o + $ $ + . . . . . . . . . . . . . . . . . . . .                                                                                                                                                                                                                                                   o + . . . . . . . . . . . . . $ = = f z c E J W W L L L E S k q , & % ; 8 v 7.E.}.3X1X2X;X4X5X5X4X;X;XoX Xr.P t t P O.r.E.|.-X2X5X6X5X5XiXsXsXsXsXsXsXsXiX6X5X4X2X2X2X;X=X}.].W.v.9.o.E k u 0 = o X X . o                                                                                                                                                                                                                         ",
"                                                                                                                                                                                                                  + . . . . . . . . . . . . . X % 0 k k z z k v v c c c W W W Q L L L W v k u 0 > & o o $ $ . . . . . . . . . . . . . . . . + + $                                                                                                                                                                                                                                                       o + . . . . . . . . . . . . . + o > x S / L E L L L c c z 0 , & X & 9 d P >.p././.(.[.oX1X2X4X2XoX[. Xv.5.( K P 5.c.m.W.[.2X4X5X6XiXsXsXsXsXsXsXsXsX6X6X5X5X2X1X-X[.]./.E.v.0.o.E z u > & o o X . . . . o                                                                                                                                                                                                                       ",
"                                                                                                                                                                                                                  o . . . . . . . . . . . . . X % , k x z c c v k b c c J L W L l J c J v k x f 0 > = o $ + + . . . . . . . . . . . . . . + o #                                                                                                                                                                                                                                                           = $ . . . . . . . . . . . . . . + u V C c E C c v v k e * ; * 0 r l P X.,.D.D.u.1. .1.u.T.E.W.T.v.r.P r r d ) 0.m._.|.-X4X5X5XiXsXsXsXiXiXiX6X6X5X5X5X2X1X&X|.`.E.n.v.q.4.L k 0 - & # o X . . . . . . X                                                                                                                                                                                                                       ",
"                                                                                                                                                                                                                  o + . . . . . . . . . . . . X & q q z S c c v k k v v J J J v d v c k v c C z u y > = # + . . . . . . . . . . . . . . . $ =                                                                                                                                                                                                                                                               # # . . . . . . . . . . . . . . o y u c E c c c k r 8 % ; e L %.6.t.Q.R.R.~.R.Z. .H t t d d l r t 8 8 r ( l.v.).].}.2X5X5X5XiXsXsXiX6X5X4X2X2X2X-X-X&X].E.n.t.8.4.O.( E 9 & o + . . . . . . . . . . o                                                                                                                                                                                                                       ",
"                                                                                                                                                                                                                    + . . . . . . . . . . . . o - q e k E c v v w e f r k v c v v v x f v c x k h h h 2 = + + . . . . . . . . . . . . . . #                                                                                                                                                                                                                                                                   o . . . . . . . . . . . . . . + = y C S x x c k e 8 ; 9 J %.c.Q.W./.(.(.(.(.!.D.<.K t * & * X * w v 6.N._.)._.|.-X2X4X5X5X5X5X4X4X-XoX[.[.[.[.|.|.E.t.8.>._ L v l e , X X . . . . . . . . . . . . o                                                                                                                                                                                                                       ",
"                                                                                                                                                                                                                    + . . . . . . . . . . . X = , 0 0 k c J l k k , , 9 , q k w k z z k z k x x z z j y = + + . . . . . . . . . . . . . . o                                                                                                                                                                                                                                                                     + . . . . . . . . . . . . . . + 3 V V z z z z q e r J o.q.n.Q.R.(.(.(.oXoXoX|.Q._ d , X & & 9 l &.).'.'._.W.|.1X2X4X4X4X4X;XoX~.R.R.R.R.T.T.n.n.5._ L v w 9 0 0 * X . . . . . . . . . . . . . . o                                                                                                                                                                                                                       ",
"                                                                                                                                                                                                                    o . . . . . . . . . . . X o & * 9 w c J v r r * & & X X * , q u z k k k k z V V V h > X X . . . . . . . . . . . . . #                                                                                                                                                                                                                                                                         . . . . . . . . . . . . . . . = > h h u f f q w J _ 5.r.y.T.R./.[.[.[.(.(.]._.l./ q * X * 0 L c.).'.`.E.T.].1X2X2X4X4X=X(.~.!.D.e.e.w.w.8.5.4.P l w , & & X X X . . . . . . . . . . . . . . . =                                                                                                                                                                                                                       ",
"                                                                                                                                                                                                                      # . . . . . . . . . . . X X & 0 b v l v v e & & & X X X X * 0 0 0 u C C x C C V h = X X . . . . . . . . . . . . #                                                                                                                                                                                                                                                                           = X . . . . . . . . . . . . . . = > > > * & e l L +.>.r.p.D.R.!./.[.(.!.R.W.E.4.k 0 0 0 z c &.m.E.`.].W.W./.-X1X-X=XoXoXoX(././.T.y.r.8.5.+.Q k 9 , & X o X . . . . . . . . . . . . . . . . . >                                                                                                                                                                                                                       ",
"                                                                                                                                                                                                                      = + . . . . . . . . . . . X & 0 k v c c v r 9 * % X & o X & , 0 * p u k z z j h u * o X . . . . . . . . . . . . #                                                                                                                                                                                                                                                                             + . . . . . . . . . . . . . . o o o & X & 0 k J o.+.w.T.T.R.R.!.(./.~./.Q.r.W e , e z ~ ^ 0.N._.W.W.W.W.].[.oX[.(.(.[.oX[.|.].`.E.n.z.9.$.R q & & + X . . . . . . . . . . . . . . . . . . . =                                                                                                                                                                                                                       ",
"                                                                                                                                                                                                                        + . . . . . . . . . . . + o & * k c c v k w 9 ; & & & & & * - - 0 - - q q q q y & o $ . . . . . . . . . . . . #                                                                                                                                                                                                                                                                             o . . . . . . . . . . . . . . . . . . X & * 9 k L P >.y.e.D.R.F.!.!.R.W.v.O.K e * u ! $.&.0.m.Q.E.E.Q.W./.(.[.(././.[.[.}.{.`.'.m.0.%.^ c p > o + . . . . . . . . . . . . . . . . . . . . X =                                                                                                                                                                                                                       ",
"                                                                                                                                                                                                                          . . . . . . . . . . . . + o * u C E c c v e 9 0 * * > * & - - - & & * = = = & . X . . . . . . . . . . . . . . $ =                                                                                                                                                                                                                                                                           + . . . . . . . . . . . . . . . . . . . X % * 9 d P 5.,.u.D.D.D.T.T.y.:.d 9 8 0 S *.&.4.q.q.t.n.Q.Q.W././.(.(./.[.|.|.{.'.m.c.&.E v u , X . . . . . . . . . . . . . . . . . . . . . . . X                                                                                                                                                                                                                         ",
"                                                                                                                                                                                                                            o . . . . . . . . . . . o = u E ~ / ^ E c c k q q q 0 , - - * & X X X o X . . . . . . . . . . . . . . . . . o = 3                                                                                                                                                                                                                                                                         # # . . . . . . . . . . . . . . . . . . . . X X 0 v ( U :.i.r.i.r.t.:.I r ; & q ^ =.&.4.5.8.r.t.p.T.W.^.!.!.(.|.|.|.`._.M.9.^ k , & X X . . . . . . . . . . . . . . . . . . . . . . . . +                                                                                                                                                                                                                         ",
"                                                                                                                                                                                                                              o . . . . . . . . . . = > q c E J W ^ ^ / C c x x k u 0 , - * * , * & o . X X . . . . X X o & : > : & o & & = & =                                                                                                                                                                                                                                                                         = + . . . . . . . . . . . . . . . . . . . X X & * w l K P +._ o.&.o.W k 8 0 c ^ O.4.5.>.8.r.r.t.T.W././././.|.].'.m.0.o.c q & . . . . . . . . . . . . . . . . . . . . . . . . . . . . +                                                                                                                                                                                                                         ",
"                                                                                                                                                                                                                                . . . . . . . . . . + = p z E J W ) ) ^ W E E E E c z k u q 0 q > > = & > , X X o & * , > p u f f x f q 0 , - , > =                                                                                                                                                                                                                                                                       + . . O . . . . . . . . . . . . . . . . . . X X & * e d v k c R c c k 9 q / o.O.4.5.5.8.r.u.y.T.R.W.R.R.W.^.m.0.$.v q * X . . . . . . . . . . . . . . . . . . . . . . . . . . . . . o                                                                                                                                                                                                                         ",
"                                                                                                                                                                                                                                + . . . . . . . . . . X 0 z ! / ) ) ) ) ) ( ( ( ^ ^ / E R c k k f f x w w q , , > , e w f x c C ! ^ / ~ E k u 0 - & &                                                                                                                                                                                                                                                                       + # . O . . . . . . . . . = o . . . . . . X X X X & - - 0 u 0 0 0 , 9 u ^ $.&.0.r.r.r.r.r.y.y.e.e.e.e.w.>.P a 0 % . . . . . . . . . . . . . . . . . . . . . . . . . . . . . . . o                                                                                                                                                                                                                           ",
"                                                                                                                                                                                                                                  + + . . . . . . . . . o p V / [ ) ( ) ) +.O.O.%.%.) ) ) / W E c v L c k k k k z u k v c / ^ ^ ) o.^ $.$./ x * - - = =                                                                                                                                                                                                                                                                       = # . . . . . . . . . . = 2 = > = o X X X X X X + o # o * & & & , e v ) %.4.v.v.v.n.y.u.e.2.w.e.w.,._ d 8 % X . . . . . . . . . . . . . . . . . . . . . . . . . . . . . . . o                                                                                                                                                                                                                             ",
"                                                                                                                                                                                                                                    + . . . . . . . . . . & u x / ) ( +.+.+.+.:.4.4.O.&.6.&.O.o.( ( ( Q W W W / ^ W W Q Q Q ( ) o.o.%.&.=.=.[ c z 0 & & > 4                                                                                                                                                                                                                                                                     2 . . . . . . . . . . = 4 N A p - & & & % & = = o + X X & X * q k E o.%.4.q.v.E.W.W.Q.y.w.u.y.t.5.( r 8 ; . . . . . . . . . . . . . . . . . . . . . . . . . . . . . . X o                                                                                                                                                                                                                               ",
"                                                                                                                                                                                                                                      + . . . . . . . . . . = f C / ) ) ) +.O.4.5.7.7.4.5.4.:.4.:.O.:.%.O.%.4.6.&.6.6.6.6.4.:.5.q.5.l.v.v.c.l.6.&.^ c k 0 > =                                                                                                                                                                                                                                                                     # . . . . . . . . . o 3 M C u 0 0 0 0 - - > : $ . X X & & & * k ^ 6.q.q.r.n.W.W.W.W.T.y.n.t.5.O./ k q = . . . . . . . . . . . . . . . . . . . . . . . . . . . . . +                                                                                                                                                                                                                                   ",
"                                                                                                                                                                                                                                        . . . . . . . . . . X > h c ^ ) ) o.O.4.7.5.5.5.5.5.4.5.5.4.5.5.0.0.c.c.c.v.v.v.v.v.v.m.m.v.m.)._._.).m.z.l.6.$.C u = =                                                                                                                                                                                                                                                                   2 + . . . . . . . . . : N ! C z C x z f q q 3 = X & & * * * * k ) 6.0.t.v.W.W.W.W.Q.p.u.8.q.O.E f , * & . . . . . . . . . . . . . . . . . . . . . . . . . . . o                                                                                                                                                                                                                                       ",
"                                                                                                                                                                                                                                        + . . . . . . . . . . X = f ^ $.) o.%.5.5.5.5.5.r.r.r.r.r.r.w.r.r.v.v.v.v.m.Q.Q.Q.).).).).)._.{.@X@X{.].).m.m.z.=.E u > =                                                                                                                                                                                                                                                                   # . . . . . . . . . = j ` S S ^ ^ / E ! x f e 9 0 , - * * 9 v o.4.8.8.n.E.Q.T.W.Q.y.8.+._ v * % X . . . . . . . . . . . . . . . . . . . . . . . . . . . . o                                                                                                                                                                                                                                         ",
"                                                                                                                                                                                                                                          . . . . . . . . . . . X > x W ) o.&.5.5.5.5.w.r.r.r.r.r.r.r.y.y.v.n.n.n.T.E.Q.E._.]._._.`.{.@X@X@X@X{.].).m.z.6.*.~ u > =                                                                                                                                                                                                                                                                 o . . . . . . . . . o 3 V C / o.^ Q / o.E c l k k f u 0 0 r / 4.t.r.8.v.n.y.v.n.t.5.&.L k 9 X X X . . . . . . . . . . . . . . . . . . . . . . . . . X o                                                                                                                                                                                                                                             ",
"                                                                                                                                                                                                                                            . . . . . . . . . . X X 9 k / o.&.5.5.8.8.8.r.r.y.y.v.v.T.T.Q.T.E.E.Q.Q.E.E.E.`.|.]._.`.{.@X{.{.{.|.]._.).c.9.=.*.C y = :                                                                                                                                                                                                                                                               # . . . . . . . . . o - q k / o.^ W Q o.o.) W L L / S x x L o.q.t.t.t.y.8.8.8.8.O.Q C q & & X X . . . . . . . . . . . . . . . . . . . . . . . . . +                                                                                                                                                                                                                                                 ",
"                                                                                                                                                                                                                                              + . . . . . . . . . . X , J ) O.O.4.8.0.r.r.r.y.y.T.T.T.W.W.W.^.].].`.W.W.W.].].].W.W._._.].|.].].].].E.E.v.9.&.' A > = o o                                                                                                                                                                                                                                                             . . . . . . . . . X X & 9 c $.o.o.o.>.4.O.+._ o.o.^ E c L o.q.t.t.y.8.X.X.P v k u , o X X . . . . . . . . . . . . . . . . . . . . . . . . . o                                                                                                                                                                                                                                                     ",
"                                                                                                                                                                                                                                                . . . . . . . . . . . X q v L P O.5.8.r.r.r.y.y.y.T.T.R.R.^.].[.}.|.].W.].].`.W._.E.T.E._.W.W. X].].Q.E.v.r.7.&./ h > o $ $                                                                                                                                                                                                                                                           . . . . . . . . . . X X & v $.o.&.7.5.5.4.4.O.4.&.o.Q Q ( +.6.8.q.q.4.Q k q & X . . . . . . . . . . . . . . . . . . . . . . . . . . . . .                                                                                                                                                                                                                                                         ",
"                                                                                                                                                                                                                                                    . . . . . . . . . X % * 9 v ) 4.5.r.t.t.t.t.y.T.T.R.R.^.].[.|.|.|.].`.E.n.n.n.v.c.v.v.T.T.Q.Q.E.T.v.v.r.5.&.[ C u & . +                                                                                                                                                                                                                                                           + . . . . . . . . . X X & e Q o.4.q.0.q.5.4.7.q.9.%.O.O.O.6.&.+.O.%.o.k * & + . . . . . . . . . . . . . . . . . . . . . . . . . . . . +                                                                                                                                                                                                                                                           ",
"                                                                                                                                                                                                                                                      . . . . . . . . . X X X 9 v Q &.q.0.r.r.r.y.Q.E.W.W.].].|.|.|.].W.E.E.r.0.q.q.6.6.5.5.r.r.c.c.c.c.r.5.5.4.%.^ C y + + o                                                                                                                                                                                                                                                         + . . . . . . . . . . X & 9 c ) %.7.5.q.q.q.q.0.0.6.6.%.&.9.%.&.%.Q v * X . . . . . . . . . . . . . . . . . . . . . . . . . . . . X                                                                                                                                                                                                                                                               ",
"                                                                                                                                                                                                                                                        . . . . . . . . . . X & 9 d c ( &.4.6.5.q.t.v.n.E.E.E.W.W.E.T.y.v.t.8.4.%.%.%.:.%.:.7.:.:.7.7.7.0.5.7.4.&.$.~ j = + #                                                                                                                                                                                                                                                           + . . . . . . . . . X X ; e E _ O.8.q.6.q.0.0.6.&.6.%.^ o.o.Q c w * X . . . . . . . . . . . . . . . . . . . . . . . . . . X                                                                                                                                                                                                                                                                     ",
"                                                                                                                                                                                                                                                            + . . . . . . . . X X & * 0 k J Q Q o.4.q.t.M.M.v.M.t.t.8.>.,.+._ ) ^ ) ) o.O.) ( ( ( ) ) %.%.%.%.%.%.$.~ C > o +                                                                                                                                                                                                                                                           # . . . . . . . . . . X X ; v o.4.q.8.5.5.0.q.&.%.o.o.^ E c b e & X . . . . . . . . . . . . . . . . . . . . . . . . . .                                                                                                                                                                                                                                                                         ",
"                                                                                                                                                                                                                                                              . . . . . . . . . . . X X & * , 0 k L ) %.9.0.l.z.0.6.>.+.+.X.Q ^ ~ ~ / W W R J J R R W ^ ) ) ) ) [ $.$.C y o + +                                                                                                                                                                                                                                                         . . . . . . . . . . . . X & v &.0.0.r.8.q.c.0.6.&.o.E x u : = X . . . . . . . . . . . . . . . . . . . . . . . . . .                                                                                                                                                                                                                                                                             ",
"                                                                                                                                                                                                                                                                + . . . . . . . . . . . . . . X & 0 q f k c ^ $.$.) o.o.o.^ ~ ! D S C C C c c c c C R E E / ) [ [ $.' z > + + +                                                                                                                                                                                                                                                         . . . . . . . . . . . . X > k ) 6.6.5.5.9.c.l.9.*.! u & X . . . . . . . . . . . . . . . . . . . . . . . . + o                                                                                                                                                                                                                                                                                   ",
"                                                                                                                                                                                                                                                                    . . . . . . . . . . . . . . . X X & & * 0 q u k c S E S S C V V z x z h k k z C S S C R ! ~ ` ' E y o + +                                                                                                                                                                                                                                                           + . . . . . . . . . . . X > k E o.) W ) %.6.$./ c 0 X . . . . . . . . . . . . . . . . . . . . . . . + +                                                                                                                                                                                                                                                                                         ",
"                                                                                                                                                                                                                                                                      . . . . . . . . . . . . . . . . . . . X X o & - > p u h j h h h h u h h u p u z z z A C D E D h * X . +                                                                                                                                                                                                                                                             . . . . . . . . . . . . X q E ^ ^ ^ [ ^ E k 0 & X . . . . . . . . . . . . . . . . . . . . . O .                                                                                                                                                                                                                                                                                               ",
"                                                                                                                                                                                                                                                                          o + . . . . . . . . . . . . . . . . . . . X o o & , > > 3 y y 3 4 u 3 = = > y p j z C V u > o . . #                                                                                                                                                                                                                                                             . . . . . . . . . . . . X > C ~ ~ ~ ~ ! f * X . . . . . . . . . . . . . . . . . . . . . .                                                                                                                                                                                                                                                                                                     ",
"                                                                                                                                                                                                                                                                              $ . . . . . . . . . . . . . . . . . . . . X X X o $ $ $ o $ + o o o + + + > g h g y = X . . .                                                                                                                                                                                                                                                               # . . . . . . . . . . . X & u z z h h u > X . . . . . . . . . . . . . . . . . . . . .                                                                                                                                                                                                                                                                                                         ",
"                                                                                                                                                                                                                                                                                + . . . . . . . . . . . . . . . . . . . . . . . . . . . . . . . . . . . + # : : # + . . . +                                                                                                                                                                                                                                                                 . . . . . . . . . . . . + o & & o o o X . . . . . . . . . . . . . . . . . . .                                                                                                                                                                                                                                                                                                               ",
"                                                                                                                                                                                                                                                                                    . . . . . . . . . . . . . . . . . . . . . . . . . . . . . . . . . . . . . . . . . . .                                                                                                                                                                                                                                                                   . . . . . . . . . . . . . . . . . . . . . . . . . . . . . . . . . . . .                                                                                                                                                                                                                                                                                                                     ",
"                                                                                                                                                                                                                                                                                      . . . . . . . . . . . . . . . . . . . . . . . . . . . . . . . . . . . . . . . $ #                                                                                                                                                                                                                                                                       . . . . . . . . . . . . . . . . . . . . . . . . . . . . . . . . .                                                                                                                                                                                                                                                                                                                         ",
"                                                                                                                                                                                                                                                                                          . . . . . . . . . . . . . . . . . . . . . . . . . . . . . . . . . . . . . #                                                                                                                                                                                                                                                                           . . . . . . . . . . . . . . . . . . . . . . . . . . . . .                                                                                                                                                                                                                                                                                                                               ",
"                                                                                                                                                                                                                                                                                              + . . . . . . . . . . . . . . . . . . . . . . . . . . . . . . . . . #                                                                                                                                                                                                                                                                                 . . . . . . . . . . . . . . . . . . . . . . . .                                                                                                                                                                                                                                                                                                                                     ",
"                                                                                                                                                                                                                                                                                                  . . . . . . . . . . . . . . . . . . . . . . . . . . . . . . . @                                                                                                                                                                                                                                                                                         $ . . . . . . . . . . . . . . . . .                                                                                                                                                                                                                                                                                                                                           ",
"                                                                                                                                                                                                                                                                                                      . . . . . . . . . . . . . . . . . . . . . . . . . . . . #                                                                                                                                                                                                                                                                                               . . . . . . . . . . . . .                                                                                                                                                                                                                                                                                                                                                 ",
"                                                                                                                                                                                                                                                                                                          . . . . . . . . . . . . . . . . . . . . . . . + # +                                                                                                                                                                                                                                                                                                           .                                                                                                                                                                                                                                                                                                                                                               ",
"                                                                                                                                                                                                                                                                                                                . . . . . . . . . . . . . . . . . . . . =                                                                                                                                                                                                                                                                                                                                                                                                                                                                                                                                                                                                                                                                               ",
"                                                                                                                                                                                                                                                                                                                      . . . . . . . . . . . . . . . . .                                                                                                                                                                                                                                                                                                                                                                                                                                                                                                                                                                                                                                                                                 ",
"                                                                                                                                                                                                                                                                                                                                                                                                                                                                                                                                                                                                                                                                                                                                                                                                                                                                                                                                                                                                                                        ",
"                                                                                                                                                                                                                                                                                                                                                                                                                                                                                                                                                                                                                                                                                                                                                                                                                                                                                                                                                                                                                                        ",
"                                                                                                                                                                                                                                                                                                                                                                                                                                                                                                                                                                                                                                                                                                                                                                                                                                                                                                                                                                                                                                        ",
"                                                                                                                                                                                                                                                                                                                                                                                                                                                                                                                                                                                                                                                                                                                                                                                                                                                                                                                                                                                                                                        ",
"                                                                                                                                                                                                                                                                                                                                                                                                                                                                                                                                                                                                                                                                                                                                                                                                                                                                                                                                                                                                                                        ",
"                                                                                                                                                                                                                                                                                                                                                                                                                                                                                                                                                                                                                                                                                                                                                                                                                                                                                                                                                                                                                                        ",
"                                                                                                                                                                                                                                                                                                                                                                                                                                                                                                                                                                                                                                                                                                                                                                                                                                                                                                                                                                                                                                        ",
"                                                                                                                                                                                                                                                                                                                                                                                                                                                                                                                                                                                                                                                                                                                                                                                                                                                                                                                                                                                                                                        ",
"                                                                                                                                                                                                                                                                                                                                                                                                                                                                                                                                                                                                                                                                                                                                                                                                                                                                                                                                                                                                                                        ",
"                                                                                                                                                                                                                                                                                                                                                                                                                                                                                                                                                                                                                                                                                                                                                                                                                                                                                                                                                                                                                                        ",
"                                                                                                                                                                                                                                                                                                                                                                                                                                                                                                                                                                                                                                                                                                                                                                                                                                                                                                                                                                                                                                        ",
"                                                                                                                                                                                                                                                                                                                                                                                                                                                                                                                                                                                                                                                                                                                                                                                                                                                                                                                                                                                                                                        ",
"                                                                                                                                                                                                                                                                                                                                                                                                                                                                                                                                                                                                                                                                                                                                                                                                                                                                                                                                                                                                                                        ",
"                                                                                                                                                                                                                                                                                                                                                                                                                                                                                                                                                                                                                                                                                                                                                                                                                                                                                                                                                                                                                                        ",
"                                                                                                                                                                                                                                                                                                                                                                                                                                                                                                                                                                                                                                                                                                                                                                                                                                                                                                                                                                                                                                        ",
"                                                                                                                                                                                                                                                                                                                                                                                                                                                                                                                                                                                                                                                                                                                                                                                                                                                                                                                                                                                                                                        ",
"                                                                                                                                                                                                                                                                                                                                                                                                                                                                                                                                                                                                                                                                                                                                                                                                                                                                                                                                                                                                                                        ",
"                                                                                                                                                                                                                                                                                                                                                                                                                                                                                                                                                                                                                                                                                                                                                                                                                                                                                                                                                                                                                                        ",
"                                                                                                                                                                                                                                                                                                                                                                                                                                                                                                                                                                                                                                                                                                                                                                                                                                                                                                                                                                                                                                        ",
"                                                                                                                                                                                                                                                                                                                                                                                                                                                                                                                                                                                                                                                                                                                                                                                                                                                                                                                                                                                                                                        ",
"                                                                                                                                                                                                                                                                                                                                                                                                                                                                                                                                                                                                                                                                                                                                                                                                                                                                                                                                                                                                                                        ",
"                                                                                                                                                                                                                                                                                                                                                                                                                                                                                                                                                                                                                                                                                                                                                                                                                                                                                                                                                                                                                                        ",
"                                                                                                                                                                                                                                                                                                                                                                                                                                                                                                                                                                                                                                                                                                                                                                                                                                                                                                                                                                                                                                        ",
"                                                                                                                                                                                                                                                                                                                                                                                                                                                                                                                                                                                                                                                                                                                                                                                                                                                                                                                                                                                                                                        ",
"                                                                                                                                                                                                                                                                                                                                                                                                                                                                                                                                                                                                                                                                                                                                                                                                                                                                                                                                                                                                                                        ",
"                                                                                                                                                                                                                                                                                                                                                                                                                                                                                                                                                                                                                                                                                                                                                                                                                                                                                                                                                                                                                                        ",
"                                                                                                                                                                                                                                                                                                                                                                                                                                                                                                                                                                                                                                                                                                                                                                                                                                                                                                                                                                                                                                        ",
"                                                                                                                                                                                                                                                                                                                                                                                                                                                                                                                                                                                                                                                                                                                                                                                                                                                                                                                                                                                                                                        ",
"                                                                                                                                                                                                                                                                                                                                                                                                                                                                                                                                                                                                                                                                                                                                                                                                                                                                                                                                                                                                                                        "
};
